filters/B&W.cube
TITLE "Generated by Resolve"
LUT_3D_SIZE 5
0.0859541 0 0
0.0455634 0.0326085 0.0326085
0.074342 0.069749 0.069749
0.114763 0.107744 0.107744
0.161791 0.152651 0.152651
0.209461 0.102007 0.100282
0.182406 0.171176 0.169467
0.234775 0.231891 0.230182
0.305425 0.30013 0.298421
0.380774 0.373327 0.371618
0.4103 0.305806 0.301122
0.40856 0.400305 0.395621
0.474678 0.474769 0.470085
0.550652 0.548318 0.543633
0.625391 0.62092 0.616236
0.656077 0.554253 0.546914
0.652155 0.646555 0.639216
0.711849 0.714611 0.707256
0.771908 0.772244 0.764904
0.823835 0.822034 0.814694
0.87039 0.770153 0.761227
0.842161 0.838148 0.829221
0.876738 0.881086 0.87216
0.915801 0.917723 0.908782
0.952697 0.952483 0.943557
0.0978714 0 0
0.0573129 0.0443732 0.0460822
0.0867781 0.0821851 0.0838941
0.129046 0.122042 0.123751
0.179217 0.170062 0.171786
0.224811 0.117357 0.117357
0.201083 0.189868 0.189868
0.257084 0.254215 0.254215
0.330053 0.324758 0.324758
0.405768 0.398337 0.398337
0.435279 0.330785 0.327825
0.433219 0.424964 0.421988
0.499611 0.499702 0.496742
0.575616 0.573281 0.570321
0.649256 0.644785 0.64181
0.680781 0.578943 0.573327
0.675334 0.669734 0.664103
0.732403 0.735164 0.729534
0.7897 0.790036 0.784405
0.839109 0.837293 0.831662
0.887236 0.786999 0.779782
0.856596 0.852583 0.845365
0.889586 0.893919 0.886702
0.927749 0.929671 0.922454
0.964462 0.964248 0.957031
0.109743 0.000564584 0.0052491
0.0690623 0.0561227 0.0608072
0.0996109 0.0950179 0.0997024
0.144228 0.137224 0.141909
0.197726 0.188571 0.193256
0.241154 0.1337 0.13666
0.220905 0.209689 0.21265
0.280324 0.277455 0.280415
0.354925 0.34963 0.352605
0.430365 0.422934 0.42591
0.460273 0.355795 0.355795
0.457481 0.449226 0.449226
0.52459 0.524681 0.524681
0.600244 0.59791 0.59791
0.672374 0.667918 0.667918
0.704997 0.603174 0.600504
0.697643 0.692042 0.689387
0.751904 0.754665 0.751995
0.806516 0.806851 0.804196
0.853498 0.851698 0.849027
0.903136 0.802899 0.798657
0.870314 0.8663 0.862058
0.901946 0.906279 0.902037
0.939467 0.941375 0.937133
0.976242 0.976013 0.971771
0.121462 0.0122835 0.0196384
0.0810712 0.0681315 0.0754711
0.1131 0.108507 0.115862
0.160525 0.153506 0.160861
0.217487 0.208331 0.215686
0.258656 0.151202 0.156832
0.242023 0.230808 0.236439
0.304356 0.301472 0.307103
0.37995 0.374655 0.380285
0.454658 0.447227 0.452857
0.485176 0.380697 0.383352
0.482109 0.473854 0.476509
0.549615 0.549706 0.552361
0.624506 0.622187 0.624842
0.694774 0.690303 0.692973
0.72871 0.626886 0.626886
0.719066 0.713466 0.713466
0.770489 0.773251 0.773251
0.822492 0.822828 0.822828
0.867292 0.865476 0.865476
0.918227 0.817975 0.816403
0.883513 0.879499 0.877928
0.914031 0.918379 0.916793
0.951141 0.953063 0.951476
0.988205 0.987976 0.986404
0.133211 0.0240482 0.0329747
0.0935378 0.0805982 0.0895247
0.127443 0.122866 0.131792
0.178012 0.171008 0.179934
0.23859 0.229435 0.238361
0.277409 0.169955 0.177172
0.264424 0.253193 0.26041
0.329 0.326131 0.333349
0.404944 0.399649 0.406867
0.479332 0.471901 0.479103
0.509834 0.405341 0.409583
0.507057 0.498802 0.503044
0.574578 0.57467 0.578912
0.648356 0.646021 0.650263
0.71635 0.711879 0.716121
0.751858 0.650034 0.651606
0.739574 0.733974 0.735561
0.788251 0.790997 0.792584
0.837736 0.838056 0.839643
0.880598 0.878798 0.880385
0.932631 0.832395 0.832395
0.896345 0.892332 0.892332
0.925994 0.930327 0.930327
0.962921 0.964843 0.964843
1 0.999954 0.999954
