filters/B&W.cube
TITLE "Generated by Resolve"
LUT_3D_SIZE 9
0.0859541 0 0
0.0488289 0.0093843 0.0093843
0.0455634 0.0326085 0.0326085
0.0577249 0.0515602 0.0515602
0.074342 0.069749 0.069749
0.0935378 0.0882429 0.0882429
0.114763 0.107744 0.107744
0.137667 0.128939 0.128939
0.161791 0.152651 0.152651
0.144732 0.0363165 0.0355688
0.107927 0.0692302 0.0684825
0.106081 0.0938888 0.0931411
0.121172 0.115755 0.115007
0.14226 0.138415 0.137667
0.167483 0.162936 0.162188
0.196002 0.189731 0.188983
0.227176 0.219196 0.218448
0.260044 0.251637 0.250889
0.209461 0.102007 0.100282
0.177707 0.139971 0.138262
0.182406 0.171176 0.169467
0.205188 0.200732 0.199023
0.234775 0.231891 0.230182
0.268727 0.265156 0.263432
0.305425 0.30013 0.298421
0.343359 0.336339 0.334615
0.380774 0.373327 0.371618
0.296178 0.190143 0.186999
0.273091 0.236789 0.233646
0.286412 0.276616 0.273472
0.316945 0.313924 0.31078
0.352544 0.351095 0.347967
0.390204 0.388052 0.384909
0.428214 0.424338 0.421195
0.465705 0.460121 0.456977
0.502831 0.496818 0.493675
0.4103 0.305806 0.301122
0.392401 0.357641 0.352956
0.40856 0.400305 0.395621
0.439551 0.438071 0.433387
0.474678 0.474769 0.470085
0.512184 0.511574 0.506889
0.550652 0.548318 0.543633
0.588876 0.584817 0.580133
0.625391 0.62092 0.616236
0.532738 0.42974 0.42356
0.514458 0.481193 0.475013
0.530648 0.523888 0.517708
0.562387 0.562402 0.556222
0.597818 0.599405 0.593225
0.634211 0.635096 0.628916
0.670161 0.669322 0.663142
0.704448 0.7019 0.69572
0.735668 0.732692 0.726513
0.656077 0.554253 0.546914
0.637583 0.605493 0.598138
0.652155 0.646555 0.639216
0.680858 0.682048 0.674693
0.711849 0.714611 0.707256
0.742519 0.744564 0.737224
0.771908 0.772244 0.764904
0.799344 0.797955 0.7906
0.823835 0.822034 0.814694
0.773327 0.672358 0.664164
0.749905 0.718639 0.71046
0.758373 0.753628 0.745434
0.780362 0.782376 0.774197
0.804486 0.808087 0.799893
0.82855 0.831449 0.823255
0.851667 0.852842 0.844663
0.873411 0.872862 0.864668
0.893019 0.892042 0.883864
0.87039 0.770153 0.761227
0.840177 0.809659 0.800732
0.842161 0.838148 0.829221
0.85803 0.860792 0.851865
0.876738 0.881086 0.87216
0.896239 0.89987 0.890944
0.915801 0.917723 0.908782
0.934874 0.935073 0.926146
0.952697 0.952483 0.943557
0.0917983 0 0
0.0547951 0.0153506 0.0160983
0.0514382 0.0384985 0.0392462
0.0636759 0.0575113 0.0582589
0.0805066 0.0759136 0.0766613
0.100084 0.094789 0.0955367
0.121813 0.114794 0.115541
0.145434 0.136706 0.137453
0.170367 0.161212 0.161959
0.150744 0.0423133 0.0423133
0.114199 0.0755016 0.0755016
0.112795 0.100603 0.100603
0.12845 0.123033 0.123033
0.150301 0.146456 0.146456
0.176364 0.171817 0.171817
0.205768 0.199496 0.199496
0.237888 0.229892 0.229892
0.271565 0.263157 0.263157
0.216999 0.109545 0.108583
0.186053 0.148333 0.147356
0.191592 0.180377 0.1794
0.21529 0.210834 0.209873
0.245792 0.242924 0.241947
0.280507 0.276921 0.275959
0.317693 0.312398 0.311421
0.355871 0.348852 0.347875
0.393301 0.38587 0.384894
0.306615 0.200595 0.198199
0.284413 0.248112 0.245716
0.29839 0.288594 0.286198
0.329335 0.326314 0.323919
0.365103 0.363653 0.361257
0.402686 0.400534 0.398138
0.440375 0.436515 0.434119
0.478096 0.472496 0.4701
0.515358 0.509346 0.50695
0.422766 0.318288 0.314351
0.404959 0.370199 0.366262
0.420951 0.412695 0.408759
0.451759 0.450278 0.446342
0.487129 0.487221 0.483284
0.524727 0.524117 0.52018
0.563165 0.56083 0.556893
0.601205 0.597147 0.59321
0.6374 0.632929 0.628992
0.545052 0.442054 0.436622
0.526955 0.493706 0.488258
0.543206 0.536446 0.531014
0.574853 0.574868 0.569436
0.61004 0.611627 0.606195
0.646067 0.646952 0.64152
0.681498 0.680659 0.675227
0.715129 0.712566 0.707134
0.745617 0.742641 0.737209
0.668467 0.566644 0.560052
0.649699 0.617594 0.611002
0.663828 0.658244 0.651637
0.691981 0.693156 0.686564
0.722255 0.725002 0.71841
0.752209 0.754269 0.747662
0.780926 0.781262 0.77467
0.807706 0.806317 0.79971
0.831586 0.82977 0.823178
0.784207 0.683223 0.675792
0.760052 0.728786 0.721355
0.767819 0.763073 0.755627
0.789136 0.79115 0.783719
0.812619 0.81622 0.808774
0.836072 0.838972 0.831525
0.858671 0.859846 0.852415
0.880003 0.879454 0.872023
0.899306 0.898344 0.890898
0.878935 0.778683 0.770504
0.848081 0.817563 0.809384
0.84947 0.845457 0.837278
0.864881 0.867643 0.859464
0.883223 0.887556 0.879377
0.902449 0.906081 0.897902
0.921813 0.92372 0.915541
0.94078 0.940963 0.932784
0.958587 0.958358 0.950179
0.0978714 0 0
0.0606851 0.0212406 0.0229648
0.0573129 0.0443732 0.0460822
0.0696727 0.063508 0.0652171
0.0867781 0.0821851 0.0838941
0.106752 0.101457 0.103182
0.129046 0.122042 0.123751
0.153445 0.144717 0.146426
0.179217 0.170062 0.171786
0.156817 0.0483864 0.0493629
0.120592 0.0818952 0.0828717
0.119661 0.107469 0.108431
0.135958 0.130541 0.131518
0.158618 0.154772 0.155749
0.185519 0.180972 0.181949
0.215824 0.209567 0.210529
0.248875 0.240894 0.241856
0.283299 0.274891 0.275868
0.224811 0.117357 0.117357
0.194675 0.156939 0.156939
0.201083 0.189868 0.189868
0.225696 0.221241 0.221241
0.257084 0.254215 0.254215
0.292454 0.288869 0.288869
0.330053 0.324758 0.324758
0.368399 0.361379 0.361379
0.405768 0.398337 0.398337
0.317372 0.211337 0.209918
0.295964 0.259663 0.258244
0.310521 0.30071 0.29929
0.341787 0.338766 0.337331
0.37763 0.376181 0.374762
0.415061 0.412909 0.41149
0.452567 0.448692 0.447272
0.490517 0.484932 0.483497
0.527901 0.521889 0.52047
0.435279 0.330785 0.327825
0.417456 0.382696 0.379736
0.433219 0.424964 0.421988
0.464042 0.462562 0.459586
0.499611 0.499702 0.496742
0.53727 0.53666 0.5337
0.575616 0.573281 0.570321
0.613428 0.609369 0.606409
0.649256 0.644785 0.64181
0.557427 0.454429 0.449973
0.539483 0.506218 0.501762
0.555718 0.548959 0.544503
0.587228 0.587243 0.582788
0.622141 0.623728 0.619272
0.65774 0.658625 0.654169
0.692607 0.691783 0.687312
0.725536 0.722988 0.718517
0.755322 0.752346 0.74789
0.680781 0.578943 0.573327
0.661662 0.629572 0.623941
0.675334 0.669734 0.664103
0.702846 0.704036 0.698405
0.732403 0.735164 0.729534
0.761654 0.763714 0.758083
0.7897 0.790036 0.784405
0.815839 0.81445 0.80882
0.839109 0.837293 0.831662
0.794812 0.693828 0.687358
0.76994 0.738674 0.732204
0.77702 0.772274 0.765805
0.797665 0.799695 0.793225
0.820523 0.824125 0.817655
0.843381 0.846281 0.839811
0.865522 0.866697 0.860227
0.886473 0.885924 0.879454
0.905501 0.904524 0.898054
0.887236 0.786999 0.779782
0.855772 0.825254 0.818036
0.856596 0.852583 0.845365
0.87158 0.874342 0.86714
0.889586 0.893919 0.886702
0.908553 0.912184 0.904967
0.927749 0.929671 0.922454
0.946639 0.946838 0.93962
0.964462 0.964248 0.957031
0.103838 0 0
0.0665293 0.0270848 0.0302281
0.0631723 0.0502327 0.0533761
0.0757 0.0695354 0.0726787
0.0931258 0.0885328 0.0916762
0.113573 0.108278 0.111421
0.136507 0.129503 0.132647
0.161715 0.152972 0.156115
0.188327 0.179171 0.182315
0.162951 0.0545205 0.0569162
0.127092 0.0883955 0.0907912
0.12668 0.114488 0.116884
0.143709 0.138293 0.140688
0.167178 0.163333 0.165728
0.194965 0.190417 0.192798
0.226184 0.219913 0.222309
0.260121 0.252125 0.25452
0.295201 0.286793 0.289189
0.232837 0.125383 0.126818
0.20354 0.16582 0.167239
0.210849 0.199619 0.201053
0.236378 0.231937 0.233356
0.268605 0.265721 0.267155
0.304524 0.300954 0.302373
0.342458 0.337163 0.338598
0.380911 0.373892 0.375311
0.418128 0.410697 0.412116
0.328389 0.22237 0.22237
0.307713 0.271412 0.271412
0.322744 0.312947 0.312947
0.354269 0.351232 0.351232
0.390112 0.388663 0.388663
0.427314 0.425162 0.425162
0.46482 0.460945 0.460945
0.502968 0.497383 0.497383
0.540398 0.534386 0.534386
0.447776 0.343297 0.341756
0.429892 0.395132 0.393576
0.445335 0.437079 0.435538
0.476387 0.474907 0.473365
0.512093 0.512184 0.510643
0.549767 0.549157 0.547616
0.587976 0.585641 0.5841
0.625498 0.621454 0.619913
0.660899 0.656428 0.654887
0.569833 0.46685 0.463798
0.55198 0.518715 0.515679
0.568185 0.561425 0.558389
0.599512 0.599527 0.59649
0.634089 0.635676 0.632639
0.669215 0.6701 0.667063
0.703471 0.702632 0.699596
0.735668 0.73312 0.730083
0.764752 0.761776 0.75874
0.692943 0.591119 0.586908
0.673442 0.641352 0.63714
0.686595 0.680995 0.676799
0.713451 0.714626 0.71043
0.742275 0.745037 0.740826
0.77084 0.7729 0.768688
0.79823 0.79855 0.794354
0.823728 0.822339 0.818128
0.846403 0.844587 0.840391
0.805142 0.704158 0.699123
0.779553 0.748287 0.743252
0.785962 0.781201 0.776165
0.805966 0.80798 0.80293
0.828199 0.831785 0.826749
0.850492 0.853376 0.848341
0.87219 0.873365 0.868315
0.892805 0.892256 0.887221
0.911574 0.910613 0.905562
0.895293 0.795056 0.789273
0.863218 0.8327 0.826917
0.863523 0.85951 0.853727
0.878126 0.880888 0.875105
0.895811 0.900145 0.894362
0.914565 0.918196 0.912398
0.933623 0.935546 0.929747
0.952483 0.952667 0.946883
0.970336 0.970123 0.964324
0.109743 0.000564584 0.0052491
0.072343 0.0328985 0.037583
0.0690623 0.0561227 0.0608072
0.0818189 0.0756542 0.0803388
0.0996109 0.0950179 0.0997024
0.120577 0.115282 0.119966
0.144228 0.137224 0.141909
0.170245 0.161501 0.166186
0.197726 0.188571 0.193256
0.169177 0.0607462 0.064683
0.133761 0.0950637 0.0990005
0.133913 0.121721 0.125658
0.15172 0.146304 0.15024
0.176028 0.172183 0.17612
0.204685 0.200137 0.204074
0.236851 0.230579 0.234516
0.271611 0.263615 0.267552
0.307271 0.298863 0.3028
0.241154 0.1337 0.13666
0.212711 0.174975 0.177951
0.220905 0.209689 0.21265
0.247379 0.242924 0.245899
0.280324 0.277455 0.280415
0.316747 0.313161 0.316136
0.354925 0.34963 0.352605
0.393393 0.386374 0.389334
0.430365 0.422934 0.42591
0.339681 0.233646 0.235187
0.319646 0.283345 0.284886
0.335073 0.325277 0.326818
0.366751 0.363729 0.36527
0.402533 0.401083 0.402625
0.439429 0.437278 0.438819
0.477134 0.473274 0.474815
0.51545 0.50985 0.511391
0.552895 0.546883 0.548424
0.460273 0.355795 0.355795
0.442222 0.407462 0.407462
0.457481 0.449226 0.449226
0.488777 0.487297 0.487297
0.52459 0.524681 0.524681
0.562219 0.561608 0.561608
0.600244 0.59791 0.59791
0.637446 0.633402 0.633402
0.672374 0.667918 0.667918
0.582284 0.479286 0.477791
0.564477 0.531212 0.529717
0.580591 0.573831 0.572335
0.611673 0.611688 0.610193
0.645884 0.647471 0.645975
0.680491 0.681376 0.679881
0.714076 0.713237 0.711742
0.745556 0.743008 0.741497
0.773938 0.770962 0.769467
0.704997 0.603174 0.600504
0.685069 0.652964 0.650309
0.697643 0.692042 0.689387
0.723781 0.724956 0.722301
0.751904 0.754665 0.751995
0.779782 0.781842 0.779171
0.806516 0.806851 0.804196
0.831403 0.830014 0.827344
0.853498 0.851698 0.849027
0.815229 0.714244 0.710735
0.788922 0.757671 0.754162
0.794659 0.789914 0.786404
0.814023 0.816052 0.812543
0.835645 0.839246 0.835737
0.85742 0.860319 0.856809
0.878737 0.879911 0.876402
0.899046 0.898497 0.894987
0.917571 0.916609 0.9131
0.903136 0.802899 0.798657
0.870451 0.839933 0.835691
0.870314 0.8663 0.862058
0.884535 0.887297 0.883055
0.901946 0.906279 0.902037
0.920501 0.924132 0.91989
0.939467 0.941375 0.937133
0.958297 0.958495 0.954253
0.976242 0.976013 0.971771
0.115602 0.00642405 0.012604
0.0781872 0.0387427 0.0449226
0.0750134 0.0620737 0.0682536
0.0880446 0.0818799 0.0880598
0.106249 0.101671 0.107851
0.127794 0.122499 0.128679
0.152224 0.14522 0.1514
0.179065 0.170336 0.176516
0.207446 0.198291 0.204471
0.17554 0.0671244 0.0725567
0.140597 0.1019 0.107332
0.141405 0.129213 0.134646
0.160006 0.154589 0.160021
0.185168 0.181323 0.186755
0.214725 0.210178 0.21561
0.247822 0.24155 0.246983
0.283314 0.275319 0.280766
0.319478 0.31107 0.316503
0.249744 0.14229 0.146746
0.222171 0.184436 0.188907
0.231296 0.220066 0.224537
0.25864 0.2542 0.258656
0.292241 0.289372 0.293828
0.329061 0.32549 0.329946
0.367422 0.362127 0.366598
0.405814 0.398795 0.403265
0.442496 0.43505 0.439521
0.351202 0.245182 0.248219
0.331746 0.295445 0.298482
0.347494 0.337697 0.340734
0.379248 0.376226 0.379263
0.414878 0.413428 0.416464
0.451575 0.449424 0.452461
0.48954 0.485664 0.488701
0.527947 0.522347 0.525399
0.565347 0.559335 0.562371
0.47274 0.368261 0.369757
0.454444 0.419684 0.42118
0.469749 0.461479 0.462989
0.501228 0.499748 0.501244
0.537102 0.537194 0.538689
0.574624 0.574014 0.575509
0.612421 0.610086 0.611597
0.649256 0.645197 0.646693
0.683665 0.679194 0.68069
0.594766 0.491768 0.491768
0.576974 0.543709 0.543709
0.592935 0.586175 0.586175
0.623728 0.623743 0.623743
0.657511 0.659098 0.659098
0.691554 0.692439 0.692439
0.724437 0.723598 0.723598
0.755199 0.752651 0.752651
0.78291 0.779934 0.779934
0.716899 0.615076 0.613916
0.696513 0.664408 0.663249
0.708461 0.702861 0.701701
0.733883 0.735058 0.733898
0.761303 0.764065 0.76289
0.78851 0.79057 0.789395
0.814603 0.814939 0.813764
0.838865 0.837476 0.836316
0.860456 0.85864 0.857481
0.825071 0.724086 0.722072
0.798077 0.766812 0.764813
0.803159 0.798398 0.796399
0.821881 0.823896 0.821897
0.842908 0.84651 0.844495
0.864225 0.867109 0.86511
0.885161 0.886336 0.884321
0.90518 0.904631 0.902632
0.923522 0.92256 0.920562
0.910765 0.810529 0.807782
0.877531 0.847013 0.844266
0.876967 0.872953 0.870207
0.890852 0.893614 0.890867
0.908019 0.912352 0.909606
0.926406 0.930037 0.927291
0.945296 0.947219 0.944457
0.964141 0.96434 0.961593
0.982177 0.981964 0.979217
0.121462 0.0122835 0.0196384
0.084062 0.0446174 0.0519722
0.0810712 0.0681315 0.0754711
0.0944228 0.0882582 0.0955978
0.1131 0.108507 0.115862
0.135286 0.129992 0.137331
0.160525 0.153506 0.160861
0.18822 0.179477 0.186831
0.217487 0.208331 0.215686
0.182071 0.0736553 0.0802472
0.147646 0.108949 0.115557
0.149187 0.136995 0.143587
0.168612 0.163195 0.169787
0.194644 0.190799 0.197391
0.225116 0.220569 0.227161
0.259098 0.252827 0.259434
0.295232 0.287251 0.293843
0.331823 0.323415 0.330007
0.258656 0.151202 0.156832
0.231968 0.194232 0.199863
0.242023 0.230808 0.236439
0.270191 0.265736 0.271366
0.304356 0.301472 0.307103
0.341497 0.337926 0.343557
0.37995 0.374655 0.380285
0.418173 0.411154 0.416785
0.454658 0.447227 0.452857
0.362982 0.256947 0.261158
0.343999 0.307698 0.311894
0.359991 0.350195 0.354391
0.391745 0.388724 0.392935
0.427131 0.425681 0.429892
0.463844 0.461692 0.465888
0.502007 0.498131 0.502342
0.540475 0.534874 0.539071
0.577783 0.571771 0.575982
0.485176 0.380697 0.383352
0.466575 0.431815 0.43447
0.482109 0.473854 0.476509
0.513726 0.512245 0.514916
0.549615 0.549706 0.552361
0.586999 0.586389 0.589059
0.624506 0.622187 0.624842
0.660929 0.65687 0.659525
0.694774 0.690303 0.692973
0.607294 0.504295 0.50547
0.589441 0.556176 0.557351
0.605219 0.598459 0.599634
0.635691 0.635706 0.636866
0.668986 0.670588 0.671748
0.702403 0.703288 0.704463
0.734569 0.733745 0.734905
0.764645 0.762081 0.763256
0.791669 0.788693 0.789868
0.72871 0.626886 0.626886
0.707774 0.675685 0.675685
0.719066 0.713466 0.713466
0.743755 0.744945 0.744945
0.770489 0.773251 0.773251
0.79704 0.799084 0.799084
0.822492 0.822828 0.822828
0.846174 0.844785 0.844785
0.867292 0.865476 0.865476
0.834684 0.7337 0.73286
0.807019 0.775769 0.774929
0.811444 0.806699 0.805859
0.829557 0.831571 0.830732
0.850019 0.85362 0.852781
0.870909 0.873793 0.872953
0.891508 0.892683 0.891844
0.911284 0.910735 0.909895
0.929458 0.928496 0.927657
0.918227 0.817975 0.816403
0.884474 0.853956 0.852384
0.883513 0.879499 0.877928
0.897093 0.899855 0.898268
0.914031 0.918379 0.916793
0.932296 0.935927 0.934356
0.951141 0.953063 0.951476
0.970047 0.97023 0.968658
0.988205 0.987976 0.986404
0.127337 0.0181582 0.0263523
0.090013 0.0505684 0.0587625
0.0872511 0.0743114 0.0824903
0.100969 0.0948043 0.102983
0.120165 0.115572 0.123766
0.143069 0.137774 0.145968
0.169131 0.162112 0.170306
0.197681 0.188952 0.197131
0.227878 0.218723 0.226902
0.188785 0.0803693 0.0878004
0.15494 0.116243 0.12369
0.157259 0.145068 0.152499
0.177523 0.172107 0.179538
0.20444 0.200595 0.208026
0.235843 0.231296 0.238743
0.270634 0.264378 0.271824
0.307362 0.299367 0.306813
0.344274 0.335866 0.343297
0.267887 0.160433 0.166903
0.2421 0.204364 0.210834
0.253086 0.241856 0.248325
0.281971 0.277516 0.283986
0.316625 0.313741 0.320211
0.354025 0.350439 0.356909
0.392477 0.387182 0.393652
0.430472 0.423453 0.429923
0.466957 0.45951 0.46598
0.374975 0.26894 0.273991
0.35639 0.320089 0.325124
0.372534 0.362737 0.367773
0.404211 0.40119 0.406241
0.439292 0.437842 0.442893
0.476219 0.474067 0.479118
0.514534 0.510658 0.515709
0.553002 0.547417 0.552453
0.590188 0.584176 0.589227
0.497551 0.393072 0.396582
0.478782 0.444022 0.447532
0.494545 0.48629 0.489799
0.526284 0.524804 0.528298
0.562112 0.562203 0.565713
0.599313 0.598703 0.602213
0.6365 0.63418 0.637675
0.672435 0.668391 0.671885
0.705684 0.701213 0.704707
0.619837 0.516854 0.518853
0.601892 0.568627 0.570642
0.617441 0.610681 0.61268
0.647517 0.647532 0.649546
0.680308 0.681895 0.683894
0.713054 0.713939 0.715938
0.744488 0.743664 0.745663
0.773861 0.771313 0.773312
0.800244 0.797269 0.799268
0.740368 0.638544 0.639384
0.718868 0.686763 0.687602
0.729442 0.723842 0.724681
0.753429 0.754604 0.755444
0.779477 0.782238 0.783078
0.805371 0.807416 0.80827
0.830213 0.830549 0.831388
0.853315 0.851926 0.852766
0.874006 0.87219 0.87303
0.844099 0.743114 0.743114
0.815763 0.784512 0.784512
0.819547 0.814801 0.814801
0.837049 0.839078 0.839078
0.857008 0.860594 0.860594
0.877485 0.880385 0.880385
0.89778 0.898955 0.898955
0.917327 0.916777 0.916777
0.935378 0.934417 0.934417
0.925505 0.825269 0.824521
0.89131 0.860792 0.860044
0.889982 0.885969 0.885222
0.903273 0.906035 0.905303
0.920027 0.924361 0.923629
0.938186 0.941817 0.941085
0.957015 0.958938 0.95819
0.975998 0.976181 0.975448
0.994324 0.994095 0.993347
0.133211 0.0240482 0.0329747
0.096025 0.0565805 0.065507
0.0935378 0.0805982 0.0895247
0.107668 0.101503 0.110445
0.127443 0.122866 0.131792
0.151141 0.145846 0.154772
0.178012 0.171008 0.179934
0.207462 0.198734 0.20766
0.23859 0.229435 0.238361
0.195682 0.0872663 0.0954452
0.162509 0.123812 0.131991
0.165621 0.153429 0.161608
0.186725 0.181308 0.189502
0.214542 0.210697 0.218891
0.246891 0.242344 0.250523
0.282414 0.276158 0.284337
0.319631 0.311635 0.319814
0.356786 0.348379 0.356573
0.277409 0.169955 0.177172
0.252552 0.214832 0.222034
0.264424 0.253193 0.26041
0.29395 0.289509 0.296712
0.329 0.326131 0.333349
0.366567 0.362997 0.370199
0.404944 0.399649 0.406867
0.442649 0.43563 0.442832
0.479332 0.471901 0.479103
0.387137 0.281102 0.286885
0.368856 0.332555 0.338338
0.385092 0.37528 0.381079
0.416602 0.413581 0.419364
0.451499 0.45005 0.455848
0.488685 0.486519 0.492317
0.527092 0.523217 0.529
0.565515 0.55993 0.565713
0.602518 0.596506 0.602289
0.509834 0.405341 0.409583
0.491096 0.456336 0.460578
0.507057 0.498802 0.503044
0.538842 0.537362 0.541604
0.574578 0.57467 0.578912
0.611551 0.610941 0.615183
0.648356 0.646021 0.650263
0.683772 0.679713 0.683955
0.71635 0.711879 0.716121
0.63238 0.529381 0.532128
0.614298 0.581033 0.58378
0.629541 0.622782 0.625528
0.65919 0.65922 0.661967
0.691417 0.693004 0.69575
0.723461 0.724346 0.727092
0.754177 0.753353 0.7561
0.782879 0.780316 0.783062
0.808591 0.805615 0.808362
0.751858 0.650034 0.651606
0.729732 0.697627 0.699214
0.739574 0.733974 0.735561
0.76286 0.76405 0.765621
0.788251 0.790997 0.792584
0.813504 0.815549 0.817136
0.837736 0.838056 0.839643
0.860319 0.85893 0.860502
0.880598 0.878798 0.880385
0.853284 0.7523 0.753048
0.824292 0.793042 0.793774
0.827451 0.822705 0.823438
0.844358 0.846372 0.84712
0.863844 0.867445 0.868193
0.88397 0.886854 0.887602
0.903975 0.90515 0.905898
0.923339 0.922789 0.923522
0.941283 0.940307 0.941054
0.932631 0.832395 0.832395
0.898009 0.867491 0.867491
0.896345 0.892332 0.892332
0.909392 0.912154 0.912154
0.925994 0.930327 0.930327
0.944076 0.947707 0.947707
0.962921 0.964843 0.964843
0.981994 0.982193 0.982193
1 0.999954 0.999954
