filters/B&W.cube
TITLE "Generated by Resolve"
LUT_3D_SIZE 33
0.0859541 0 0
0.0722972 0 0
0.059678 0 0
0.0523842 0.00276188 0.00276188
0.0488289 0.0093843 0.0093843
0.0465705 0.0156252 0.0156252
0.0451972 0.0215915 0.0215915
0.044831 0.0272679 0.0272679
0.0455634 0.0326085 0.0326085
0.0474708 0.037644 0.037644
0.0504616 0.0423896 0.0423896
0.0539406 0.047013 0.047013
0.0577249 0.0515602 0.0515602
0.0616922 0.0560922 0.0560922
0.0657359 0.0606546 0.0606546
0.0699626 0.0652018 0.0652018
0.074342 0.069749 0.069749
0.0789044 0.0743267 0.0743267
0.0836042 0.0789349 0.0789349
0.0884565 0.0835737 0.0835737
0.0935378 0.0882429 0.0882429
0.0987564 0.0929885 0.0929885
0.103975 0.0978103 0.0978103
0.109316 0.102739 0.102739
0.114763 0.107744 0.107744
0.120302 0.112871 0.112871
0.125963 0.118105 0.118105
0.131716 0.123461 0.123461
0.137667 0.128939 0.128939
0.14374 0.134569 0.134569
0.149798 0.140398 0.140398
0.155947 0.14638 0.14638
0.161791 0.152651 0.152651
0.100755 0 0
0.0872816 0.00106813 0.000885023
0.0745403 0.0101167 0.00993362
0.0671397 0.0177005 0.0175174
0.063508 0.0242466 0.0240635
0.0611887 0.0304265 0.0302434
0.0597696 0.036347 0.0361639
0.0593881 0.0420081 0.041825
0.0601205 0.0473793 0.0471809
0.0620737 0.05243 0.0522469
0.0651102 0.0572366 0.0570535
0.0686656 0.0619364 0.061738
0.0725567 0.0665904 0.066392
0.0766613 0.0712444 0.0710613
0.0808423 0.0759442 0.075761
0.0852369 0.0806592 0.0804761
0.0898146 0.0854047 0.0852216
0.0945754 0.0901961 0.090013
0.0995193 0.0950484 0.0948501
0.104646 0.0999466 0.0997635
0.110002 0.104906 0.104707
0.115526 0.109941 0.109758
0.12108 0.115114 0.114916
0.126772 0.120378 0.120195
0.132601 0.12578 0.125597
0.138582 0.131319 0.131136
0.144686 0.137011 0.136828
0.150927 0.142855 0.142672
0.157382 0.148836 0.148638
0.163943 0.154971 0.154788
0.17052 0.161303 0.16112
0.177188 0.167803 0.16762
0.183551 0.174594 0.174395
0.115496 0.00669871 0.00631724
0.101946 0.0159152 0.0155337
0.0891585 0.024918 0.0245365
0.0817121 0.0324559 0.0320897
0.0780804 0.0390021 0.0386358
0.0757763 0.0451972 0.044831
0.074403 0.0511635 0.0507973
0.0740826 0.0568856 0.0565194
0.0749065 0.0623331 0.0619669
0.0769513 0.0675059 0.0671397
0.0801404 0.0724346 0.0720684
0.0838483 0.0772869 0.0769207
0.0879225 0.0821241 0.0817578
0.0922103 0.0869764 0.0866102
0.0966201 0.0919051 0.0915236
0.101259 0.0968643 0.0964981
0.106111 0.101884 0.101518
0.111162 0.106966 0.1066
0.116426 0.112123 0.111757
0.121874 0.117372 0.117006
0.127611 0.122683 0.122316
0.133532 0.12813 0.127764
0.139528 0.133745 0.133364
0.145693 0.139483 0.139116
0.15201 0.145373 0.145006
0.15848 0.151415 0.151034
0.165087 0.15761 0.157229
0.171847 0.163958 0.163592
0.17882 0.170443 0.170077
0.185916 0.177111 0.176745
0.193011 0.183978 0.183612
0.200229 0.191028 0.190646
0.207141 0.198367 0.197986
0.130068 0.0214542 0.0208896
0.116518 0.0306706 0.0301061
0.103746 0.0396887 0.0391394
0.0963607 0.047303 0.0467384
0.0927901 0.0539101 0.0533455
0.0905928 0.0601968 0.0596475
0.0893263 0.0662852 0.0657206
0.0891585 0.0721447 0.0715801
0.090135 0.07776 0.0771954
0.0923781 0.0831159 0.0825513
0.0957656 0.0882582 0.0876936
0.0997024 0.0933394 0.0927749
0.104036 0.0984207 0.0978714
0.108598 0.103563 0.103014
0.113313 0.108782 0.108232
0.118273 0.114076 0.113512
0.123476 0.119432 0.118883
0.128908 0.124895 0.124346
0.134585 0.13048 0.129915
0.14049 0.136172 0.135622
0.1467 0.14197 0.141405
0.153109 0.147906 0.147341
0.159609 0.154009 0.153445
0.166278 0.16025 0.159701
0.173114 0.166659 0.16611
0.180102 0.17322 0.172656
0.187243 0.17995 0.179385
0.194537 0.186831 0.186282
0.20206 0.193866 0.193317
0.209705 0.201083 0.200534
0.217365 0.208515 0.207965
0.225147 0.216129 0.215579
0.232639 0.224048 0.223484
0.144732 0.0363165 0.0355688
0.131258 0.0456092 0.0448615
0.118608 0.0547341 0.0539864
0.111345 0.0624704 0.0617227
0.107927 0.0692302 0.0684825
0.105882 0.0756847 0.0749371
0.104814 0.0819715 0.0812238
0.10486 0.0880446 0.0872969
0.106081 0.0938888 0.0931411
0.108583 0.0995193 0.0987716
0.112261 0.104936 0.104189
0.116518 0.110338 0.10959
0.121172 0.115755 0.115007
0.126101 0.121248 0.1205
0.131212 0.126864 0.126116
0.136599 0.132586 0.131838
0.14226 0.138415 0.137667
0.14818 0.14435 0.143603
0.154345 0.150423 0.149676
0.160754 0.156619 0.155871
0.167483 0.162936 0.162188
0.174395 0.169375 0.168627
0.18143 0.176013 0.175265
0.188617 0.182788 0.18204
0.196002 0.189731 0.188983
0.20354 0.196841 0.196094
0.211231 0.20412 0.203372
0.219089 0.211582 0.210834
0.227176 0.219196 0.218448
0.235401 0.226993 0.226246
0.243656 0.235004 0.234257
0.252003 0.243183 0.242435
0.260044 0.251637 0.250889
0.159747 0.0515297 0.0505837
0.146441 0.0609903 0.060029
0.133959 0.0702983 0.069337
0.126894 0.078233 0.0772717
0.123705 0.0852064 0.0842603
0.12192 0.0919203 0.0909743
0.121126 0.0984665 0.0975204
0.121462 0.104845 0.103899
0.123003 0.111025 0.110063
0.125841 0.116976 0.11603
0.129885 0.122774 0.121813
0.134539 0.128573 0.127611
0.139651 0.134432 0.133486
0.145052 0.140398 0.139452
0.150637 0.146502 0.145556
0.156527 0.152712 0.151766
0.162692 0.15906 0.158099
0.169131 0.165515 0.164553
0.175814 0.172091 0.171145
0.182742 0.17882 0.177874
0.190005 0.185672 0.18471
0.197482 0.19266 0.191714
0.205051 0.199847 0.198886
0.212802 0.207187 0.206226
0.220752 0.214694 0.213733
0.22887 0.22237 0.221424
0.23714 0.230243 0.229282
0.245579 0.23827 0.237324
0.254231 0.246448 0.245487
0.262989 0.254765 0.253819
0.271717 0.263264 0.262318
0.280522 0.271901 0.270954
0.288975 0.280781 0.27982
0.175372 0.0673838 0.0661936
0.162295 0.0770733 0.0758831
0.150072 0.0866407 0.0854505
0.143297 0.0948501 0.0936599
0.140398 0.102129 0.100954
0.138933 0.109178 0.107988
0.138491 0.116075 0.114885
0.139208 0.12282 0.121645
0.141176 0.129412 0.128237
0.144472 0.135836 0.134646
0.148989 0.142107 0.140932
0.154147 0.148394 0.147219
0.159747 0.154757 0.153582
0.165652 0.161242 0.160052
0.171756 0.167849 0.166674
0.178164 0.174594 0.173404
0.184863 0.18146 0.18027
0.191836 0.188449 0.187274
0.199069 0.19559 0.1944
0.206561 0.202869 0.201678
0.214374 0.210269 0.209079
0.222416 0.217838 0.216648
0.230564 0.225589 0.224414
0.238911 0.233509 0.232334
0.247425 0.241596 0.240421
0.256092 0.249836 0.248646
0.264897 0.258213 0.257038
0.273793 0.266728 0.265553
0.282887 0.275334 0.274159
0.292042 0.284062 0.282887
0.301152 0.292927 0.291752
0.310277 0.301885 0.30071
0.31902 0.311055 0.30988
0.191852 0.0841077 0.0826886
0.17908 0.0941176 0.0926833
0.167193 0.104021 0.102586
0.160784 0.112581 0.111147
0.158282 0.120272 0.118837
0.157259 0.127733 0.126314
0.157275 0.135103 0.133669
0.15848 0.142336 0.140917
0.160937 0.149432 0.147997
0.164736 0.156344 0.15491
0.169772 0.163134 0.1617
0.175433 0.16994 0.168505
0.181567 0.176837 0.175402
0.188006 0.183841 0.182406
0.194659 0.190997 0.189563
0.201602 0.198276 0.196857
0.208865 0.205707 0.204273
0.216403 0.21326 0.211826
0.224216 0.220966 0.219532
0.232273 0.228824 0.227405
0.240681 0.23682 0.235386
0.249287 0.244953 0.243519
0.257969 0.253254 0.25182
0.266819 0.261662 0.260243
0.275792 0.270222 0.268788
0.284886 0.278874 0.27744
0.294072 0.287648 0.286213
0.303334 0.296513 0.295079
0.312734 0.30544 0.304006
0.322179 0.314443 0.313008
0.331518 0.323552 0.322118
0.340856 0.332708 0.331289
0.349767 0.342046 0.340612
0.209461 0.102007 0.100282
0.197101 0.112413 0.110689
0.185657 0.122759 0.12105
0.179721 0.131807 0.130083
0.177707 0.139971 0.138262
0.177172 0.147951 0.146227
0.177707 0.15581 0.154101
0.179416 0.163561 0.161852
0.182406 0.171176 0.169467
0.186725 0.178622 0.176898
0.192294 0.185946 0.184222
0.198505 0.193286 0.191577
0.205188 0.200732 0.199023
0.212177 0.208301 0.206592
0.219394 0.216022 0.214313
0.226932 0.223896 0.222171
0.234775 0.231891 0.230182
0.242878 0.240024 0.238315
0.251255 0.248295 0.246586
0.259846 0.256687 0.254963
0.268727 0.265156 0.263432
0.27779 0.273732 0.272023
0.286885 0.282445 0.280735
0.296101 0.291249 0.289525
0.305425 0.30013 0.298421
0.314824 0.309087 0.307378
0.324269 0.31812 0.316411
0.333761 0.327214 0.325505
0.343359 0.336339 0.334615
0.352941 0.345495 0.343771
0.362402 0.354711 0.353002
0.371817 0.363958 0.362249
0.380774 0.373327 0.371618
0.22855 0.121416 0.119371
0.216678 0.132311 0.130282
0.205737 0.14316 0.141131
0.200305 0.152712 0.150683
0.19881 0.161395 0.159365
0.19881 0.169894 0.167849
0.199863 0.178286 0.176257
0.202121 0.186587 0.184543
0.205646 0.194736 0.192706
0.210529 0.202731 0.200702
0.216648 0.21062 0.208591
0.223438 0.21854 0.21651
0.230686 0.226566 0.224521
0.238285 0.234714 0.232685
0.246067 0.243015 0.24097
0.254139 0.251423 0.249393
0.262501 0.259937 0.257908
0.271077 0.268544 0.266514
0.279881 0.277256 0.275212
0.288884 0.28603 0.284001
0.298131 0.294865 0.292836
0.307515 0.303777 0.301747
0.316899 0.312779 0.310735
0.326375 0.321828 0.319783
0.335897 0.330922 0.328893
0.34548 0.340063 0.338033
0.355062 0.349233 0.347204
0.364645 0.358434 0.35639
0.374304 0.367605 0.365576
0.383932 0.376791 0.374762
0.393378 0.386007 0.383978
0.402747 0.395209 0.393179
0.411612 0.404501 0.402457
0.249302 0.142504 0.140124
0.237949 0.153933 0.151553
0.227527 0.165301 0.162921
0.222629 0.175387 0.173007
0.221683 0.184619 0.182239
0.222232 0.193668 0.191272
0.223835 0.202625 0.200244
0.226658 0.211475 0.209094
0.230762 0.220203 0.217823
0.236225 0.228794 0.226398
0.242939 0.237247 0.234867
0.250278 0.245731 0.243351
0.258076 0.254292 0.251911
0.266163 0.262943 0.260563
0.274403 0.271702 0.269322
0.282902 0.280537 0.278157
0.291646 0.289433 0.287053
0.300572 0.29839 0.29601
0.309697 0.307408 0.305028
0.318959 0.316472 0.314092
0.32845 0.325536 0.323156
0.338033 0.334646 0.332265
0.347585 0.343801 0.341421
0.357183 0.352987 0.350591
0.366796 0.362173 0.359792
0.376425 0.371359 0.368978
0.386023 0.380545 0.378164
0.39559 0.389715 0.387335
0.405188 0.39884 0.39646
0.41471 0.407935 0.405554
0.424033 0.417014 0.414633
0.433219 0.426032 0.423651
0.441886 0.435126 0.432731
0.271809 0.165393 0.162631
0.261006 0.177356 0.174609
0.251148 0.189288 0.186526
0.246799 0.199924 0.197177
0.246418 0.209735 0.206973
0.247532 0.219348 0.216587
0.249729 0.228885 0.226139
0.253132 0.238315 0.235569
0.257786 0.247608 0.244846
0.263783 0.256718 0.253956
0.27097 0.26566 0.262898
0.278767 0.274586 0.271839
0.286961 0.283558 0.280797
0.295415 0.292576 0.289815
0.304006 0.301671 0.298909
0.31281 0.310796 0.308049
0.321798 0.319966 0.317205
0.330953 0.329137 0.32639
0.340261 0.338354 0.335592
0.349676 0.347555 0.344808
0.359274 0.356741 0.353979
0.368933 0.365927 0.363165
0.378531 0.375128 0.372366
0.388128 0.384298 0.381537
0.397711 0.393454 0.390692
0.407263 0.402579 0.399817
0.416754 0.411643 0.408896
0.426169 0.420676 0.417914
0.435584 0.429603 0.426841
0.444907 0.438499 0.435737
0.454124 0.447471 0.444709
0.463325 0.456519 0.453758
0.472129 0.465736 0.462974
0.296178 0.190143 0.186999
0.285939 0.202686 0.199542
0.276661 0.215183 0.212039
0.272892 0.226413 0.22327
0.273091 0.236789 0.233646
0.274754 0.246952 0.243809
0.277455 0.256992 0.253849
0.281331 0.266896 0.263752
0.286412 0.276616 0.273472
0.29279 0.286122 0.282979
0.300343 0.29543 0.292287
0.308461 0.304677 0.301534
0.316945 0.313924 0.31078
0.325658 0.323201 0.320058
0.334447 0.332494 0.329351
0.34342 0.341802 0.338659
0.352544 0.351095 0.347967
0.361807 0.360388 0.357244
0.371176 0.36965 0.366506
0.380621 0.378882 0.375738
0.390204 0.388052 0.384909
0.399817 0.397177 0.394049
0.409308 0.406302 0.403159
0.418784 0.415351 0.412207
0.428214 0.424338 0.421195
0.437568 0.433265 0.430121
0.446876 0.442161 0.439017
0.45623 0.451133 0.44799
0.465705 0.460121 0.456977
0.475196 0.469169 0.466026
0.484565 0.478309 0.475166
0.493919 0.48748 0.484337
0.502831 0.496818 0.493675
0.322484 0.216846 0.213306
0.31281 0.229938 0.226413
0.304051 0.242969 0.239445
0.300801 0.254704 0.251164
0.301442 0.265522 0.261997
0.303517 0.276112 0.272572
0.306615 0.286534 0.283009
0.310826 0.296788 0.293263
0.316228 0.306813 0.303288
0.322881 0.316579 0.313054
0.330663 0.326131 0.322591
0.338964 0.335576 0.332036
0.347616 0.344976 0.341451
0.356435 0.354376 0.350851
0.365316 0.36376 0.360235
0.37435 0.373114 0.369589
0.38349 0.382422 0.378897
0.392721 0.391684 0.388144
0.402014 0.400885 0.397345
0.411368 0.41001 0.406485
0.420813 0.419043 0.415518
0.430243 0.428 0.424475
0.439536 0.436912 0.433387
0.448875 0.445838 0.442298
0.458289 0.45481 0.45127
0.46775 0.463828 0.460304
0.477226 0.472892 0.469368
0.486732 0.482017 0.478477
0.496345 0.491142 0.487602
0.505928 0.500298 0.496773
0.515389 0.509514 0.505989
0.524788 0.518761 0.515221
0.533745 0.52813 0.524605
0.350545 0.245289 0.241382
0.341314 0.258839 0.254917
0.332982 0.272282 0.26836
0.330083 0.284367 0.280461
0.33106 0.295521 0.291615
0.33344 0.306401 0.302495
0.336782 0.317098 0.313176
0.341222 0.327565 0.323644
0.346792 0.337774 0.333852
0.353597 0.347692 0.343771
0.361486 0.357336 0.353429
0.369879 0.366857 0.362951
0.378561 0.376303 0.372396
0.387381 0.385687 0.381781
0.396216 0.395041 0.391119
0.405158 0.404318 0.400397
0.414191 0.41352 0.409598
0.42327 0.422614 0.418708
0.43238 0.431632 0.42771
0.441535 0.440574 0.436652
0.450889 0.4495 0.445594
0.460349 0.458488 0.454582
0.469795 0.467536 0.46363
0.479286 0.476631 0.472709
0.488838 0.48574 0.481834
0.498421 0.494896 0.490974
0.508003 0.504051 0.500145
0.517586 0.513252 0.509331
0.527245 0.522423 0.518502
0.536873 0.531609 0.527703
0.546334 0.540841 0.536934
0.555734 0.550072 0.546166
0.56466 0.559411 0.555505
0.379965 0.27509 0.270787
0.371054 0.288945 0.284657
0.362997 0.302678 0.298375
0.360342 0.315007 0.310704
0.361517 0.326375 0.322072
0.364065 0.337423 0.33312
0.367544 0.348241 0.343938
0.372076 0.358801 0.354513
0.377722 0.36907 0.364782
0.384543 0.379004 0.374716
0.392416 0.388647 0.384344
0.400748 0.398123 0.39382
0.409339 0.407462 0.403174
0.418036 0.416724 0.412436
0.426703 0.42591 0.421622
0.435447 0.434989 0.430686
0.444312 0.444022 0.439719
0.453346 0.453071 0.448768
0.462531 0.46215 0.457862
0.471839 0.47126 0.466972
0.481361 0.480354 0.476066
0.490944 0.489479 0.485176
0.500496 0.498634 0.494347
0.510094 0.507805 0.503517
0.519707 0.516991 0.512703
0.529335 0.526192 0.521889
0.538949 0.535378 0.53109
0.548531 0.544579 0.540276
0.558175 0.553735 0.549447
0.567758 0.56289 0.558587
0.577157 0.572045 0.567758
0.586465 0.581201 0.576898
0.595285 0.590433 0.58613
0.4103 0.305806 0.301122
0.401572 0.31986 0.315175
0.393668 0.333745 0.329061
0.391135 0.346197 0.341512
0.392401 0.357641 0.352956
0.394995 0.368734 0.36405
0.398474 0.379568 0.374884
0.402975 0.390097 0.385412
0.40856 0.400305 0.395621
0.415274 0.410132 0.405447
0.423011 0.419623 0.414939
0.431174 0.428916 0.424231
0.439551 0.438071 0.433387
0.448112 0.447196 0.442512
0.456779 0.456382 0.451698
0.465644 0.465568 0.460883
0.474678 0.474769 0.470085
0.483864 0.48397 0.479286
0.493172 0.493187 0.488502
0.502586 0.502388 0.497704
0.512184 0.511574 0.506889
0.521828 0.520745 0.51606
0.531426 0.529946 0.525261
0.541039 0.539147 0.534463
0.550652 0.548318 0.543633
0.56025 0.557488 0.552804
0.569802 0.566629 0.561944
0.579324 0.575753 0.571069
0.588876 0.584817 0.580133
0.598337 0.593851 0.589166
0.607599 0.602884 0.598199
0.616754 0.611872 0.607187
0.625391 0.62092 0.616236
0.441123 0.337026 0.33196
0.432471 0.351156 0.346075
0.424598 0.365057 0.359991
0.422065 0.377508 0.372442
0.423285 0.388922 0.383841
0.425803 0.399924 0.394858
0.429175 0.410636 0.40557
0.433509 0.421027 0.415946
0.438895 0.431037 0.425956
0.445426 0.440681 0.435599
0.453086 0.45008 0.445014
0.46128 0.459419 0.454337
0.46981 0.468711 0.463645
0.478538 0.478019 0.472938
0.487343 0.487327 0.482261
0.49633 0.496635 0.491569
0.505455 0.505943 0.500862
0.514702 0.515206 0.51014
0.524071 0.524468 0.519402
0.533516 0.533715 0.528649
0.54313 0.542901 0.537835
0.552758 0.552071 0.54699
0.562325 0.561242 0.556161
0.571878 0.570367 0.565301
0.581415 0.579477 0.574395
0.590906 0.58854 0.583459
0.600336 0.597559 0.592477
0.609705 0.606531 0.60145
0.619089 0.615427 0.610361
0.628367 0.624277 0.619196
0.637415 0.633097 0.628016
0.646342 0.64184 0.636774
0.654719 0.650645 0.645563
0.472053 0.368338 0.362875
0.46334 0.382391 0.376944
0.455375 0.396216 0.390768
0.452705 0.40853 0.403082
0.453758 0.419776 0.414313
0.456077 0.430579 0.425116
0.459281 0.441138 0.435676
0.463584 0.451484 0.446021
0.469047 0.46157 0.456107
0.475746 0.471382 0.465919
0.483558 0.480949 0.475486
0.49189 0.49041 0.484962
0.500526 0.499825 0.494362
0.509346 0.509209 0.503746
0.518227 0.518593 0.51313
0.527245 0.527947 0.522484
0.5364 0.53727 0.531807
0.545647 0.546548 0.541085
0.555001 0.555779 0.550332
0.564401 0.564981 0.559518
0.573938 0.574105 0.568643
0.58349 0.583185 0.577722
0.592935 0.592233 0.586786
0.602365 0.601236 0.595773
0.611734 0.610178 0.60473
0.621057 0.619074 0.613611
0.630304 0.627894 0.622446
0.639445 0.636652 0.631189
0.648585 0.645319 0.639857
0.657603 0.653895 0.648432
0.666377 0.662425 0.656962
0.674983 0.670863 0.665415
0.68304 0.679332 0.673884
0.502647 0.399298 0.393469
0.493751 0.413184 0.407355
0.485588 0.426795 0.420966
0.482795 0.439002 0.433173
0.483864 0.450248 0.444419
0.48629 0.461173 0.455344
0.489677 0.471901 0.466072
0.494133 0.482383 0.476555
0.499718 0.492607 0.486778
0.506508 0.502525 0.496696
0.514397 0.512169 0.50634
0.522789 0.521691 0.515862
0.531472 0.531136 0.525307
0.540307 0.540536 0.534707
0.549172 0.549905 0.544076
0.55816 0.559228 0.553399
0.567269 0.568505 0.562676
0.57644 0.577707 0.571878
0.585687 0.586847 0.581018
0.59498 0.595926 0.590097
0.604379 0.604913 0.599084
0.613779 0.613825 0.608011
0.623041 0.622705 0.616876
0.632258 0.631495 0.625666
0.641398 0.640223 0.634394
0.650477 0.648859 0.64303
0.659449 0.657404 0.651576
0.668299 0.665873 0.660044
0.677134 0.67422 0.668391
0.685802 0.68246 0.676631
0.694209 0.690639 0.68481
0.702434 0.698695 0.692866
0.710094 0.706767 0.700938
0.532738 0.42974 0.42356
0.523888 0.443671 0.437491
0.515877 0.45745 0.45127
0.513252 0.46981 0.46363
0.514458 0.481193 0.475013
0.517006 0.492241 0.486061
0.520485 0.503059 0.49688
0.525002 0.513619 0.507439
0.530648 0.523888 0.517708
0.537469 0.533837 0.527657
0.545373 0.543481 0.537301
0.553735 0.552987 0.546807
0.562387 0.562402 0.556222
0.57116 0.57174 0.56556
0.57995 0.581033 0.574853
0.58883 0.590265 0.584085
0.597818 0.599405 0.593225
0.606851 0.608454 0.602274
0.61593 0.617426 0.611246
0.625025 0.626322 0.620142
0.634211 0.635096 0.628916
0.643366 0.643778 0.637598
0.652369 0.652384 0.646204
0.661311 0.660899 0.654719
0.670161 0.669322 0.663142
0.678904 0.677638 0.671458
0.687526 0.685847 0.679667
0.69601 0.69395 0.68777
0.704448 0.7019 0.69572
0.712718 0.709728 0.703548
0.720684 0.717464 0.711284
0.728466 0.725078 0.718898
0.735668 0.732692 0.726513
0.563272 0.460609 0.454093
0.554559 0.474662 0.468162
0.546654 0.488548 0.482033
0.544121 0.500999 0.494484
0.545373 0.512444 0.505928
0.547967 0.523537 0.517021
0.551461 0.534371 0.527871
0.555993 0.54493 0.53843
0.561608 0.555184 0.548669
0.568383 0.565072 0.558572
0.576211 0.574655 0.568154
0.584497 0.584085 0.577569
0.593027 0.593378 0.586862
0.601678 0.602579 0.596078
0.610315 0.611719 0.605219
0.619013 0.620768 0.614252
0.627787 0.629709 0.623194
0.636606 0.638544 0.632029
0.645441 0.647272 0.640772
0.654261 0.655894 0.649393
0.663172 0.664378 0.657877
0.672023 0.672755 0.666239
0.68069 0.681041 0.674525
0.689281 0.689204 0.682689
0.697749 0.697246 0.690745
0.706096 0.705165 0.698665
0.714305 0.712947 0.706447
0.722347 0.720607 0.714092
0.730343 0.728115 0.721599
0.73814 0.735485 0.728985
0.745678 0.742779 0.736278
0.753017 0.749966 0.74345
0.759777 0.757137 0.750622
0.594171 0.491814 0.484993
0.585519 0.505928 0.499107
0.577646 0.519844 0.513024
0.575113 0.532311 0.52549
0.576379 0.54374 0.536934
0.578943 0.554803 0.547982
0.582376 0.565591 0.55877
0.586831 0.576074 0.569253
0.59234 0.586221 0.5794
0.599008 0.596002 0.589181
0.606699 0.605432 0.598627
0.614816 0.614694 0.607889
0.623163 0.623804 0.616999
0.631586 0.632807 0.626001
0.639994 0.641718 0.634913
0.648463 0.650507 0.643702
0.656962 0.659175 0.652369
0.665476 0.66772 0.660899
0.673991 0.676127 0.669322
0.682475 0.684413 0.677607
0.69102 0.692546 0.685725
0.699489 0.700526 0.693721
0.707759 0.708415 0.701595
0.715908 0.716136 0.709331
0.723934 0.723735 0.71693
0.731838 0.731212 0.724392
0.73959 0.738537 0.731731
0.747189 0.745754 0.738949
0.754742 0.752819 0.746014
0.762127 0.759762 0.752956
0.769223 0.766629 0.759823
0.776135 0.773388 0.766567
0.782483 0.780133 0.773327
0.625193 0.52311 0.516014
0.61651 0.537209 0.530114
0.608606 0.55108 0.543999
0.606027 0.563485 0.55639
0.607187 0.574838 0.567742
0.609644 0.585794 0.578698
0.61297 0.59646 0.589364
0.617258 0.60679 0.599695
0.622614 0.61677 0.609674
0.629084 0.626352 0.619257
0.636545 0.635569 0.628489
0.644434 0.644587 0.637507
0.652522 0.653437 0.646357
0.66067 0.662165 0.65507
0.668772 0.670771 0.663676
0.676905 0.67924 0.672145
0.685069 0.687556 0.680476
0.693202 0.695735 0.68864
0.701335 0.703761 0.696666
0.709407 0.71162 0.70454
0.71751 0.71931 0.712215
0.725521 0.726848 0.719753
0.733349 0.734279 0.727184
0.741054 0.741558 0.734478
0.748638 0.74873 0.741634
0.7561 0.755749 0.748669
0.763424 0.762661 0.755566
0.770596 0.769436 0.762356
0.777722 0.776089 0.768994
0.78468 0.782605 0.775525
0.791379 0.789059 0.781964
0.797879 0.795407 0.788312
0.803815 0.801755 0.794659
0.656077 0.554253 0.546914
0.647318 0.568261 0.560922
0.639292 0.582025 0.574685
0.636576 0.594293 0.586954
0.637583 0.605493 0.598138
0.639872 0.616266 0.608911
0.642969 0.626719 0.619379
0.647059 0.636835 0.62948
0.652155 0.646555 0.639216
0.658351 0.655879 0.648539
0.665537 0.66482 0.657465
0.673106 0.673533 0.666178
0.680858 0.682048 0.674693
0.688655 0.69041 0.683055
0.696391 0.698634 0.691295
0.704112 0.706706 0.699351
0.711849 0.714611 0.707256
0.719554 0.722332 0.714992
0.72723 0.7299 0.72256
0.734859 0.737331 0.729976
0.742519 0.744564 0.737224
0.750088 0.751659 0.74432
0.757473 0.758663 0.751308
0.764752 0.765515 0.758175
0.771908 0.772244 0.764904
0.778958 0.778851 0.771511
0.785855 0.785336 0.777996
0.792615 0.791714 0.784375
0.799344 0.797955 0.7906
0.80589 0.804074 0.796735
0.812177 0.810132 0.802777
0.818296 0.816083 0.808728
0.823835 0.822034 0.814694
0.686595 0.585 0.577417
0.677668 0.59884 0.591272
0.669459 0.612421 0.604837
0.666529 0.624475 0.616892
0.667308 0.635447 0.627863
0.669337 0.64596 0.638376
0.67216 0.656138 0.648569
0.675944 0.665965 0.658381
0.680735 0.675364 0.667796
0.686595 0.684352 0.676768
0.693416 0.692927 0.685344
0.700587 0.701244 0.69366
0.707942 0.709346 0.701778
0.715297 0.717281 0.709712
0.722591 0.725078 0.717494
0.72987 0.732677 0.725109
0.737148 0.740139 0.732555
0.744411 0.747417 0.739849
0.751644 0.754559 0.746975
0.758846 0.761547 0.753964
0.766064 0.768353 0.760769
0.77322 0.775036 0.767452
0.780179 0.781598 0.774029
0.787045 0.788037 0.780468
0.793805 0.794369 0.786786
0.800427 0.800565 0.792996
0.806928 0.806653 0.799069
0.813306 0.812634 0.805051
0.819623 0.818463 0.810895
0.825788 0.824201 0.816632
0.831708 0.829877 0.822293
0.837446 0.835447 0.827878
0.842603 0.841031 0.833463
0.716472 0.615091 0.607309
0.707301 0.628702 0.620905
0.698833 0.642023 0.634226
0.695628 0.653788 0.645991
0.696101 0.664454 0.656657
0.697795 0.674647 0.66685
0.700282 0.684474 0.676677
0.703685 0.693919 0.686122
0.70808 0.702937 0.69514
0.713527 0.711498 0.7037
0.719905 0.719631 0.711833
0.726635 0.727504 0.719707
0.733532 0.735164 0.727367
0.740459 0.742657 0.734859
0.747295 0.749996 0.742199
0.754131 0.757168 0.749371
0.760983 0.764187 0.75639
0.767819 0.771054 0.763256
0.774639 0.777768 0.76997
0.781415 0.784329 0.776532
0.78822 0.790722 0.782925
0.794965 0.796994 0.789197
0.801526 0.803159 0.795377
0.807996 0.809201 0.801404
0.814343 0.815137 0.80734
0.820584 0.820935 0.813153
0.826703 0.826642 0.818845
0.8327 0.832242 0.824445
0.838651 0.837705 0.829908
0.844434 0.843061 0.835279
0.849989 0.848371 0.840589
0.85539 0.85362 0.845823
