filters/Evolution.cube
LUT_3D_SIZE 6
0.039432 -0.053682 -0.053682
0.239317 -0.053682 -0.053682
0.425267 -0.053682 -0.053682
0.618577 -0.053682 -0.053682
0.833794 -0.053682 -0.053682
1.047709 -0.053682 -0.053682
0.039432 0.163830 -0.053682
0.239795 0.163830 -0.053682
0.425267 0.166340 -0.053682
0.618577 0.170443 -0.053682
0.833794 0.178748 -0.053682
1.047709 0.182959 -0.053682
0.039432 0.372796 -0.053682
0.241892 0.372796 -0.053682
0.425267 0.372796 -0.053682
0.618577 0.381142 -0.053682
0.833794 0.397869 -0.053682
1.047709 0.406404 -0.053682
0.039432 0.587689 -0.053682
0.245997 0.587689 -0.053682
0.432695 0.587689 -0.053682
0.618577 0.587689 -0.053682
0.833794 0.611219 -0.053682
1.047709 0.624983 -0.053682
0.039432 0.821336 -0.053682
0.252287 0.821336 -0.053682
0.447297 0.821336 -0.053682
0.640447 0.821336 -0.053682
0.833794 0.821534 -0.053682
1.047709 0.838536 -0.053682
0.039432 1.047710 -0.053682
0.256570 1.047710 -0.053682
0.455251 1.047710 -0.053682
0.652443 1.047710 -0.053682
0.849520 1.047710 -0.053682
1.047709 1.047710 -0.053682
0.039432 -0.053682 0.105699
0.239795 -0.053682 0.105699
0.425267 -0.053682 0.108576
0.618577 -0.053682 0.113251
0.833794 -0.053682 0.123027
1.047709 -0.053682 0.127536
0.039432 0.163830 0.105699
0.239317 0.163830 0.105699
0.425267 0.163830 0.105699
0.618577 0.163830 0.105699
0.833794 0.163830 0.105699
1.047709 0.163830 0.105699
0.039432 0.372796 0.108576
0.239317 0.372796 0.105375
0.425267 0.372796 0.105699
0.618577 0.379565 0.105699
0.833794 0.392767 0.105699
1.047709 0.400414 0.105699
0.039432 0.587689 0.113251
0.239317 0.587689 0.105511
0.431252 0.587689 0.105699
0.618577 0.587689 0.105699
0.833794 0.610660 0.105699
1.047709 0.622447 0.105699
0.039432 0.821336 0.122511
0.239317 0.821336 0.105712
0.443345 0.821336 0.105699
0.639160 0.821336 0.105699
0.833794 0.820716 0.105699
1.047709 0.837831 0.105699
0.039432 1.047710 0.127536
0.239317 1.047710 0.106248
0.449962 1.047710 0.105699
0.650213 1.047710 0.105699
0.849423 1.047710 0.105699
1.047709 1.047710 0.105699
0.039432 -0.053682 0.341955
0.241892 -0.053682 0.341955
0.425267 -0.053682 0.341955
0.618577 -0.053682 0.351243
0.833794 -0.053682 0.370225
1.047709 -0.053682 0.379307
0.039432 0.166340 0.341955
0.239317 0.163440 0.341955
0.425267 0.163830 0.341955
0.618577 0.163830 0.349462
0.833794 0.163830 0.364416
1.047709 0.163830 0.372733
0.039432 0.372796 0.341955
0.239317 0.372796 0.341955
0.425267 0.372796 0.341955
0.618577 0.372796 0.341955
0.833794 0.372796 0.341955
1.047709 0.372796 0.341955
0.039432 0.587689 0.351243
0.239317 0.587689 0.348806
0.425267 0.587689 0.341955
0.618577 0.587689 0.341955
0.833794 0.603169 0.341955
1.047709 0.611375 0.341955
0.039432 0.821336 0.369423
0.239317 0.821336 0.364620
0.425267 0.821336 0.341955
0.633032 0.821336 0.341955
0.833794 0.821212 0.341955
1.047709 0.834315 0.341955
0.039432 1.047710 0.379307
0.239317 1.047710 0.373379
0.425267 1.047710 0.341955
0.640078 1.047710 0.341955
0.845532 1.047710 0.341955
1.047709 1.047710 0.341955
0.039432 -0.053682 0.577421
0.245997 -0.053682 0.577421
0.432695 -0.053682 0.577421
0.618577 -0.053682 0.577421
0.833794 -0.053682 0.603319
1.047709 -0.053682 0.617223
0.039432 0.170443 0.577421
0.239317 0.162327 0.577421
0.431252 0.163830 0.577421
0.618577 0.163830 0.577421
0.833794 0.163830 0.601669
1.047709 0.163830 0.614573
0.039432 0.381142 0.577421
0.239317 0.378915 0.577421
0.425267 0.372796 0.577421
0.618577 0.372796 0.577421
0.833794 0.372796 0.593848
1.047709 0.372796 0.602755
0.039432 0.587689 0.577421
0.239317 0.587689 0.577421
0.425267 0.587689 0.577421
0.618577 0.587689 0.577421
0.833794 0.587689 0.577421
1.047709 0.587689 0.577421
0.039432 0.821336 0.603162
0.239317 0.821336 0.601985
0.425267 0.821336 0.594491
0.618577 0.821336 0.577421
0.833794 0.820801 0.577421
1.047709 0.826722 0.577421
0.039432 1.047710 0.617223
0.239317 1.047710 0.614856
0.425267 1.047710 0.602755
0.618577 1.047710 0.577421
0.838536 1.047710 0.577421
1.047709 1.047710 0.577421
0.039432 -0.053682 0.820597
0.252287 -0.053682 0.820597
0.447297 -0.053682 0.820597
0.640447 -0.053682 0.820597
0.833794 -0.053682 0.820443
1.047709 -0.053682 0.837970
0.039432 0.178555 0.820597
0.239317 0.164125 0.820597
0.443345 0.163830 0.820597
0.639160 0.163830 0.820597
0.833794 0.163830 0.820688
1.047709 0.163830 0.837257
0.039432 0.397474 0.820597
0.239317 0.393053 0.820597
0.425267 0.372796 0.820597
0.633032 0.372796 0.820597
0.833794 0.372796 0.820408
1.047709 0.372796 0.833720
0.039432 0.611772 0.820597
0.239317 0.610651 0.820597
0.425267 0.603612 0.820597
0.618577 0.587689 0.820597
0.833794 0.587689 0.820489
1.047709 0.587689 0.825975
0.039432 0.821336 0.820597
0.239317 0.821336 0.820597
0.425267 0.821336 0.820597
0.618577 0.821336 0.820597
0.833794 0.821336 0.820597
1.047709 0.821336 0.820597
0.039432 1.047710 0.837970
0.239317 1.047710 0.837940
0.425267 1.047710 0.833720
0.618577 1.047710 0.825975
0.833037 1.047710 0.820597
1.047709 1.047710 0.820597
0.039432 -0.053682 1.047710
0.256570 -0.053682 1.047710
0.455251 -0.053682 1.047710
0.652443 -0.053682 1.047710
0.849520 -0.053682 1.047710
1.047709 -0.053682 1.047710
0.039432 0.182959 1.047710
0.239317 0.163396 1.047710
0.449962 0.163830 1.047710
0.650213 0.163830 1.047710
0.849423 0.163830 1.047710
1.047709 0.163830 1.047710
0.039432 0.406404 1.047710
0.239317 0.400905 1.047710
0.425267 0.372796 1.047710
0.640078 0.372796 1.047710
0.845532 0.372796 1.047710
1.047709 0.372796 1.047710
0.039432 0.624983 1.047710
0.239317 0.622747 1.047710
0.425267 0.611375 1.047710
0.618577 0.587689 1.047710
0.838536 0.587689 1.047710
1.047709 0.587689 1.047710
0.039432 0.838536 1.047710
0.239317 0.838593 1.047710
0.425267 0.834315 1.047710
0.618577 0.826722 1.047710
0.833037 0.821336 1.047710
1.047709 0.821336 1.047710
0.039432 1.047710 1.047710
0.239317 1.047710 1.047710
0.425267 1.047710 1.047710
0.618577 1.047710 1.047710
0.833794 1.047710 1.047710
1.047709 1.047710 1.047710
