filters/Evolution.cube
LUT_3D_SIZE 16
0.039432 -0.053682 -0.053682
0.101032 -0.053682 -0.053682
0.173060 -0.053682 -0.053682
0.239317 -0.053682 -0.053682
0.301642 -0.053682 -0.053682
0.364416 -0.053682 -0.053682
0.425267 -0.053682 -0.053682
0.488077 -0.053682 -0.053682
0.552652 -0.053682 -0.053682
0.618577 -0.053682 -0.053682
0.685444 -0.053682 -0.053682
0.757807 -0.053682 -0.053682
0.833794 -0.053682 -0.053682
0.912039 -0.053682 -0.053682
0.983956 -0.053682 -0.053682
1.047709 -0.053682 -0.053682
0.039432 0.020751 -0.053682
0.101032 0.020751 -0.053682
0.173060 0.023461 -0.053682
0.239317 0.025552 -0.053682
0.301642 0.026264 -0.053682
0.364416 0.026294 -0.053682
0.425267 0.026264 -0.053682
0.488077 0.026294 -0.053682
0.552652 0.026446 -0.053682
0.618577 0.026618 -0.053682
0.685444 0.026446 -0.053682
0.757807 0.027333 -0.053682
0.833794 0.028157 -0.053682
0.912039 0.028494 -0.053682
0.983956 0.028881 -0.053682
1.047709 0.028494 -0.053682
0.039432 0.090221 -0.053682
0.105755 0.090221 -0.053682
0.173962 0.090221 -0.053682
0.239461 0.093200 -0.053682
0.301642 0.095359 -0.053682
0.364416 0.094938 -0.053682
0.425267 0.095359 -0.053682
0.488077 0.095938 -0.053682
0.552652 0.096853 -0.053682
0.618577 0.097900 -0.053682
0.685444 0.098866 -0.053682
0.757807 0.100934 -0.053682
0.833794 0.103530 -0.053682
0.912039 0.105951 -0.053682
0.983956 0.106574 -0.053682
1.047709 0.105951 -0.053682
0.039432 0.163830 -0.053682
0.107917 0.163830 -0.053682
0.177622 0.163830 -0.053682
0.239795 0.163830 -0.053682
0.301642 0.164311 -0.053682
0.364416 0.165282 -0.053682
0.425267 0.166340 -0.053682
0.488077 0.167317 -0.053682
0.552652 0.168793 -0.053682
0.618577 0.170443 -0.053682
0.685444 0.171813 -0.053682
0.757807 0.174496 -0.053682
0.833794 0.178748 -0.053682
0.912039 0.181947 -0.053682
0.983956 0.183823 -0.053682
1.047709 0.182959 -0.053682
0.039432 0.234450 -0.053682
0.108375 0.234450 -0.053682
0.178542 0.234450 -0.053682
0.241165 0.234450 -0.053682
0.301642 0.233722 -0.053682
0.364416 0.235064 -0.053682
0.425267 0.235748 -0.053682
0.488077 0.237098 -0.053682
0.552652 0.239074 -0.053682
0.618577 0.241316 -0.053682
0.685444 0.243124 -0.053682
0.757807 0.247388 -0.053682
0.833794 0.253220 -0.053682
0.912039 0.257127 -0.053682
0.983956 0.259299 -0.053682
1.047709 0.258139 -0.053682
0.039432 0.303586 -0.053682
0.108296 0.303586 -0.053682
0.178542 0.303586 -0.053682
0.241087 0.303586 -0.053682
0.302544 0.304500 -0.053682
0.364416 0.303143 -0.053682
0.425267 0.304500 -0.053682
0.488077 0.306143 -0.053682
0.552652 0.308656 -0.053682
0.618577 0.311468 -0.053682
0.685444 0.314711 -0.053682
0.757807 0.319567 -0.053682
0.833794 0.324793 -0.053682
0.912039 0.331493 -0.053682
0.983956 0.333914 -0.053682
1.047709 0.332504 -0.053682
0.039432 0.372796 -0.053682
0.108184 0.372796 -0.053682
0.178542 0.372796 -0.053682
0.241892 0.372796 -0.053682
0.303469 0.372796 -0.053682
0.364416 0.371712 -0.053682
0.425267 0.372796 -0.053682
0.488077 0.374772 -0.053682
0.552652 0.377777 -0.053682
0.618577 0.381142 -0.053682
0.685444 0.384837 -0.053682
0.757807 0.390240 -0.053682
0.833794 0.397869 -0.053682
0.912039 0.405377 -0.053682
0.983956 0.408023 -0.053682
1.047709 0.406404 -0.053682
0.039432 0.443005 -0.053682
0.108223 0.443005 -0.053682
0.179451 0.443005 -0.053682
0.242842 0.443005 -0.053682
0.304294 0.443005 -0.053682
0.366290 0.443005 -0.053682
0.427029 0.443005 -0.053682
0.488077 0.443005 -0.053682
0.552652 0.446479 -0.053682
0.618577 0.450393 -0.053682
0.685444 0.453562 -0.053682
0.757807 0.461556 -0.053682
0.833794 0.469522 -0.053682
0.912039 0.477700 -0.053682
0.983956 0.481663 -0.053682
1.047709 0.479700 -0.053682
0.039432 0.514773 -0.053682
0.108417 0.514773 -0.053682
0.180381 0.514773 -0.053682
0.243950 0.514773 -0.053682
0.306953 0.514773 -0.053682
0.367551 0.514773 -0.053682
0.429675 0.514773 -0.053682
0.491200 0.514773 -0.053682
0.552652 0.514773 -0.053682
0.618577 0.519283 -0.053682
0.685444 0.524896 -0.053682
0.757807 0.532459 -0.053682
0.833794 0.540576 -0.053682
0.912039 0.549664 -0.053682
0.983956 0.554768 -0.053682
1.047709 0.552685 -0.053682
0.039432 0.587689 -0.053682
0.108630 0.587689 -0.053682
0.181300 0.587689 -0.053682
0.245997 0.587689 -0.053682
0.308145 0.587689 -0.053682
0.371090 0.587689 -0.053682
0.432695 0.587689 -0.053682
0.494720 0.587689 -0.053682
0.556647 0.587689 -0.053682
0.618577 0.587689 -0.053682
0.686708 0.592731 -0.053682
0.757807 0.601853 -0.053682
0.833794 0.611219 -0.053682
0.912039 0.621922 -0.053682
0.983956 0.627419 -0.053682
1.047709 0.624983 -0.053682
0.039432 0.662586 -0.053682
0.109002 0.662586 -0.053682
0.182195 0.662586 -0.053682
0.247285 0.662586 -0.053682
0.311084 0.662586 -0.053682
0.373760 0.662586 -0.053682
0.436564 0.662586 -0.053682
0.499190 0.662586 -0.053682
0.561774 0.662586 -0.053682
0.624323 0.662586 -0.053682
0.687222 0.663642 -0.053682
0.757105 0.670666 -0.053682
0.833794 0.682069 -0.053682
0.912039 0.693715 -0.053682
0.983956 0.699324 -0.053682
1.047709 0.696756 -0.053682
0.039432 0.740445 -0.053682
0.109573 0.740445 -0.053682
0.184044 0.740445 -0.053682
0.249686 0.740445 -0.053682
0.313195 0.740445 -0.053682
0.377601 0.740445 -0.053682
0.441415 0.740445 -0.053682
0.504913 0.740445 -0.053682
0.568293 0.740445 -0.053682
0.631682 0.740445 -0.053682
0.694693 0.740445 -0.053682
0.758052 0.740445 -0.053682
0.833794 0.752687 -0.053682
0.912039 0.763872 -0.053682
0.983956 0.770963 -0.053682
1.047709 0.767871 -0.053682
0.039432 0.821336 -0.053682
0.110347 0.821336 -0.053682
0.185854 0.821336 -0.053682
0.252287 0.821336 -0.053682
0.318194 0.821336 -0.053682
0.382604 0.821336 -0.053682
0.447297 0.821336 -0.053682
0.511765 0.821336 -0.053682
0.576124 0.821336 -0.053682
0.640447 0.821336 -0.053682
0.705316 0.821336 -0.053682
0.769576 0.821336 -0.053682
0.833794 0.821534 -0.053682
0.912039 0.835511 -0.053682
0.983956 0.841780 -0.053682
1.047709 0.838536 -0.053682
0.039432 0.904345 -0.053682
0.111160 0.904345 -0.053682
0.187699 0.904345 -0.053682
0.255857 0.904345 -0.053682
0.321401 0.904345 -0.053682
0.387732 0.904345 -0.053682
0.453284 0.904345 -0.053682
0.518690 0.904345 -0.053682
0.584046 0.904345 -0.053682
0.649449 0.904345 -0.053682
0.714068 0.904345 -0.053682
0.780437 0.904345 -0.053682
0.845715 0.905425 -0.053682
0.912039 0.905059 -0.053682
0.983956 0.912530 -0.053682
1.047709 0.909074 -0.053682
0.039432 0.982895 -0.053682
0.111438 0.982895 -0.053682
0.188614 0.982895 -0.053682
0.257050 0.982895 -0.053682
0.323979 0.982895 -0.053682
0.390915 0.982895 -0.053682
0.456760 0.982895 -0.053682
0.522792 0.982895 -0.053682
0.588699 0.982895 -0.053682
0.654681 0.982895 -0.053682
0.720614 0.982895 -0.053682
0.787533 0.982895 -0.053682
0.853003 0.982895 -0.053682
0.919442 0.984237 -0.053682
0.983956 0.982895 -0.053682
1.047709 0.979138 -0.053682
0.039432 1.047710 -0.053682
0.110955 1.047710 -0.053682
0.187699 1.047710 -0.053682
0.256570 1.047710 -0.053682
0.323380 1.047710 -0.053682
0.388262 1.047710 -0.053682
0.455251 1.047710 -0.053682
0.521058 1.047710 -0.053682
0.586840 1.047710 -0.053682
0.652443 1.047710 -0.053682
0.717804 1.047710 -0.053682
0.783393 1.047710 -0.053682
0.849520 1.047710 -0.053682
0.915805 1.047710 -0.053682
0.980474 1.047710 -0.053682
1.047709 1.047710 -0.053682
0.039432 -0.053682 0.003405
0.101032 -0.053682 0.003405
0.173060 -0.053682 0.004312
0.239317 -0.053682 0.004912
0.301642 -0.053682 0.005015
0.364416 -0.053682 0.005023
0.425267 -0.053682 0.005015
0.488077 -0.053682 0.005023
0.552652 -0.053682 0.005071
0.618577 -0.053682 0.005125
0.685444 -0.053682 0.005071
0.757807 -0.053682 0.005560
0.833794 -0.053682 0.005635
0.912039 -0.053682 0.005732
0.983956 -0.053682 0.005861
1.047709 -0.053682 0.005732
0.039432 0.020751 0.003405
0.101032 0.020751 0.003405
0.173060 0.020751 0.003405
0.239317 0.020751 0.003405
0.301642 0.020751 0.003405
0.364416 0.020751 0.003405
0.425267 0.020751 0.003405
0.488077 0.020751 0.003405
0.552651 0.020751 0.003405
0.618577 0.020751 0.003405
0.685444 0.020751 0.003405
0.757807 0.020751 0.003405
0.833794 0.020751 0.003405
0.912039 0.020751 0.003405
0.983956 0.020751 0.003405
1.047709 0.020751 0.003405
0.039432 0.090221 0.004430
0.101032 0.090221 0.003405
0.173962 0.090221 0.003509
0.239317 0.092201 0.003405
0.301642 0.093550 0.003405
0.364416 0.093118 0.003405
0.425267 0.093550 0.003405
0.488077 0.094107 0.003405
0.552651 0.094960 0.003405
0.618577 0.095936 0.003405
0.685444 0.096956 0.003405
0.757807 0.097953 0.003405
0.833794 0.100879 0.003405
0.912039 0.102416 0.003405
0.983956 0.103921 0.003405
1.047709 0.103427 0.003405
0.039432 0.163830 0.004947
0.101032 0.163830 0.003405
0.175804 0.163830 0.003434
0.239317 0.163830 0.003405
0.301642 0.164460 0.003405
0.364416 0.165371 0.003405
0.425267 0.165466 0.003405
0.488077 0.166386 0.003405
0.552651 0.167820 0.003405
0.618577 0.169422 0.003405
0.685444 0.170843 0.003405
0.757807 0.173467 0.003405
0.833794 0.177376 0.003405
0.912039 0.180599 0.003405
0.983956 0.182453 0.003405
1.047709 0.181624 0.003405
0.039432 0.234450 0.005063
0.101032 0.234450 0.003405
0.176717 0.234450 0.003192
0.240236 0.234450 0.003405
0.301642 0.234308 0.003405
0.364416 0.235545 0.003405
0.425267 0.235323 0.003405
0.488077 0.236572 0.003405
0.552651 0.238496 0.003405
0.618577 0.240679 0.003405
0.685444 0.243560 0.003405
0.757807 0.247769 0.003405
0.833794 0.251297 0.003405
0.912039 0.256285 0.003405
0.983956 0.258380 0.003405
1.047709 0.257298 0.003405
0.039432 0.303586 0.005043
0.101032 0.303586 0.003405
0.176717 0.303586 0.003342
0.240236 0.303586 0.003405
0.302544 0.303302 0.003405
0.364416 0.303881 0.003405
0.425267 0.304300 0.003405
0.488077 0.305884 0.003405
0.552651 0.308292 0.003405
0.618577 0.311066 0.003405
0.685444 0.313393 0.003405
0.757807 0.318155 0.003405
0.833794 0.325147 0.003405
0.912039 0.329914 0.003405
0.983956 0.333248 0.003405
1.047709 0.331945 0.003405
0.039432 0.372796 0.005015
0.101032 0.372796 0.003405
0.176717 0.372796 0.003155
0.241148 0.372796 0.003405
0.302544 0.372796 0.003405
0.363508 0.372619 0.003405
0.425267 0.372796 0.003405
0.488077 0.374641 0.003405
0.552651 0.377582 0.003405
0.618577 0.380928 0.003405
0.685444 0.384674 0.003405
0.757807 0.390015 0.003405
0.833794 0.396413 0.003405
0.912039 0.403957 0.003405
0.983956 0.407541 0.003405
1.047709 0.405990 0.003405
0.039432 0.443005 0.005023
0.101032 0.443005 0.003405
0.177622 0.443005 0.003327
0.242064 0.443005 0.003405
0.304211 0.443005 0.003405
0.366290 0.443005 0.003405
0.426914 0.443005 0.003405
0.488077 0.443005 0.003405
0.552651 0.446389 0.003405
0.618577 0.450246 0.003405
0.685444 0.454478 0.003405
0.757807 0.461386 0.003405
0.833794 0.469130 0.003405
0.912039 0.477364 0.003405
0.983956 0.481292 0.003405
1.047709 0.479393 0.003405
0.039432 0.514773 0.005071
0.101032 0.514773 0.003405
0.178542 0.514773 0.003364
0.242979 0.514773 0.003405
0.304977 0.514773 0.003405
0.368404 0.514773 0.003405
0.429506 0.514773 0.003405
0.491105 0.514773 0.003405
0.552651 0.514773 0.003405
0.618577 0.519205 0.003405
0.685444 0.524895 0.003405
0.757807 0.531364 0.003405
0.833794 0.540344 0.003405
0.912039 0.549310 0.003405
0.983956 0.554515 0.003405
1.047709 0.552357 0.003405
0.039432 0.587689 0.005125
0.101032 0.587689 0.003405
0.179451 0.587689 0.003407
0.244813 0.587689 0.003405
0.307066 0.587689 0.003405
0.370020 0.587689 0.003405
0.432521 0.587689 0.003405
0.494567 0.587689 0.003405
0.556614 0.587689 0.003405
0.618577 0.587689 0.003405
0.685755 0.592731 0.003405
0.757807 0.601853 0.003405
0.833794 0.611032 0.003405
0.912039 0.622747 0.003405
0.983956 0.627232 0.003405
1.047709 0.624812 0.003405
0.039432 0.662586 0.005220
0.101032 0.662586 0.003405
0.180381 0.662586 0.003314
0.246643 0.662586 0.003405
0.309933 0.662586 0.003405
0.373539 0.662586 0.003405
0.436319 0.662586 0.003405
0.499008 0.662586 0.003405
0.561649 0.662586 0.003405
0.624302 0.662586 0.003405
0.688052 0.663642 0.003405
0.757081 0.670666 0.003405
0.833794 0.681072 0.003405
0.912039 0.693530 0.003405
0.983956 0.699347 0.003405
1.047709 0.696549 0.003405
0.039432 0.740445 0.005364
0.101032 0.740445 0.003405
0.182195 0.740445 0.003425
0.248473 0.740445 0.003405
0.313889 0.740445 0.003405
0.377383 0.740445 0.003405
0.441154 0.740445 0.003405
0.504650 0.740445 0.003405
0.568158 0.740445 0.003405
0.631613 0.740445 0.003405
0.694570 0.740445 0.003405
0.757942 0.740445 0.003405
0.833794 0.752547 0.003405
0.912039 0.763833 0.003405
0.983956 0.770821 0.003405
1.047709 0.767936 0.003405
0.039432 0.821336 0.005565
0.101032 0.821336 0.003405
0.183124 0.821336 0.003583
0.251219 0.821336 0.003405
0.317829 0.821336 0.003405
0.382365 0.821336 0.003405
0.446958 0.821336 0.003405
0.511489 0.821336 0.003405
0.575979 0.821336 0.003405
0.640338 0.821336 0.003405
0.705092 0.821336 0.003405
0.769465 0.821336 0.003405
0.833794 0.822447 0.003405
0.912039 0.835568 0.003405
0.983956 0.841659 0.003405
1.047709 0.838593 0.003405
0.039432 0.904345 0.005784
0.101032 0.904345 0.003405
0.184969 0.904345 0.003240
0.253969 0.904345 0.003405
0.321040 0.904345 0.003405
0.387444 0.904345 0.003405
0.452910 0.904345 0.003405
0.518432 0.904345 0.003405
0.583891 0.904345 0.003405
0.649335 0.904345 0.003405
0.713878 0.904345 0.003405
0.780267 0.904345 0.003405
0.845715 0.904430 0.003405
0.912039 0.905042 0.003405
0.983956 0.912512 0.003405
1.047709 0.909058 0.003405
0.039432 0.982895 0.005861
0.101032 0.982895 0.003405
0.185854 0.982895 0.003465
0.255802 0.982895 0.003405
0.323539 0.982895 0.003405
0.389656 0.982895 0.003405
0.456322 0.982895 0.003405
0.522473 0.982895 0.003405
0.588519 0.982895 0.003405
0.654547 0.982895 0.003405
0.720367 0.982895 0.003405
0.786377 0.982895 0.003405
0.852146 0.982895 0.003405
0.919442 0.984183 0.003405
0.983956 0.982895 0.003405
1.047709 0.979188 0.003405
0.039432 1.047710 0.005732
0.101032 1.047710 0.003405
0.185854 1.047710 0.003202
0.254881 1.047710 0.003405
0.322155 1.047710 0.003405
0.388870 1.047710 0.003405
0.454938 1.047710 0.003405
0.520738 1.047710 0.003405
0.586567 1.047710 0.003405
0.652265 1.047710 0.003405
0.717511 1.047710 0.003405
0.784163 1.047710 0.003405
0.849481 1.047710 0.003405
0.915805 1.047710 0.003405
0.980427 1.047710 0.003405
1.047709 1.047710 0.003405
0.039432 -0.053682 0.037957
0.105755 -0.053682 0.037957
0.173962 -0.053682 0.037957
0.239461 -0.053682 0.039910
0.301642 -0.053682 0.041551
0.364416 -0.053682 0.041296
0.425267 -0.053682 0.041551
0.488077 -0.053682 0.041974
0.552652 -0.053682 0.042631
0.618577 -0.053682 0.043387
0.685444 -0.053682 0.044015
0.757807 -0.053682 0.045489
0.833794 -0.053682 0.046958
0.912039 -0.053682 0.049420
0.983956 -0.053682 0.049902
1.047709 -0.053682 0.049420
0.039432 0.024352 0.037957
0.101032 0.020751 0.037957
0.173962 0.020941 0.037957
0.239317 0.020751 0.039256
0.301642 0.020751 0.040273
0.364416 0.020751 0.040004
0.425267 0.020751 0.040273
0.488077 0.020751 0.040668
0.552651 0.020751 0.041269
0.618577 0.020751 0.041974
0.685444 0.020751 0.042626
0.757807 0.020751 0.043344
0.833794 0.020751 0.045690
0.912039 0.020751 0.046759
0.983956 0.020751 0.047857
1.047709 0.020751 0.047480
0.039432 0.090221 0.037957
0.101032 0.090221 0.037957
0.173060 0.089234 0.036682
0.239317 0.090221 0.037957
0.301642 0.090221 0.037957
0.364416 0.090221 0.037957
0.425267 0.090221 0.037957
0.488077 0.090221 0.037957
0.552652 0.090221 0.037957
0.618577 0.090221 0.037957
0.685444 0.090221 0.037957
0.757807 0.090221 0.037957
0.833794 0.090221 0.037957
0.912039 0.090221 0.037957
0.983956 0.090221 0.037957
1.047709 0.090221 0.037957
0.039432 0.163830 0.040450
0.101032 0.163830 0.039581
0.173060 0.163830 0.037193
0.239317 0.163830 0.038276
0.301642 0.163916 0.037957
0.364416 0.163448 0.037957
0.425267 0.163916 0.037957
0.488077 0.164457 0.037957
0.552652 0.165412 0.037957
0.618577 0.166502 0.037957
0.685444 0.167438 0.037957
0.757807 0.169541 0.037957
0.833794 0.171455 0.037957
0.912039 0.173911 0.037957
0.983956 0.175491 0.037957
1.047709 0.174933 0.037957
0.039432 0.234450 0.041174
0.101032 0.234450 0.040003
0.173060 0.234450 0.037250
0.239317 0.234450 0.037405
0.301642 0.234527 0.037957
0.364416 0.235484 0.037957
0.425267 0.234527 0.037957
0.488077 0.235484 0.037957
0.552652 0.237105 0.037957
0.618577 0.238934 0.037957
0.685444 0.241158 0.037957
0.757807 0.243996 0.037957
0.833794 0.248951 0.037957
0.912039 0.252027 0.037957
0.983956 0.254014 0.037957
1.047709 0.253045 0.037957
0.039432 0.303586 0.041348
0.101032 0.303586 0.040092
0.173060 0.303586 0.036776
0.239317 0.303586 0.038132
0.301642 0.302994 0.037957
0.364416 0.304281 0.037957
0.425267 0.303993 0.037957
0.488077 0.305315 0.037957
0.552652 0.307466 0.037957
0.618577 0.309976 0.037957
0.685444 0.312535 0.037957
0.757807 0.317067 0.037957
0.833794 0.322177 0.037957
0.912039 0.327972 0.037957
0.983956 0.330276 0.037957
1.047709 0.328988 0.037957
0.039432 0.372796 0.041551
0.101032 0.372796 0.040273
0.173060 0.372796 0.036971
0.240236 0.372796 0.038956
0.301642 0.372796 0.037957
0.363508 0.372381 0.037957
0.425267 0.372796 0.037957
0.488077 0.374404 0.037957
0.552652 0.377102 0.037957
0.618577 0.380164 0.037957
0.685444 0.383176 0.037957
0.757807 0.389273 0.037957
0.833794 0.396232 0.037957
0.912039 0.401743 0.037957
0.983956 0.405345 0.037957
1.047709 0.403750 0.037957
0.039432 0.443005 0.041974
0.101032 0.443005 0.040668
0.173060 0.443005 0.036729
0.240236 0.443005 0.037401
0.302165 0.443005 0.037957
0.365373 0.443005 0.037957
0.426747 0.443005 0.037957
0.488077 0.443005 0.037957
0.552652 0.446174 0.037957
0.618577 0.449848 0.037957
0.685444 0.454297 0.037957
0.757807 0.459971 0.037957
0.833794 0.468506 0.037957
0.912039 0.475730 0.037957
0.983956 0.479636 0.037957
1.047709 0.477763 0.037957
0.039432 0.514773 0.042631
0.101032 0.514773 0.041269
0.173060 0.514773 0.036707
0.241148 0.514773 0.037338
0.304528 0.514773 0.037957
0.367257 0.514773 0.037957
0.429058 0.514773 0.037957
0.490907 0.514773 0.037957
0.552652 0.514773 0.037957
0.618577 0.519065 0.037957
0.685444 0.523890 0.037957
0.757807 0.531228 0.037957
0.833794 0.539155 0.037957
0.912039 0.549135 0.037957
0.983956 0.553340 0.037957
1.047709 0.551134 0.037957
0.039432 0.587689 0.043387
0.101032 0.587689 0.041974
0.173060 0.587689 0.036768
0.242064 0.587689 0.037362
0.306400 0.587689 0.037957
0.369662 0.587689 0.037957
0.431863 0.587689 0.037957
0.494206 0.587689 0.037957
0.556406 0.587689 0.037957
0.618577 0.587689 0.037957
0.685521 0.592731 0.037957
0.757807 0.600857 0.037957
0.833794 0.611067 0.037957
0.912039 0.621864 0.037957
0.983956 0.626264 0.037957
1.047709 0.623897 0.037957
0.039432 0.662586 0.044370
0.101032 0.662586 0.042883
0.173060 0.662586 0.037031
0.242979 0.662586 0.037575
0.308147 0.662586 0.037957
0.372983 0.662586 0.037957
0.435428 0.662586 0.037957
0.498464 0.662586 0.037957
0.561340 0.662586 0.037957
0.624118 0.662586 0.037957
0.688620 0.663642 0.037957
0.756881 0.670666 0.037957
0.833794 0.681390 0.037957
0.912039 0.692854 0.037957
0.983956 0.698634 0.037957
1.047709 0.695982 0.037957
0.039432 0.740445 0.045679
0.101032 0.740445 0.044057
0.173060 0.740445 0.036933
0.244813 0.740445 0.037379
0.310883 0.740445 0.037957
0.376567 0.740445 0.037957
0.439990 0.740445 0.037957
0.503881 0.740445 0.037957
0.567676 0.740445 0.037957
0.631276 0.740445 0.037957
0.695945 0.740445 0.037957
0.758628 0.740445 0.037957
0.833794 0.752036 0.037957
0.912039 0.764328 0.037957
0.983956 0.770347 0.037957
1.047709 0.767375 0.037957
0.039432 0.821336 0.047281
0.101032 0.821336 0.045484
0.173060 0.821336 0.037079
0.246643 0.821336 0.038037
0.314509 0.821335 0.037957
0.379454 0.821335 0.037957
0.445454 0.821335 0.037957
0.510434 0.821335 0.037957
0.575194 0.821335 0.037957
0.639836 0.821335 0.037957
0.704289 0.821335 0.037957
0.768985 0.821335 0.037957
0.833794 0.822237 0.037957
0.912039 0.834170 0.037957
0.983956 0.841455 0.037957
1.047709 0.838207 0.037957
0.039432 0.904345 0.048949
0.101032 0.904345 0.046979
0.173060 0.904345 0.037258
0.248473 0.904345 0.038091
0.317401 0.904345 0.037957
0.384303 0.904345 0.037957
0.451115 0.904345 0.037957
0.517108 0.904345 0.037957
0.582929 0.904345 0.037957
0.648613 0.904345 0.037957
0.713811 0.904345 0.037957
0.779569 0.904345 0.037957
0.845715 0.905279 0.037957
0.912039 0.904839 0.037957
0.983956 0.912323 0.037957
1.047709 0.908914 0.037957
0.039432 0.982895 0.049902
0.101032 0.982895 0.047857
0.173060 0.982895 0.036801
0.249390 0.982895 0.038228
0.319732 0.982895 0.037957
0.387275 0.982895 0.037957
0.454345 0.982895 0.037957
0.521002 0.982895 0.037957
0.587457 0.982895 0.037957
0.653727 0.982895 0.037957
0.719350 0.982895 0.037957
0.785616 0.982895 0.037957
0.852146 0.982895 0.037957
0.919442 0.984203 0.037957
0.983956 0.982895 0.037957
1.047709 0.979102 0.037957
0.039432 1.047710 0.049420
0.101032 1.047710 0.047480
0.173060 1.047710 0.037660
0.249390 1.047710 0.037894
0.318340 1.047710 0.037957
0.385600 1.047710 0.037957
0.452953 1.047710 0.037957
0.519305 1.047710 0.037957
0.585427 1.047710 0.037957
0.651489 1.047710 0.037957
0.717248 1.047710 0.037957
0.783357 1.047710 0.037957
0.849413 1.047710 0.037957
0.915805 1.047710 0.037957
0.980453 1.047710 0.037957
1.047709 1.047710 0.037957
0.039432 -0.053682 0.105699
0.107917 -0.053682 0.105699
0.177622 -0.053682 0.105699
0.239795 -0.053682 0.105699
0.301642 -0.053682 0.107479
0.364416 -0.053682 0.107506
0.425267 -0.053682 0.108576
0.488077 -0.053682 0.109698
0.552652 -0.053682 0.111355
0.618577 -0.053682 0.113251
0.685444 -0.053682 0.115745
0.757807 -0.053682 0.118736
0.833794 -0.053682 0.123027
0.912039 -0.053682 0.126433
0.983956 -0.053682 0.128517
1.047709 -0.053682 0.127536
0.039432 0.026052 0.105699
0.101032 0.020751 0.105699
0.175804 0.020556 0.105699
0.239317 0.020751 0.105699
0.301642 0.020751 0.106477
0.364416 0.020751 0.107513
0.425267 0.020751 0.107574
0.488077 0.020751 0.108610
0.552651 0.020751 0.110265
0.618577 0.020751 0.112099
0.685444 0.020751 0.114662
0.757807 0.020751 0.116495
0.833794 0.020751 0.120327
0.912039 0.020751 0.124919
0.983956 0.020751 0.126921
1.047709 0.020751 0.126015
0.039432 0.093790 0.105699
0.101032 0.092555 0.105699
0.173060 0.088852 0.105699
0.239317 0.090578 0.105699
0.301642 0.090221 0.105801
0.364416 0.090221 0.105333
0.425267 0.090221 0.105801
0.488077 0.090221 0.106435
0.552652 0.090221 0.107521
0.618577 0.090221 0.108745
0.685444 0.090221 0.109714
0.757807 0.090221 0.112042
0.833794 0.090221 0.115735
0.912039 0.090221 0.117263
0.983956 0.090221 0.119034
1.047709 0.090221 0.118359
0.039432 0.163830 0.105699
0.101032 0.163830 0.105699
0.173060 0.163830 0.105699
0.239317 0.163830 0.105699
0.301642 0.163830 0.105699
0.364416 0.163830 0.105699
0.425267 0.163830 0.105699
0.488077 0.163830 0.105699
0.552652 0.163830 0.105699
0.618577 0.163830 0.105699
0.685444 0.163830 0.105699
0.757807 0.163830 0.105699
0.833794 0.163830 0.105699
0.912039 0.163830 0.105699
0.983956 0.163830 0.105699
1.047709 0.163830 0.105699
0.039432 0.234450 0.107478
0.101032 0.234450 0.106859
0.173060 0.234450 0.105279
0.239317 0.234450 0.105758
0.301642 0.234493 0.105699
0.364416 0.234130 0.105699
0.425267 0.234493 0.105699
0.488077 0.235139 0.105699
0.552652 0.236181 0.105699
0.618577 0.237336 0.105699
0.685444 0.238211 0.105699
0.757807 0.240376 0.105699
0.833794 0.243844 0.105699
0.912039 0.245242 0.105699
0.983956 0.246881 0.105699
1.047709 0.246256 0.105699
0.039432 0.303586 0.107990
0.101032 0.303586 0.107088
0.173060 0.303586 0.105791
0.239317 0.303586 0.104898
0.301642 0.303977 0.105699
0.364416 0.303089 0.105699
0.425267 0.303977 0.105699
0.488077 0.305135 0.105699
0.552652 0.306908 0.105699
0.618577 0.308932 0.105699
0.685444 0.310988 0.105699
0.757807 0.314027 0.105699
0.833794 0.317284 0.105699
0.912039 0.323301 0.105699
0.983956 0.325390 0.105699
1.047709 0.324315 0.105699
0.039432 0.372796 0.108576
0.101032 0.372796 0.107574
0.173060 0.372796 0.105279
0.239317 0.372796 0.105375
0.301642 0.372796 0.105699
0.363508 0.372289 0.105699
0.425267 0.372796 0.105699
0.488077 0.374293 0.105699
0.552652 0.376777 0.105699
0.618577 0.379565 0.105699
0.685444 0.381823 0.105699
0.757807 0.387648 0.105699
