filters/Matte_Brown_Mono.cube
# Matte Brown Mono LUT
LUT_3D_SIZE 9
0.050000 0.040000 0.030000
0.063063 0.052375 0.041688
0.076125 0.064750 0.053375
0.089188 0.077125 0.065062
0.102250 0.089500 0.076750
0.115312 0.101875 0.088438
0.128375 0.114250 0.100125
0.141437 0.126625 0.111812
0.154500 0.139000 0.123500
0.120063 0.106375 0.092687
0.133125 0.118750 0.104375
0.146187 0.131125 0.116062
0.159250 0.143500 0.127750
0.172312 0.155875 0.139437
0.185375 0.168250 0.151125
0.198437 0.180625 0.162812
0.211500 0.193000 0.174500
0.224562 0.205375 0.186188
0.190125 0.172750 0.155375
0.203188 0.185125 0.167063
0.216250 0.197500 0.178750
0.229312 0.209875 0.190437
0.242375 0.222250 0.202125
0.255437 0.234625 0.213812
0.268500 0.247000 0.225500
0.281562 0.259375 0.237187
0.294625 0.271750 0.248875
0.260188 0.239125 0.218062
0.273250 0.251500 0.229750
0.286312 0.263875 0.241437
0.299375 0.276250 0.253125
0.312437 0.288625 0.264813
0.325500 0.301000 0.276500
0.338562 0.313375 0.288188
0.351625 0.325750 0.299875
0.364687 0.338125 0.311562
0.330250 0.305500 0.280750
0.343312 0.317875 0.292438
0.356375 0.330250 0.304125
0.369437 0.342625 0.315812
0.382500 0.355000 0.327500
0.395562 0.367375 0.339187
0.408625 0.379750 0.350875
0.421687 0.392125 0.362563
0.434750 0.404500 0.374250
0.400312 0.371875 0.343437
0.413375 0.384250 0.355125
0.426437 0.396625 0.366812
0.439500 0.409000 0.378500
0.452562 0.421375 0.390187
0.465625 0.433750 0.401875
0.478687 0.446125 0.413562
0.491750 0.458500 0.425250
0.504812 0.470875 0.436937
0.470375 0.438250 0.406125
0.483437 0.450625 0.417813
0.496500 0.463000 0.429500
0.509563 0.475375 0.441187
0.522625 0.487750 0.452875
0.535687 0.500125 0.464562
0.548750 0.512500 0.476250
0.561813 0.524875 0.487938
0.574875 0.537250 0.499625
0.540438 0.504625 0.468812
0.553500 0.517000 0.480500
0.566562 0.529375 0.492188
0.579625 0.541750 0.503875
0.592688 0.554125 0.515563
0.605750 0.566500 0.527250
0.618812 0.578875 0.538938
0.631875 0.591250 0.550625
0.644937 0.603625 0.562312
0.610500 0.571000 0.531500
0.623563 0.583375 0.543188
0.636625 0.595750 0.554875
0.649687 0.608125 0.566562
0.662750 0.620500 0.578250
0.675812 0.632875 0.589938
0.688875 0.645250 0.601625
0.701937 0.657625 0.613313
0.715000 0.670000 0.625000
0.085625 0.073750 0.061875
0.098687 0.086125 0.073563
0.111750 0.098500 0.085250
0.124812 0.110875 0.096937
0.137875 0.123250 0.108625
0.150938 0.135625 0.120313
0.164000 0.148000 0.132000
0.177063 0.160375 0.143687
0.190125 0.172750 0.155375
0.155687 0.140125 0.124562
0.168750 0.152500 0.136250
0.181812 0.164875 0.147937
0.194875 0.177250 0.159625
0.207937 0.189625 0.171312
0.221000 0.202000 0.183000
0.234062 0.214375 0.194687
0.247125 0.226750 0.206375
0.260188 0.239125 0.218062
0.225750 0.206500 0.187250
0.238812 0.218875 0.198937
0.251875 0.231250 0.210625
0.264937 0.243625 0.222312
0.278000 0.256000 0.234000
0.291063 0.268375 0.245688
0.304125 0.280750 0.257375
0.317187 0.293125 0.269062
0.330250 0.305500 0.280750
0.295812 0.272875 0.249937
0.308875 0.285250 0.261625
0.321937 0.297625 0.273312
0.335000 0.310000 0.285000
0.348062 0.322375 0.296687
0.361125 0.334750 0.308375
0.374187 0.347125 0.320063
0.387250 0.359500 0.331750
0.400312 0.371875 0.343437
0.365875 0.339250 0.312625
0.378937 0.351625 0.324312
0.392000 0.364000 0.336000
0.405062 0.376375 0.347687
0.418125 0.388750 0.359375
0.431187 0.401125 0.371062
0.444250 0.413500 0.382750
0.457312 0.425875 0.394437
0.470375 0.438250 0.406125
0.435937 0.405625 0.375312
0.449000 0.418000 0.387000
0.462062 0.430375 0.398687
0.475125 0.442750 0.410375
0.488187 0.455125 0.422062
0.501250 0.467500 0.433750
0.514312 0.479875 0.445437
0.527375 0.492250 0.457125
0.540438 0.504625 0.468812
0.506000 0.472000 0.438000
0.519062 0.484375 0.449687
0.532125 0.496750 0.461375
0.545187 0.509125 0.473062
0.558250 0.521500 0.484750
0.571313 0.533875 0.496437
0.584375 0.546250 0.508125
0.597437 0.558625 0.519812
0.610500 0.571000 0.531500
0.576063 0.538375 0.500687
0.589125 0.550750 0.512375
0.602187 0.563125 0.524062
0.615250 0.575500 0.535750
0.628313 0.587875 0.547438
0.641375 0.600250 0.559125
0.654438 0.612625 0.570812
0.667500 0.625000 0.582500
0.680562 0.637375 0.594187
0.646125 0.604750 0.563375
0.659188 0.617125 0.575063
0.672250 0.629500 0.586750
0.685312 0.641875 0.598437
0.698375 0.654250 0.610125
0.711437 0.666625 0.621812
0.724500 0.679000 0.633500
0.737562 0.691375 0.645187
0.750625 0.703750 0.656875
0.121250 0.107500 0.093750
0.134313 0.119875 0.105437
0.147375 0.132250 0.117125
0.160438 0.144625 0.128812
0.173500 0.157000 0.140500
0.186562 0.169375 0.152187
0.199625 0.181750 0.163875
0.212688 0.194125 0.175563
0.225750 0.206500 0.187250
0.191312 0.173875 0.156437
0.204375 0.186250 0.168125
0.217438 0.198625 0.179812
0.230500 0.211000 0.191500
0.243562 0.223375 0.203187
0.256625 0.235750 0.214875
0.269688 0.248125 0.226562
0.282750 0.260500 0.238250
0.295812 0.272875 0.249937
0.261375 0.240250 0.219125
0.274438 0.252625 0.230812
0.287500 0.265000 0.242500
0.300562 0.277375 0.254188
0.313625 0.289750 0.265875
0.326687 0.302125 0.277562
0.339750 0.314500 0.289250
0.352812 0.326875 0.300937
0.365875 0.339250 0.312625
0.331437 0.306625 0.281813
0.344500 0.319000 0.293500
0.357563 0.331375 0.305188
0.370625 0.343750 0.316875
0.383687 0.356125 0.328562
0.396750 0.368500 0.340250
0.409813 0.380875 0.351938
0.422875 0.393250 0.363625
0.435937 0.405625 0.375312
0.401500 0.373000 0.344500
0.414562 0.385375 0.356187
0.427625 0.397750 0.367875
0.440687 0.410125 0.379563
0.453750 0.422500 0.391250
0.466812 0.434875 0.402937
0.479875 0.447250 0.414625
0.492937 0.459625 0.426312
0.506000 0.472000 0.438000
0.471562 0.439375 0.407187
0.484625 0.451750 0.418875
0.497687 0.464125 0.430562
0.510750 0.476500 0.442250
0.523813 0.488875 0.453937
0.536875 0.501250 0.465625
0.549937 0.513625 0.477313
0.563000 0.526000 0.489000
0.576063 0.538375 0.500687
0.541625 0.505750 0.469875
0.554688 0.518125 0.481563
0.567750 0.530500 0.493250
0.580812 0.542875 0.504937
0.593875 0.555250 0.516625
0.606937 0.567625 0.528312
0.620000 0.580000 0.540000
0.633063 0.592375 0.551687
0.646125 0.604750 0.563375
0.611687 0.572125 0.532562
0.624750 0.584500 0.544250
0.637812 0.596875 0.555937
0.650875 0.609250 0.567625
0.663937 0.621625 0.579313
0.677000 0.634000 0.591000
0.690063 0.646375 0.602687
0.703125 0.658750 0.614375
0.716187 0.671125 0.626062
0.681750 0.638500 0.595250
0.694812 0.650875 0.606938
0.707875 0.663250 0.618625
0.720937 0.675625 0.630312
0.734000 0.688000 0.642000
0.747062 0.700375 0.653687
0.760125 0.712750 0.665375
0.773188 0.725125 0.677063
0.786250 0.737500 0.688750
0.156875 0.141250 0.125625
0.169937 0.153625 0.137313
0.183000 0.166000 0.149000
0.196062 0.178375 0.160687
0.209125 0.190750 0.172375
0.222187 0.203125 0.184062
0.235250 0.215500 0.195750
0.248312 0.227875 0.207437
0.261375 0.240250 0.219125
0.226937 0.207625 0.188312
0.240000 0.220000 0.200000
0.253062 0.232375 0.211687
0.266125 0.244750 0.223375
0.279187 0.257125 0.235062
0.292250 0.269500 0.246750
0.305312 0.281875 0.258437
0.318375 0.294250 0.270125
0.331437 0.306625 0.281812
0.297000 0.274000 0.251000
0.310062 0.286375 0.262687
0.323125 0.298750 0.274375
0.336187 0.311125 0.286062
0.349250 0.323500 0.297750
0.362312 0.335875 0.309438
0.375375 0.348250 0.321125
0.388437 0.360625 0.332812
0.401500 0.373000 0.344500
0.367062 0.340375 0.313688
0.380125 0.352750 0.325375
0.393187 0.365125 0.337063
0.406250 0.377500 0.348750
0.419312 0.389875 0.360437
0.432375 0.402250 0.372125
0.445437 0.414625 0.383813
0.458500 0.427000 0.395500
0.471562 0.439375 0.407187
0.437125 0.406750 0.376375
0.450187 0.419125 0.388062
0.463250 0.431500 0.399750
0.476312 0.443875 0.411438
0.489375 0.456250 0.423125
0.502437 0.468625 0.434812
0.515500 0.481000 0.446500
0.528562 0.493375 0.458187
0.541625 0.505750 0.469875
0.507187 0.473125 0.439062
0.520250 0.485500 0.450750
0.533312 0.497875 0.462437
0.546375 0.510250 0.474125
0.559438 0.522625 0.485812
0.572500 0.535000 0.497500
0.585562 0.547375 0.509188
0.598625 0.559750 0.520875
0.611687 0.572125 0.532562
0.577250 0.539500 0.501750
0.590313 0.551875 0.513437
0.603375 0.564250 0.525125
0.616437 0.576625 0.536812
0.629500 0.589000 0.548500
0.642562 0.601375 0.560187
0.655625 0.613750 0.571875
0.668687 0.626125 0.583562
0.681750 0.638500 0.595250
0.647312 0.605875 0.564437
0.660375 0.618250 0.576125
0.673437 0.630625 0.587812
0.686500 0.643000 0.599500
0.699562 0.655375 0.611187
0.712625 0.667750 0.622875
0.725687 0.680125 0.634562
0.738750 0.692500 0.646250
0.751812 0.704875 0.657937
0.717375 0.672250 0.627125
0.730437 0.684625 0.638813
0.743500 0.697000 0.650500
0.756562 0.709375 0.662187
0.769625 0.721750 0.673875
0.782687 0.734125 0.685562
0.795750 0.746500 0.697250
0.808812 0.758875 0.708937
0.821875 0.771250 0.720625
0.192500 0.175000 0.157500
0.205562 0.187375 0.169187
0.218625 0.199750 0.180875
0.231687 0.212125 0.192562
0.244750 0.224500 0.204250
0.257812 0.236875 0.215938
0.270875 0.249250 0.227625
0.283938 0.261625 0.239312
0.297000 0.274000 0.251000
0.262562 0.241375 0.220188
0.275625 0.253750 0.231875
0.288688 0.266125 0.243563
0.301750 0.278500 0.255250
0.314812 0.290875 0.266937
0.327875 0.303250 0.278625
0.340938 0.315625 0.290312
0.354000 0.328000 0.302000
0.367062 0.340375 0.313688
0.332625 0.307750 0.282875
0.345687 0.320125 0.294562
0.358750 0.332500 0.306250
0.371812 0.344875 0.317937
0.384875 0.357250 0.329625
0.397937 0.369625 0.341312
0.411000 0.382000 0.353000
0.424062 0.394375 0.364687
0.437125 0.406750 0.376375
0.402687 0.374125 0.345562
0.415750 0.386500 0.357250
0.428812 0.398875 0.368938
0.441875 0.411250 0.380625
0.454937 0.423625 0.392312
0.468000 0.436000 0.404000
0.481062 0.448375 0.415687
0.494125 0.460750 0.427375
0.507187 0.473125 0.439062
0.472750 0.440500 0.408250
0.485812 0.452875 0.419937
0.498875 0.465250 0.431625
0.511937 0.477625 0.443312
0.525000 0.490000 0.455000
0.538062 0.502375 0.466687
0.551125 0.514750 0.478375
0.564188 0.527125 0.490062
0.577250 0.539500 0.501750
0.542812 0.506875 0.470937
0.555875 0.519250 0.482625
0.568937 0.531625 0.494312
0.582000 0.544000 0.506000
0.595063 0.556375 0.517687
0.608125 0.568750 0.529375
0.621188 0.581125 0.541063
0.634250 0.593500 0.552750
0.647312 0.605875 0.564437
0.612875 0.573250 0.533625
0.625938 0.585625 0.545313
0.639000 0.598000 0.557000
0.652063 0.610375 0.568688
0.665125 0.622750 0.580375
0.678188 0.635125 0.592063
0.691250 0.647500 0.603750
0.704313 0.659875 0.615437
0.717375 0.672250 0.627125
0.682937 0.639625 0.596313
0.696000 0.652000 0.608000
0.709063 0.664375 0.619687
0.722125 0.676750 0.631375
0.735188 0.689125 0.643063
0.748250 0.701500 0.654750
0.761313 0.713875 0.666438
0.774375 0.726250 0.678125
0.787438 0.738625 0.689813
0.753000 0.706000 0.659000
0.766063 0.718375 0.670687
0.779125 0.730750 0.682375
0.792188 0.743125 0.694063
0.805250 0.755500 0.705750
0.818312 0.767875 0.717437
0.831375 0.780250 0.729125
0.844437 0.792625 0.740812
0.857500 0.805000 0.752500
0.228125 0.208750 0.189375
0.241187 0.221125 0.201063
0.254250 0.233500 0.212750
0.267313 0.245875 0.224438
0.280375 0.258250 0.236125
0.293437 0.270625 0.247812
0.306500 0.283000 0.259500
0.319562 0.295375 0.271188
0.332625 0.307750 0.282875
0.298187 0.275125 0.252062
0.311250 0.287500 0.263750
0.324313 0.299875 0.275438
0.337375 0.312250 0.287125
0.350437 0.324625 0.298812
0.363500 0.337000 0.310500
0.376562 0.349375 0.322187
0.389625 0.361750 0.333875
0.402687 0.374125 0.345562
0.368250 0.341500 0.314750
0.381312 0.353875 0.326437
0.394375 0.366250 0.338125
0.407437 0.378625 0.349812
0.420500 0.391000 0.361500
0.433562 0.403375 0.373187
0.446625 0.415750 0.384875
0.459687 0.428125 0.396562
0.472750 0.440500 0.408250
0.438312 0.407875 0.377437
0.451375 0.420250 0.389125
0.464438 0.432625 0.400813
0.477500 0.445000 0.412500
0.490562 0.457375 0.424187
0.503625 0.469750 0.435875
0.516687 0.482125 0.447562
0.529750 0.494500 0.459250
0.542813 0.506875 0.470938
0.508375 0.474250 0.440125
0.521437 0.486625 0.451812
0.534500 0.499000 0.463500
0.547562 0.511375 0.475187
0.560625 0.523750 0.486875
0.573688 0.536125 0.498563
0.586750 0.548500 0.510250
0.599812 0.560875 0.521937
0.612875 0.573250 0.533625
0.578437 0.540625 0.502812
0.591500 0.553000 0.514500
0.604562 0.565375 0.526187
0.617625 0.577750 0.537875
0.630687 0.590125 0.549562
0.643750 0.602500 0.561250
0.656812 0.614875 0.572937
0.669875 0.627250 0.584625
0.682937 0.639625 0.596312
0.648500 0.607000 0.565500
0.661563 0.619375 0.577188
0.674625 0.631750 0.588875
0.687688 0.644125 0.600562
0.700750 0.656500 0.612250
0.713812 0.668875 0.623938
0.726875 0.681250 0.635625
0.739938 0.693625 0.647313
0.753000 0.706000 0.659000
0.718562 0.673375 0.628188
0.731625 0.685750 0.639875
0.744687 0.698125 0.651562
0.757750 0.710500 0.663250
0.770813 0.722875 0.674938
0.783875 0.735250 0.686625
0.796937 0.747625 0.698313
0.810000 0.760000 0.710000
0.823063 0.772375 0.721688
0.788625 0.739750 0.690875
0.801687 0.752125 0.702562
0.814750 0.764500 0.714250
0.827812 0.776875 0.725938
0.840875 0.789250 0.737625
0.853937 0.801625 0.749312
0.867000 0.814000 0.761000
0.880063 0.826375 0.772688
0.893125 0.838750 0.784375
0.263750 0.242500 0.221250
0.276812 0.254875 0.232937
0.289875 0.267250 0.244625
0.302937 0.279625 0.256312
0.316000 0.292000 0.268000
0.329062 0.304375 0.279687
0.342125 0.316750 0.291375
0.355187 0.329125 0.303063
0.368250 0.341500 0.314750
0.333812 0.308875 0.283937
0.346875 0.321250 0.295625
0.359937 0.333625 0.307312
0.373000 0.346000 0.319000
0.386062 0.358375 0.330687
0.399125 0.370750 0.342375
0.412187 0.383125 0.354062
0.425250 0.395500 0.365750
0.438312 0.407875 0.377437
0.403875 0.375250 0.346625
0.416937 0.387625 0.358312
0.430000 0.400000 0.370000
0.443062 0.412375 0.381687
0.456125 0.424750 0.393375
0.469187 0.437125 0.405062
0.482250 0.449500 0.416750
0.495312 0.461875 0.428437
0.508375 0.474250 0.440125
0.473937 0.441625 0.409312
0.487000 0.454000 0.421000
0.500062 0.466375 0.432688
0.513125 0.478750 0.444375
0.526187 0.491125 0.456062
0.539250 0.503500 0.467750
0.552312 0.515875 0.479437
0.565375 0.528250 0.491125
0.578438 0.540625 0.502812
0.544000 0.508000 0.472000
0.557063 0.520375 0.483688
0.570125 0.532750 0.495375
0.583188 0.545125 0.507062
0.596250 0.557500 0.518750
0.609313 0.569875 0.530438
0.622375 0.582250 0.542125
0.635437 0.594625 0.553812
0.648500 0.607000 0.565500
0.614063 0.574375 0.534687
0.627125 0.586750 0.546375
0.640188 0.599125 0.558063
0.653250 0.611500 0.569750
0.666313 0.623875 0.581438
0.679375 0.636250 0.593125
0.692438 0.648625 0.604812
0.705500 0.661000 0.616500
0.718562 0.673375 0.628188
0.684125 0.640750 0.597375
0.697188 0.653125 0.609063
0.710250 0.665500 0.620750
0.723313 0.677875 0.632437
0.736375 0.690250 0.644125
0.749437 0.702625 0.655813
0.762500 0.715000 0.667500
0.775562 0.727375 0.679187
0.788625 0.739750 0.690875
0.754188 0.707125 0.660062
0.767250 0.719500 0.671750
0.780312 0.731875 0.683437
0.793375 0.744250 0.695125
0.806438 0.756625 0.706813
0.819500 0.769000 0.718500
0.832562 0.781375 0.730187
0.845625 0.793750 0.741875
0.858687 0.806125 0.753562
0.824250 0.773500 0.722750
0.837313 0.785875 0.734437
0.850375 0.798250 0.746125
0.863437 0.810625 0.757812
0.876500 0.823000 0.769500
0.889562 0.835375 0.781187
0.902625 0.847750 0.792875
0.915687 0.860125 0.804562
0.928750 0.872500 0.816250
0.299375 0.276250 0.253125
0.312437 0.288625 0.264813
0.325500 0.301000 0.276500
0.338562 0.313375 0.288188
0.351625 0.325750 0.299875
0.364687 0.338125 0.311563
0.377750 0.350500 0.323250
0.390813 0.362875 0.334937
0.403875 0.375250 0.346625
0.369437 0.342625 0.315812
0.382500 0.355000 0.327500
0.395562 0.367375 0.339187
0.408625 0.379750 0.350875
0.421687 0.392125 0.362563
0.434750 0.404500 0.374250
0.447813 0.416875 0.385938
0.460875 0.429250 0.397625
0.473937 0.441625 0.409312
0.439500 0.409000 0.378500
0.452562 0.421375 0.390188
0.465625 0.433750 0.401875
0.478687 0.446125 0.413563
0.491750 0.458500 0.425250
0.504812 0.470875 0.436937
0.517875 0.483250 0.448625
0.530938 0.495625 0.460313
0.544000 0.508000 0.472000
0.509563 0.475375 0.441187
0.522625 0.487750 0.452875
0.535687 0.500125 0.464562
0.548750 0.512500 0.476250
0.561813 0.524875 0.487938
0.574875 0.537250 0.499625
0.587938 0.549625 0.511313
0.601000 0.562000 0.523000
0.614063 0.574375 0.534687
0.579625 0.541750 0.503875
0.592688 0.554125 0.515563
0.605750 0.566500 0.527250
0.618812 0.578875 0.538938
0.631875 0.591250 0.550625
0.644937 0.603625 0.562312
0.658000 0.616000 0.574000
0.671063 0.628375 0.585688
0.684125 0.640750 0.597375
0.649687 0.608125 0.566562
0.662750 0.620500 0.578250
0.675812 0.632875 0.589938
0.688875 0.645250 0.601625
0.701937 0.657625 0.613313
0.715000 0.670000 0.625000
0.728063 0.682375 0.636687
0.741125 0.694750 0.648375
0.754188 0.707125 0.660062
0.719750 0.674500 0.629250
0.732813 0.686875 0.640938
0.745875 0.699250 0.652625
0.758938 0.711625 0.664313
0.772000 0.724000 0.676000
0.785063 0.736375 0.687688
0.798125 0.748750 0.699375
0.811188 0.761125 0.711063
0.824250 0.773500 0.722750
0.789813 0.740875 0.691938
0.802875 0.753250 0.703625
0.815937 0.765625 0.715313
0.829000 0.778000 0.727000
0.842063 0.790375 0.738688
0.855125 0.802750 0.750375
0.868188 0.815125 0.762063
0.881250 0.827500 0.773750
0.894313 0.839875 0.785438
0.859875 0.807250 0.754625
0.872938 0.819625 0.766313
0.886000 0.832000 0.778000
0.899063 0.844375 0.789688
0.912125 0.856750 0.801375
0.925188 0.869125 0.813063
0.938250 0.881500 0.824750
0.951313 0.893875 0.836437
0.964375 0.906250 0.848125
0.335000 0.310000 0.285000
0.348062 0.322375 0.296687
0.361125 0.334750 0.308375
0.374187 0.347125 0.320063
0.387250 0.359500 0.331750
0.400313 0.371875 0.343438
0.413375 0.384250 0.355125
0.426437 0.396625 0.366812
0.439500 0.409000 0.378500
0.405062 0.376375 0.347687
0.418125 0.388750 0.359375
0.431187 0.401125 0.371062
0.444250 0.413500 0.382750
0.457312 0.425875 0.394437
0.470375 0.438250 0.406125
0.483437 0.450625 0.417813
0.496500 0.463000 0.429500
0.509562 0.475375 0.441187
0.475125 0.442750 0.410375
0.488187 0.455125 0.422063
0.501250 0.467500 0.433750
0.514313 0.479875 0.445438
0.527375 0.492250 0.457125
0.540438 0.504625 0.468812
0.553500 0.517000 0.480500
0.566562 0.529375 0.492188
0.579625 0.541750 0.503875
0.545187 0.509125 0.473062
0.558250 0.521500 0.484750
0.571313 0.533875 0.496437
0.584375 0.546250 0.508125
0.597438 0.558625 0.519813
0.610500 0.571000 0.531500
0.623563 0.583375 0.543188
0.636625 0.595750 0.554875
0.649687 0.608125 0.566562
0.615250 0.575500 0.535750
0.628313 0.587875 0.547438
0.641375 0.600250 0.559125
0.654438 0.612625 0.570812
0.667500 0.625000 0.582500
0.680562 0.637375 0.594187
0.693625 0.649750 0.605875
0.706687 0.662125 0.617562
0.719750 0.674500 0.629250
0.685312 0.641875 0.598437
0.698375 0.654250 0.610125
0.711437 0.666625 0.621812
0.724500 0.679000 0.633500
0.737563 0.691375 0.645188
0.750625 0.703750 0.656875
0.763687 0.716125 0.668562
0.776750 0.728500 0.680250
0.789812 0.740875 0.691937
0.755375 0.708250 0.661125
0.768437 0.720625 0.672813
0.781500 0.733000 0.684500
0.794562 0.745375 0.696187
0.807625 0.757750 0.707875
0.820687 0.770125 0.719562
0.833750 0.782500 0.731250
0.846812 0.794875 0.742937
0.859875 0.807250 0.754625
0.825437 0.774625 0.723812
0.838500 0.787000 0.735500
0.851562 0.799375 0.747187
0.864625 0.811750 0.758875
0.877687 0.824125 0.770562
0.890750 0.836500 0.782250
0.903812 0.848875 0.793937
0.916875 0.861250 0.805625
0.929937 0.873625 0.817312
0.895500 0.841000 0.786500
0.908562 0.853375 0.798187
0.921625 0.865750 0.809875
0.934687 0.878125 0.821562
0.947750 0.890500 0.833250
0.960812 0.902875 0.844937
0.973875 0.915250 0.856625
0.986937 0.927625 0.868312
1.000000 0.940000 0.880000
