filters/Matte_Brown_Mono.cube
# Matte Brown Mono LUT
LUT_3D_SIZE 33
0.050000 0.040000 0.030000
0.053266 0.043094 0.032922
0.056531 0.046187 0.035844
0.059797 0.049281 0.038766
0.063063 0.052375 0.041688
0.066328 0.055469 0.044609
0.069594 0.058563 0.047531
0.072859 0.061656 0.050453
0.076125 0.064750 0.053375
0.079391 0.067844 0.056297
0.082656 0.070938 0.059219
0.085922 0.074031 0.062141
0.089188 0.077125 0.065062
0.092453 0.080219 0.067984
0.095719 0.083313 0.070906
0.098984 0.086406 0.073828
0.102250 0.089500 0.076750
0.105516 0.092594 0.079672
0.108781 0.095688 0.082594
0.112047 0.098781 0.085516
0.115312 0.101875 0.088438
0.118578 0.104969 0.091359
0.121844 0.108063 0.094281
0.125109 0.111156 0.097203
0.128375 0.114250 0.100125
0.131641 0.117344 0.103047
0.134906 0.120438 0.105969
0.138172 0.123531 0.108891
0.141437 0.126625 0.111812
0.144703 0.129719 0.114734
0.147969 0.132812 0.117656
0.151234 0.135906 0.120578
0.154500 0.139000 0.123500
0.067516 0.056594 0.045672
0.070781 0.059688 0.048594
0.074047 0.062781 0.051516
0.077313 0.065875 0.054437
0.080578 0.068969 0.057359
0.083844 0.072063 0.060281
0.087109 0.075156 0.063203
0.090375 0.078250 0.066125
0.093641 0.081344 0.069047
0.096906 0.084437 0.071969
0.100172 0.087531 0.074891
0.103437 0.090625 0.077812
0.106703 0.093719 0.080734
0.109969 0.096812 0.083656
0.113234 0.099906 0.086578
0.116500 0.103000 0.089500
0.119766 0.106094 0.092422
0.123031 0.109187 0.095344
0.126297 0.112281 0.098266
0.129562 0.115375 0.101187
0.132828 0.118469 0.104109
0.136094 0.121562 0.107031
0.139359 0.124656 0.109953
0.142625 0.127750 0.112875
0.145891 0.130844 0.115797
0.149156 0.133937 0.118719
0.152422 0.137031 0.121641
0.155687 0.140125 0.124562
0.158953 0.143219 0.127484
0.162219 0.146312 0.130406
0.165484 0.149406 0.133328
0.168750 0.152500 0.136250
0.172016 0.155594 0.139172
0.085031 0.073188 0.061344
0.088297 0.076281 0.064266
0.091562 0.079375 0.067187
0.094828 0.082469 0.070109
0.098094 0.085562 0.073031
0.101359 0.088656 0.075953
0.104625 0.091750 0.078875
0.107891 0.094844 0.081797
0.111156 0.097938 0.084719
0.114422 0.101031 0.087641
0.117688 0.104125 0.090563
0.120953 0.107219 0.093484
0.124219 0.110313 0.096406
0.127484 0.113406 0.099328
0.130750 0.116500 0.102250
0.134016 0.119594 0.105172
0.137281 0.122688 0.108094
0.140547 0.125781 0.111016
0.143813 0.128875 0.113937
0.147078 0.131969 0.116859
0.150344 0.135063 0.119781
0.153609 0.138156 0.122703
0.156875 0.141250 0.125625
0.160141 0.144344 0.128547
0.163406 0.147437 0.131469
0.166672 0.150531 0.134391
0.169937 0.153625 0.137313
0.173203 0.156719 0.140234
0.176469 0.159812 0.143156
0.179734 0.162906 0.146078
0.183000 0.166000 0.149000
0.186266 0.169094 0.151922
0.189531 0.172188 0.154844
0.102547 0.089781 0.077016
0.105813 0.092875 0.079937
0.109078 0.095969 0.082859
0.112344 0.099062 0.085781
0.115609 0.102156 0.088703
0.118875 0.105250 0.091625
0.122141 0.108344 0.094547
0.125406 0.111437 0.097469
0.128672 0.114531 0.100391
0.131937 0.117625 0.103312
0.135203 0.120719 0.106234
0.138469 0.123812 0.109156
0.141734 0.126906 0.112078
0.145000 0.130000 0.115000
0.148266 0.133094 0.117922
0.151531 0.136187 0.120844
0.154797 0.139281 0.123766
0.158062 0.142375 0.126688
0.161328 0.145469 0.129609
0.164594 0.148562 0.132531
0.167859 0.151656 0.135453
0.171125 0.154750 0.138375
0.174391 0.157844 0.141297
0.177656 0.160938 0.144219
0.180922 0.164031 0.147141
0.184188 0.167125 0.150062
0.187453 0.170219 0.152984
0.190719 0.173313 0.155906
0.193984 0.176406 0.158828
0.197250 0.179500 0.161750
0.200516 0.182594 0.164672
0.203781 0.185688 0.167594
0.207047 0.188781 0.170516
0.120063 0.106375 0.092687
0.123328 0.109469 0.095609
0.126594 0.112563 0.098531
0.129859 0.115656 0.101453
0.133125 0.118750 0.104375
0.136391 0.121844 0.107297
0.139656 0.124938 0.110219
0.142922 0.128031 0.113141
0.146187 0.131125 0.116062
0.149453 0.134219 0.118984
0.152719 0.137313 0.121906
0.155984 0.140406 0.124828
0.159250 0.143500 0.127750
0.162516 0.146594 0.130672
0.165781 0.149688 0.133594
0.169047 0.152781 0.136516
0.172312 0.155875 0.139437
0.175578 0.158969 0.142359
0.178844 0.162062 0.145281
0.182109 0.165156 0.148203
0.185375 0.168250 0.151125
0.188641 0.171344 0.154047
0.191906 0.174437 0.156969
0.195172 0.177531 0.159891
0.198437 0.180625 0.162812
0.201703 0.183719 0.165734
0.204969 0.186812 0.168656
0.208234 0.189906 0.171578
0.211500 0.193000 0.174500
0.214766 0.196094 0.177422
0.218031 0.199188 0.180344
0.221297 0.202281 0.183266
0.224562 0.205375 0.186188
0.137578 0.122969 0.108359
0.140844 0.126062 0.111281
0.144109 0.129156 0.114203
0.147375 0.132250 0.117125
0.150641 0.135344 0.120047
0.153906 0.138437 0.122969
0.157172 0.141531 0.125891
0.160438 0.144625 0.128812
0.163703 0.147719 0.131734
0.166969 0.150812 0.134656
0.170234 0.153906 0.137578
0.173500 0.157000 0.140500
0.176766 0.160094 0.143422
0.180031 0.163188 0.146344
0.183297 0.166281 0.149266
0.186562 0.169375 0.152187
0.189828 0.172469 0.155109
0.193094 0.175563 0.158031
0.196359 0.178656 0.160953
0.199625 0.181750 0.163875
0.202891 0.184844 0.166797
0.206156 0.187938 0.169719
0.209422 0.191031 0.172641
0.212687 0.194125 0.175562
0.215953 0.197219 0.178484
0.219219 0.200313 0.181406
0.222484 0.203406 0.184328
0.225750 0.206500 0.187250
0.229016 0.209594 0.190172
0.232281 0.212688 0.193094
0.235547 0.215781 0.196016
0.238812 0.218875 0.198937
0.242078 0.221969 0.201859
0.155094 0.139563 0.124031
0.158359 0.142656 0.126953
0.161625 0.145750 0.129875
0.164891 0.148844 0.132797
0.168156 0.151938 0.135719
0.171422 0.155031 0.138641
0.174687 0.158125 0.141562
0.177953 0.161219 0.144484
0.181219 0.164313 0.147406
0.184484 0.167406 0.150328
0.187750 0.170500 0.153250
0.191016 0.173594 0.156172
0.194281 0.176688 0.159094
0.197547 0.179781 0.162016
0.200813 0.182875 0.164937
0.204078 0.185969 0.167859
0.207344 0.189062 0.170781
0.210609 0.192156 0.173703
0.213875 0.195250 0.176625
0.217141 0.198344 0.179547
0.220406 0.201438 0.182469
0.223672 0.204531 0.185391
0.226938 0.207625 0.188312
0.230203 0.210719 0.191234
0.233469 0.213813 0.194156
0.236734 0.216906 0.197078
0.240000 0.220000 0.200000
0.243266 0.223094 0.202922
0.246531 0.226188 0.205844
0.249797 0.229281 0.208766
0.253062 0.232375 0.211688
0.256328 0.235469 0.214609
0.259594 0.238563 0.217531
0.172609 0.156156 0.139703
0.175875 0.159250 0.142625
0.179141 0.162344 0.145547
0.182406 0.165438 0.148469
0.185672 0.168531 0.151391
0.188937 0.171625 0.154312
0.192203 0.174719 0.157234
0.195469 0.177813 0.160156
0.198734 0.180906 0.163078
0.202000 0.184000 0.166000
0.205266 0.187094 0.168922
0.208531 0.190188 0.171844
0.211797 0.193281 0.174766
0.215062 0.196375 0.177687
0.218328 0.199469 0.180609
0.221594 0.202563 0.183531
0.224859 0.205656 0.186453
0.228125 0.208750 0.189375
0.231391 0.211844 0.192297
0.234656 0.214938 0.195219
0.237922 0.218031 0.198141
0.241187 0.221125 0.201062
0.244453 0.224219 0.203984
0.247719 0.227313 0.206906
0.250984 0.230406 0.209828
0.254250 0.233500 0.212750
0.257516 0.236594 0.215672
0.260781 0.239687 0.218594
0.264047 0.242781 0.221516
0.267313 0.245875 0.224438
0.270578 0.248969 0.227359
0.273844 0.252063 0.230281
0.277109 0.255156 0.233203
0.190125 0.172750 0.155375
0.193391 0.175844 0.158297
0.196656 0.178937 0.161219
0.199922 0.182031 0.164141
0.203188 0.185125 0.167063
0.206453 0.188219 0.169984
0.209719 0.191312 0.172906
0.212984 0.194406 0.175828
0.216250 0.197500 0.178750
0.219516 0.200594 0.181672
0.222781 0.203688 0.184594
0.226047 0.206781 0.187516
0.229312 0.209875 0.190437
0.232578 0.212969 0.193359
0.235844 0.216063 0.196281
0.239109 0.219156 0.199203
0.242375 0.222250 0.202125
0.245641 0.225344 0.205047
0.248906 0.228437 0.207969
0.252172 0.231531 0.210891
0.255437 0.234625 0.213812
0.258703 0.237719 0.216734
0.261969 0.240813 0.219656
0.265234 0.243906 0.222578
0.268500 0.247000 0.225500
0.271766 0.250094 0.228422
0.275031 0.253188 0.231344
0.278297 0.256281 0.234266
0.281562 0.259375 0.237187
0.284828 0.262469 0.240109
0.288094 0.265562 0.243031
0.291359 0.268656 0.245953
0.294625 0.271750 0.248875
0.207641 0.189344 0.171047
0.210906 0.192438 0.173969
0.214172 0.195531 0.176891
0.217438 0.198625 0.179812
0.220703 0.201719 0.182734
0.223969 0.204813 0.185656
0.227234 0.207906 0.188578
0.230500 0.211000 0.191500
0.233766 0.214094 0.194422
0.237031 0.217188 0.197344
0.240297 0.220281 0.200266
0.243562 0.223375 0.203187
0.246828 0.226469 0.206109
0.250094 0.229563 0.209031
0.253359 0.232656 0.211953
0.256625 0.235750 0.214875
0.259891 0.238844 0.217797
0.263156 0.241937 0.220719
0.266422 0.245031 0.223641
0.269687 0.248125 0.226562
0.272953 0.251219 0.229484
0.276219 0.254312 0.232406
0.279484 0.257406 0.235328
0.282750 0.260500 0.238250
0.286016 0.263594 0.241172
0.289281 0.266687 0.244094
0.292547 0.269781 0.247016
0.295812 0.272875 0.249937
0.299078 0.275969 0.252859
0.302344 0.279062 0.255781
0.305609 0.282156 0.258703
0.308875 0.285250 0.261625
0.312141 0.288344 0.264547
0.225156 0.205937 0.186719
0.228422 0.209031 0.189641
0.231687 0.212125 0.192562
0.234953 0.215219 0.195484
0.238219 0.218313 0.198406
0.241484 0.221406 0.201328
0.244750 0.224500 0.204250
0.248016 0.227594 0.207172
0.251281 0.230687 0.210094
0.254547 0.233781 0.213016
0.257812 0.236875 0.215938
0.261078 0.239969 0.218859
0.264344 0.243063 0.221781
0.267609 0.246156 0.224703
0.270875 0.249250 0.227625
0.274141 0.252344 0.230547
0.277406 0.255437 0.233469
0.280672 0.258531 0.236391
0.283937 0.261625 0.239312
0.287203 0.264719 0.242234
0.290469 0.267813 0.245156
0.293734 0.270906 0.248078
0.297000 0.274000 0.251000
0.300266 0.277094 0.253922
0.303531 0.280187 0.256844
0.306797 0.283281 0.259766
0.310062 0.286375 0.262687
0.313328 0.289469 0.265609
0.316594 0.292563 0.268531
0.319859 0.295656 0.271453
0.323125 0.298750 0.274375
0.326391 0.301844 0.277297
0.329656 0.304937 0.280219
0.242672 0.222531 0.202391
0.245937 0.225625 0.205312
0.249203 0.228719 0.208234
0.252469 0.231813 0.211156
0.255734 0.234906 0.214078
0.259000 0.238000 0.217000
0.262266 0.241094 0.219922
0.265531 0.244188 0.222844
0.268797 0.247281 0.225766
0.272062 0.250375 0.228687
0.275328 0.253469 0.231609
0.278594 0.256562 0.234531
0.281859 0.259656 0.237453
0.285125 0.262750 0.240375
0.288391 0.265844 0.243297
0.291656 0.268937 0.246219
0.294922 0.272031 0.249141
0.298187 0.275125 0.252062
0.301453 0.278219 0.254984
0.304719 0.281312 0.257906
0.307984 0.284406 0.260828
0.311250 0.287500 0.263750
0.314516 0.290594 0.266672
0.317781 0.293687 0.269594
0.321047 0.296781 0.272516
0.324312 0.299875 0.275437
0.327578 0.302969 0.278359
0.330844 0.306062 0.281281
0.334109 0.309156 0.284203
0.337375 0.312250 0.287125
0.340641 0.315344 0.290047
0.343906 0.318437 0.292969
0.347172 0.321531 0.295891
0.260188 0.239125 0.218062
0.263453 0.242219 0.220984
0.266719 0.245313 0.223906
0.269984 0.248406 0.226828
0.273250 0.251500 0.229750
0.276516 0.254594 0.232672
0.279781 0.257688 0.235594
0.283047 0.260781 0.238516
0.286312 0.263875 0.241437
0.289578 0.266969 0.244359
0.292844 0.270062 0.247281
0.296109 0.273156 0.250203
0.299375 0.276250 0.253125
0.302641 0.279344 0.256047
0.305906 0.282438 0.258969
0.309172 0.285531 0.261891
0.312437 0.288625 0.264813
0.315703 0.291719 0.267734
0.318969 0.294812 0.270656
0.322234 0.297906 0.273578
0.325500 0.301000 0.276500
0.328766 0.304094 0.279422
0.332031 0.307188 0.282344
0.335297 0.310281 0.285266
0.338562 0.313375 0.288188
0.341828 0.316469 0.291109
0.345094 0.319562 0.294031
0.348359 0.322656 0.296953
0.351625 0.325750 0.299875
0.354891 0.328844 0.302797
0.358156 0.331937 0.305719
0.361422 0.335031 0.308641
0.364687 0.338125 0.311562
0.277703 0.255719 0.233734
0.280969 0.258813 0.236656
0.284234 0.261906 0.239578
0.287500 0.265000 0.242500
0.290766 0.268094 0.245422
0.294031 0.271188 0.248344
0.297297 0.274281 0.251266
0.300562 0.277375 0.254188
0.303828 0.280469 0.257109
0.307094 0.283562 0.260031
0.310359 0.286656 0.262953
0.313625 0.289750 0.265875
0.316891 0.292844 0.268797
0.320156 0.295937 0.271719
0.323422 0.299031 0.274641
0.326687 0.302125 0.277562
0.329953 0.305219 0.280484
0.333219 0.308312 0.283406
0.336484 0.311406 0.286328
0.339750 0.314500 0.289250
0.343016 0.317594 0.292172
0.346281 0.320688 0.295094
0.349547 0.323781 0.298016
0.352812 0.326875 0.300937
0.356078 0.329969 0.303859
0.359344 0.333062 0.306781
0.362609 0.336156 0.309703
0.365875 0.339250 0.312625
0.369141 0.342344 0.315547
0.372406 0.345437 0.318469
0.375672 0.348531 0.321391
0.378937 0.351625 0.324313
0.382203 0.354719 0.327234
0.295219 0.272313 0.249406
0.298484 0.275406 0.252328
0.301750 0.278500 0.255250
0.305016 0.281594 0.258172
0.308281 0.284687 0.261094
0.311547 0.287781 0.264016
0.314812 0.290875 0.266937
0.318078 0.293969 0.269859
0.321344 0.297063 0.272781
0.324609 0.300156 0.275703
0.327875 0.303250 0.278625
0.331141 0.306344 0.281547
0.334406 0.309437 0.284469
0.337672 0.312531 0.287391
0.340938 0.315625 0.290312
0.344203 0.318719 0.293234
0.347469 0.321813 0.296156
0.350734 0.324906 0.299078
0.354000 0.328000 0.302000
0.357266 0.331094 0.304922
0.360531 0.334188 0.307844
0.363797 0.337281 0.310766
0.367062 0.340375 0.313688
0.370328 0.343469 0.316609
0.373594 0.346562 0.319531
0.376859 0.349656 0.322453
0.380125 0.352750 0.325375
0.383391 0.355844 0.328297
0.386656 0.358937 0.331219
0.389922 0.362031 0.334141
0.393187 0.365125 0.337062
0.396453 0.368219 0.339984
0.399719 0.371312 0.342906
0.312734 0.288906 0.265078
0.316000 0.292000 0.268000
0.319266 0.295094 0.270922
0.322531 0.298187 0.273844
0.325797 0.301281 0.276766
0.329062 0.304375 0.279687
0.332328 0.307469 0.282609
0.335594 0.310562 0.285531
0.338859 0.313656 0.288453
0.342125 0.316750 0.291375
0.345391 0.319844 0.294297
0.348656 0.322937 0.297219
0.351922 0.326031 0.300141
0.355187 0.329125 0.303063
0.358453 0.332219 0.305984
0.361719 0.335313 0.308906
0.364984 0.338406 0.311828
0.368250 0.341500 0.314750
0.371516 0.344594 0.317672
0.374781 0.347687 0.320594
0.378047 0.350781 0.323516
0.381312 0.353875 0.326438
0.384578 0.356969 0.329359
0.387844 0.360062 0.332281
0.391109 0.363156 0.335203
0.394375 0.366250 0.338125
0.397641 0.369344 0.341047
0.400906 0.372437 0.343969
0.404172 0.375531 0.346891
0.407437 0.378625 0.349812
0.410703 0.381719 0.352734
0.413969 0.384813 0.355656
0.417234 0.387906 0.358578
0.330250 0.305500 0.280750
0.333516 0.308594 0.283672
0.336781 0.311688 0.286594
0.340047 0.314781 0.289516
0.343312 0.317875 0.292438
0.346578 0.320969 0.295359
0.349844 0.324062 0.298281
0.353109 0.327156 0.301203
0.356375 0.330250 0.304125
0.359641 0.333344 0.307047
0.362906 0.336437 0.309969
0.366172 0.339531 0.312891
0.369437 0.342625 0.315812
0.372703 0.345719 0.318734
0.375969 0.348813 0.321656
0.379234 0.351906 0.324578
0.382500 0.355000 0.327500
0.385766 0.358094 0.330422
0.389031 0.361187 0.333344
0.392297 0.364281 0.336266
0.395562 0.367375 0.339187
0.398828 0.370469 0.342109
0.402094 0.373562 0.345031
0.405359 0.376656 0.347953
0.408625 0.379750 0.350875
0.411891 0.382844 0.353797
0.415156 0.385937 0.356719
0.418422 0.389031 0.359641
0.421687 0.392125 0.362563
0.424953 0.395219 0.365484
0.428219 0.398312 0.368406
0.431484 0.401406 0.371328
0.434750 0.404500 0.374250
0.347766 0.322094 0.296422
0.351031 0.325187 0.299344
0.354297 0.328281 0.302266
0.357562 0.331375 0.305187
0.360828 0.334469 0.308109
0.364094 0.337562 0.311031
0.367359 0.340656 0.313953
0.370625 0.343750 0.316875
0.373891 0.346844 0.319797
0.377156 0.349937 0.322719
0.380422 0.353031 0.325641
0.383687 0.356125 0.328562
0.386953 0.359219 0.331484
0.390219 0.362312 0.334406
0.393484 0.365406 0.337328
0.396750 0.368500 0.340250
0.400016 0.371594 0.343172
0.403281 0.374687 0.346094
0.406547 0.377781 0.349016
0.409812 0.380875 0.351938
0.413078 0.383969 0.354859
0.416344 0.387062 0.357781
0.419609 0.390156 0.360703
0.422875 0.393250 0.363625
0.426141 0.396344 0.366547
0.429406 0.399437 0.369469
0.432672 0.402531 0.372391
0.435937 0.405625 0.375312
0.439203 0.408719 0.378234
0.442469 0.411812 0.381156
0.445734 0.414906 0.384078
0.449000 0.418000 0.387000
0.452266 0.421094 0.389922
0.365281 0.338687 0.312094
0.368547 0.341781 0.315016
0.371812 0.344875 0.317937
0.375078 0.347969 0.320859
0.378344 0.351062 0.323781
0.381609 0.354156 0.326703
0.384875 0.357250 0.329625
0.388141 0.360344 0.332547
0.391406 0.363437 0.335469
0.394672 0.366531 0.338391
0.397937 0.369625 0.341312
0.401203 0.372719 0.344234
0.404469 0.375812 0.347156
0.407734 0.378906 0.350078
0.411000 0.382000 0.353000
0.414266 0.385094 0.355922
0.417531 0.388187 0.358844
0.420797 0.391281 0.361766
0.424062 0.394375 0.364687
0.427328 0.397469 0.367609
0.430594 0.400562 0.370531
0.433859 0.403656 0.373453
0.437125 0.406750 0.376375
0.440391 0.409844 0.379297
0.443656 0.412937 0.382219
0.446922 0.416031 0.385141
0.450187 0.419125 0.388062
0.453453 0.422219 0.390984
0.456719 0.425312 0.393906
0.459984 0.428406 0.396828
0.463250 0.431500 0.399750
0.466516 0.434594 0.402672
0.469781 0.437687 0.405594
0.382797 0.355281 0.327766
0.386062 0.358375 0.330687
0.389328 0.361469 0.333609
0.392594 0.364562 0.336531
0.395859 0.367656 0.339453
0.399125 0.370750 0.342375
0.402391 0.373844 0.345297
0.405656 0.376937 0.348219
0.408922 0.380031 0.351141
0.412187 0.383125 0.354062
0.415453 0.386219 0.356984
0.418719 0.389312 0.359906
0.421984 0.392406 0.362828
0.425250 0.395500 0.365750
0.428516 0.398594 0.368672
0.431781 0.401687 0.371594
0.435047 0.404781 0.374516
0.438312 0.407875 0.377437
0.441578 0.410969 0.380359
0.444844 0.414062 0.383281
0.448109 0.417156 0.386203
0.451375 0.420250 0.389125
0.454641 0.423344 0.392047
0.457906 0.426437 0.394969
0.461172 0.429531 0.397891
0.464437 0.432625 0.400813
0.467703 0.435719 0.403734
0.470969 0.438812 0.406656
0.474234 0.441906 0.409578
0.477500 0.445000 0.412500
0.480766 0.448094 0.415422
0.484031 0.451187 0.418344
0.487297 0.454281 0.421266
0.400312 0.371875 0.343437
0.403578 0.374969 0.346359
0.406844 0.378062 0.349281
0.410109 0.381156 0.352203
0.413375 0.384250 0.355125
0.416641 0.387344 0.358047
0.419906 0.390437 0.360969
0.423172 0.393531 0.363891
0.426437 0.396625 0.366812
0.429703 0.399719 0.369734
0.432969 0.402812 0.372656
0.436234 0.405906 0.375578
0.439500 0.409000 0.378500
0.442766 0.412094 0.381422
0.446031 0.415187 0.384344
0.449297 0.418281 0.387266
0.452562 0.421375 0.390187
0.455828 0.424469 0.393109
0.459094 0.427562 0.396031
0.462359 0.430656 0.398953
0.465625 0.433750 0.401875
0.468891 0.436844 0.404797
0.472156 0.439937 0.407719
0.475422 0.443031 0.410641
0.478687 0.446125 0.413562
0.481953 0.449219 0.416484
0.485219 0.452312 0.419406
0.488484 0.455406 0.422328
0.491750 0.458500 0.425250
0.495016 0.461594 0.428172
0.498281 0.464687 0.431094
0.501547 0.467781 0.434016
0.504812 0.470875 0.436937
0.417828 0.388469 0.359109
0.421094 0.391562 0.362031
0.424359 0.394656 0.364953
0.427625 0.397750 0.367875
0.430891 0.400844 0.370797
0.434156 0.403937 0.373719
0.437422 0.407031 0.376641
0.440687 0.410125 0.379562
0.443953 0.413219 0.382484
0.447219 0.416312 0.385406
0.450484 0.419406 0.388328
0.453750 0.422500 0.391250
0.457016 0.425594 0.394172
0.460281 0.428687 0.397094
0.463547 0.431781 0.400016
0.466812 0.434875 0.402937
0.470078 0.437969 0.405859
0.473344 0.441062 0.408781
0.476609 0.444156 0.411703
0.479875 0.447250 0.414625
0.483141 0.450344 0.417547
0.486406 0.453437 0.420469
0.489672 0.456531 0.423391
0.492937 0.459625 0.426312
0.496203 0.462719 0.429234
0.499469 0.465812 0.432156
0.502734 0.468906 0.435078
0.506000 0.472000 0.438000
0.509266 0.475094 0.440922
0.512531 0.478187 0.443844
0.515797 0.481281 0.446766
0.519062 0.484375 0.449687
0.522328 0.487469 0.452609
0.435344 0.405062 0.374781
0.438609 0.408156 0.377703
0.441875 0.411250 0.380625
0.445141 0.414344 0.383547
0.448406 0.417437 0.386469
0.451672 0.420531 0.389391
0.454937 0.423625 0.392312
0.458203 0.426719 0.395234
0.461469 0.429812 0.398156
0.464734 0.432906 0.401078
0.468000 0.436000 0.404000
0.471266 0.439094 0.406922
0.474531 0.442187 0.409844
0.477797 0.445281 0.412766
0.481062 0.448375 0.415687
0.484328 0.451469 0.418609
0.487594 0.454562 0.421531
0.490859 0.457656 0.424453
0.494125 0.460750 0.427375
0.497391 0.463844 0.430297
0.500656 0.466938 0.433219
0.503922 0.470031 0.436141
0.507187 0.473125 0.439062
0.510453 0.476219 0.441984
0.513719 0.479312 0.444906
0.516984 0.482406 0.447828
0.520250 0.485500 0.450750
0.523516 0.488594 0.453672
0.526781 0.491687 0.456594
0.530047 0.494781 0.459516
0.533312 0.497875 0.462437
0.536578 0.500969 0.465359
0.539844 0.504062 0.468281
0.452859 0.421656 0.390453
0.456125 0.424750 0.393375
0.459391 0.427844 0.396297
0.462656 0.430937 0.399219
0.465922 0.434031 0.402141
0.469187 0.437125 0.405062
0.472453 0.440219 0.407984
0.475719 0.443312 0.410906
0.478984 0.446406 0.413828
0.482250 0.449500 0.416750
0.485516 0.452594 0.419672
0.488781 0.455687 0.422594
0.492047 0.458781 0.425516
0.495312 0.461875 0.428437
0.498578 0.464969 0.431359
0.501844 0.468062 0.434281
0.505109 0.471156 0.437203
0.508375 0.474250 0.440125
0.511641 0.477344 0.443047
0.514906 0.480437 0.445969
0.518172 0.483531 0.448891
0.521437 0.486625 0.451812
0.524703 0.489719 0.454734
0.527969 0.492812 0.457656
0.531234 0.495906 0.460578
0.534500 0.499000 0.463500
0.537766 0.502094 0.466422
0.541031 0.505188 0.469344
0.544297 0.508281 0.472266
0.547562 0.511375 0.475187
0.550828 0.514469 0.478109
0.554094 0.517562 0.481031
0.557359 0.520656 0.483953
0.470375 0.438250 0.406125
0.473641 0.441344 0.409047
0.476906 0.444437 0.411969
0.480172 0.447531 0.414891
0.483437 0.450625 0.417813
0.486703 0.453719 0.420734
0.489969 0.456813 0.423656
0.493234 0.459906 0.426578
0.496500 0.463000 0.429500
0.499766 0.466094 0.432422
0.503031 0.469187 0.435344
0.506297 0.472281 0.438266
0.509563 0.475375 0.441187
0.512828 0.478469 0.444109
0.516094 0.481562 0.447031
0.519359 0.484656 0.449953
0.522625 0.487750 0.452875
0.525891 0.490844 0.455797
0.529156 0.493938 0.458719
0.532422 0.497031 0.461641
0.535687 0.500125 0.464562
0.538953 0.503219 0.467484
0.542219 0.506312 0.470406
0.545484 0.509406 0.473328
0.548750 0.512500 0.476250
0.552016 0.515594 0.479172
0.555281 0.518687 0.482094
0.558547 0.521781 0.485016
0.561813 0.524875 0.487938
0.565078 0.527969 0.490859
0.568344 0.531062 0.493781
0.571609 0.534156 0.496703
0.574875 0.537250 0.499625
0.487891 0.454844 0.421797
0.491156 0.457937 0.424719
0.494422 0.461031 0.427641
0.497687 0.464125 0.430562
0.500953 0.467219 0.433484
0.504219 0.470313 0.436406
0.507484 0.473406 0.439328
0.510750 0.476500 0.442250
0.514016 0.479594 0.445172
0.517281 0.482687 0.448094
0.520547 0.485781 0.451016
0.523813 0.488875 0.453937
0.527078 0.491969 0.456859
0.530344 0.495062 0.459781
0.533609 0.498156 0.462703
0.536875 0.501250 0.465625
0.540141 0.504344 0.468547
0.543406 0.507438 0.471469
0.546672 0.510531 0.474391
0.549937 0.513625 0.477313
0.553203 0.516719 0.480234
0.556469 0.519813 0.483156
0.559734 0.522906 0.486078
0.563000 0.526000 0.489000
0.566266 0.529094 0.491922
0.569531 0.532188 0.494844
0.572797 0.535281 0.497766
0.576063 0.538375 0.500687
0.579328 0.541469 0.503609
0.582594 0.544563 0.506531
0.585859 0.547656 0.509453
0.589125 0.550750 0.512375
0.592391 0.553844 0.515297
0.505406 0.471438 0.437469
0.508672 0.474531 0.440391
0.511938 0.477625 0.443312
0.515203 0.480719 0.446234
0.518469 0.483812 0.449156
0.521734 0.486906 0.452078
0.525000 0.490000 0.455000
0.528266 0.493094 0.457922
0.531531 0.496187 0.460844
0.534797 0.499281 0.463766
0.538062 0.502375 0.466688
0.541328 0.505469 0.469609
0.544594 0.508563 0.472531
0.547859 0.511656 0.475453
0.551125 0.514750 0.478375
0.554391 0.517844 0.481297
0.557656 0.520938 0.484219
0.560922 0.524031 0.487141
0.564188 0.527125 0.490062
0.567453 0.530219 0.492984
0.570719 0.533312 0.495906
0.573984 0.536406 0.498828
0.577250 0.539500 0.501750
0.580516 0.542594 0.504672
0.583781 0.545688 0.507594
0.587047 0.548781 0.510516
0.590313 0.551875 0.513437
0.593578 0.554969 0.516359
0.596844 0.558063 0.519281
