filters/Matte_Brown_Mono.cube
# Matte Brown Mono LUT
LUT_3D_SIZE 5
0.050000 0.040000 0.030000
0.076125 0.064750 0.053375
0.102250 0.089500 0.076750
0.128375 0.114250 0.100125
0.154500 0.139000 0.123500
0.190125 0.172750 0.155375
0.216250 0.197500 0.178750
0.242375 0.222250 0.202125
0.268500 0.247000 0.225500
0.294625 0.271750 0.248875
0.330250 0.305500 0.280750
0.356375 0.330250 0.304125
0.382500 0.355000 0.327500
0.408625 0.379750 0.350875
0.434750 0.404500 0.374250
0.470375 0.438250 0.406125
0.496500 0.463000 0.429500
0.522625 0.487750 0.452875
0.548750 0.512500 0.476250
0.574875 0.537250 0.499625
0.610500 0.571000 0.531500
0.636625 0.595750 0.554875
0.662750 0.620500 0.578250
0.688875 0.645250 0.601625
0.715000 0.670000 0.625000
0.121250 0.107500 0.093750
0.147375 0.132250 0.117125
0.173500 0.157000 0.140500
0.199625 0.181750 0.163875
0.225750 0.206500 0.187250
0.261375 0.240250 0.219125
0.287500 0.265000 0.242500
0.313625 0.289750 0.265875
0.339750 0.314500 0.289250
0.365875 0.339250 0.312625
0.401500 0.373000 0.344500
0.427625 0.397750 0.367875
0.453750 0.422500 0.391250
0.479875 0.447250 0.414625
0.506000 0.472000 0.438000
0.541625 0.505750 0.469875
0.567750 0.530500 0.493250
0.593875 0.555250 0.516625
0.620000 0.580000 0.540000
0.646125 0.604750 0.563375
0.681750 0.638500 0.595250
0.707875 0.663250 0.618625
0.734000 0.688000 0.642000
0.760125 0.712750 0.665375
0.786250 0.737500 0.688750
0.192500 0.175000 0.157500
0.218625 0.199750 0.180875
0.244750 0.224500 0.204250
0.270875 0.249250 0.227625
0.297000 0.274000 0.251000
0.332625 0.307750 0.282875
0.358750 0.332500 0.306250
0.384875 0.357250 0.329625
0.411000 0.382000 0.353000
0.437125 0.406750 0.376375
0.472750 0.440500 0.408250
0.498875 0.465250 0.431625
0.525000 0.490000 0.455000
0.551125 0.514750 0.478375
0.577250 0.539500 0.501750
0.612875 0.573250 0.533625
0.639000 0.598000 0.557000
0.665125 0.622750 0.580375
0.691250 0.647500 0.603750
0.717375 0.672250 0.627125
0.753000 0.706000 0.659000
0.779125 0.730750 0.682375
0.805250 0.755500 0.705750
0.831375 0.780250 0.729125
0.857500 0.805000 0.752500
0.263750 0.242500 0.221250
0.289875 0.267250 0.244625
0.316000 0.292000 0.268000
0.342125 0.316750 0.291375
0.368250 0.341500 0.314750
0.403875 0.375250 0.346625
0.430000 0.400000 0.370000
0.456125 0.424750 0.393375
0.482250 0.449500 0.416750
0.508375 0.474250 0.440125
0.544000 0.508000 0.472000
0.570125 0.532750 0.495375
0.596250 0.557500 0.518750
0.622375 0.582250 0.542125
0.648500 0.607000 0.565500
0.684125 0.640750 0.597375
0.710250 0.665500 0.620750
0.736375 0.690250 0.644125
0.762500 0.715000 0.667500
0.788625 0.739750 0.690875
0.824250 0.773500 0.722750
0.850375 0.798250 0.746125
0.876500 0.823000 0.769500
0.902625 0.847750 0.792875
0.928750 0.872500 0.816250
0.335000 0.310000 0.285000
0.361125 0.334750 0.308375
0.387250 0.359500 0.331750
0.413375 0.384250 0.355125
0.439500 0.409000 0.378500
0.475125 0.442750 0.410375
0.501250 0.467500 0.433750
0.527375 0.492250 0.457125
0.553500 0.517000 0.480500
0.579625 0.541750 0.503875
0.615250 0.575500 0.535750
0.641375 0.600250 0.559125
0.667500 0.625000 0.582500
0.693625 0.649750 0.605875
0.719750 0.674500 0.629250
0.755375 0.708250 0.661125
0.781500 0.733000 0.684500
0.807625 0.757750 0.707875
0.833750 0.782500 0.731250
0.859875 0.807250 0.754625
0.895500 0.841000 0.786500
0.921625 0.865750 0.809875
0.947750 0.890500 0.833250
0.973875 0.915250 0.856625
1.000000 0.940000 0.880000
