filters/Orange & Teal.cube
TITLE "Generated by Resolve"
LUT_3D_SIZE 5
0 0 0
0.171603 0 0
0.427588 0 0
0.681392 0 0
0.854124 0 0
0 0.152483 0
0.195926 0.16318 0
0.510597 0.132769 0
0.768353 0.132464 0
0.955047 0.161074 0
0 0.400778 0
0.117021 0.456367 0
0.487449 0.453254 0
0.865232 0.42739 0
1 0.444785 0
0 0.698665 0
0.143206 0.745327 0
0.396201 0.786313 0
0.784604 0.765011 0
1 0.753109 0
0.062623 0.957763 0.0592508
0.221515 0.985763 0.0297398
0.414084 1 0
0.712291 1 0
0.985397 0.985061 0
0 0 0.159991
0.170214 0 0.152377
0.426459 0 0.123735
0.682017 0 0.0975357
0.857221 0 0.10222
0 0.154055 0.155703
0.179538 0.159533 0.1617
0.456947 0.150683 0.152834
0.737285 0.150637 0.152789
0.935592 0.178424 0.180591
0 0.414206 0.110353
0.174166 0.433921 0.219837
0.482475 0.449195 0.0581826
0.82182 0.436576 0.0757763
1 0.466423 0.149081
0 0.706477 0.165835
0.188266 0.73225 0.237354
0.414908 0.767803 0.0821851
0.776867 0.758129 0
1 0.747707 0
0.0727092 0.960067 0.260197
0.251133 0.972061 0.300542
0.46569 0.979446 0.193393
0.702617 0.990967 0
0.974075 0.97409 0
0 0 0.435538
0.159945 0 0.427771
0.410285 0 0.437354
0.668803 0 0.4056
0.850904 0 0.389456
0 0.160403 0.42446
0.0716259 0.178424 0.524147
0.439658 0.145098 0.528954
0.737087 0.15108 0.445853
0.937057 0.179904 0.467735
0 0.452064 0.319493
0.0992752 0.464225 0.445869
0.465888 0.445167 0.447456
0.751461 0.45037 0.452659
0.950484 0.478874 0.481163
0 0.732662 0.333867
0.172839 0.744961 0.455512
0.466972 0.732998 0.55462
0.758068 0.740215 0.402029
1 0.739498 0.367605
0.0598154 0.968399 0.458396
0.248844 0.967498 0.564736
0.505562 0.943801 0.614237
0.704204 0.957046 0.398749
0.952499 0.952499 0.167712
0 0 0.713497
0.149645 0 0.705913
0.362066 0 0.818662
0.643336 0 0.790387
0.836347 0 0.7337
0 0.192569 0.704875
0 0.197009 0.832883
0.368063 0.155978 0.913314
0.715572 0.145678 0.864729
0.931304 0.178637 0.802899
0 0.486824 0.61033
0 0.495003 0.749462
0.339879 0.470069 0.87483
0.725887 0.445686 0.880507
0.94995 0.479026 0.780255
0 0.772213 0.571237
0.0634318 0.782971 0.695018
0.365072 0.766354 0.796841
0.746273 0.734585 0.735897
0.927916 0.745724 0.747021
0 0.998978 0.629175
0.178927 0.99234 0.727092
0.459037 0.956909 0.798276
0.747494 0.92253 0.771572
0.930419 0.930419 0.599893
0 0 0.891615
0.126757 0 0.902388
0.278187 0 1
0.60296 0 1
0.821363 0 1
0 0.240772 0.906065
0 0.224308 1
0.295369 0.1841 1
0.665995 0.159472 1
0.915969 0.181231 1
0 0.524773 0.8159
0 0.528771 0.961685
0.267857 0.500771 1
0.65211 0.467994 1
0.927123 0.478935 1
0 0.814771 0.759487
0 0.823056 0.889738
0.270665 0.800412 1
0.599954 0.763256 1
0.890013 0.740536 1
0 1 0.775784
0.0644388 1 0.873854
0.362814 0.987182 0.951141
0.750942 0.921874 0.922072
0.916716 0.916716 0.916716
