filters/Orange & Teal.cube
TITLE "Generated by Resolve"
LUT_3D_SIZE 33
0 0 0
0.0206912 0 0
0.0408179 0 0
0.0604257 0 0
0.0802014 0 0
0.10071 0 0
0.122499 0 0
0.146044 0 0
0.171603 0 0
0.199268 0 0
0.228962 0 0
0.260502 0 0
0.293324 0 0
0.326863 0 0
0.360601 0 0
0.394324 0 0
0.427588 0 0
0.46099 0 0
0.494591 0 0
0.528023 0 0
0.560967 0 0
0.593072 0 0
0.624002 0 0
0.653544 0 0
0.681392 0 0
0.707515 0 0
0.732006 0 0
0.755001 0 0
0.776608 0 0
0.797055 0 0
0.816648 0 0
0.835706 0 0
0.854124 0 0
0.000732433 0.0171511 0.000732433
0.0261387 0.0167391 0
0.0489052 0.0144656 0
0.0660563 0.0143435 0
0.0844892 0.0140993 0
0.104219 0.01355 0
0.125505 0.0125887 0
0.148699 0.0111238 0
0.174014 0.00909438 0
0.201511 0.00650034 0
0.231098 0.00335698 0
0.262562 0 0
0.295369 0 0
0.328923 0 0
0.362707 0 0
0.396506 0 0
0.429862 0 0
0.463416 0 0
0.497169 0 0
0.530785 0 0
0.563912 0 0
0.596231 0 0
0.62742 0 0
0.657221 0 0
0.685374 0 0
0.711803 0 0
0.736629 0 0
0.75996 0 0
0.781949 0 0
0.802792 0 0
0.822797 0 0
0.842268 0 0
0.861082 0 0
0.00137331 0.0349432 0.00137331
0.0166781 0.0378882 0
0.0496529 0.0347143 0
0.0774853 0.0310369 0
0.0959945 0.0298619 0
0.113695 0.0293889 0
0.133318 0.0286717 0
0.155306 0.027451 0
0.179782 0.0256657 0
0.206653 0.0232853 0
0.235798 0.0203708 0
0.266972 0.016968 0
0.299565 0.0132448 0
0.332982 0.00936904 0
0.366705 0.00549325 0
0.400488 0.00169375 0
0.433906 0 0
0.467536 0 0
0.501411 0 0
0.53518 0 0
0.568521 0 0
0.601053 0 0
0.632471 0 0
0.662547 0 0
0.691005 0 0
0.717784 0 0
0.742962 0 0
0.766674 0 0
0.789044 0 0
0.810254 0 0
0.83064 0 0
0.850507 0 0
0.869734 0 0
0.00172427 0.0526436 0.00172427
0.0170138 0.0546883 0
0.037705 0.0570687 0
0.0720989 0.0529335 0
0.102831 0.0487068 0
0.126314 0.0460975 0
0.146288 0.0447089 0
0.16701 0.0435035 0
0.190158 0.0419318 0
0.21593 0.0398566 0
0.244236 0.0372625 0
0.274754 0.0341802 0
0.306889 0.0307774 0
0.340002 0.0272374 0
0.37351 0.0236973 0
0.407172 0.0202487 0
0.440543 0.0169985 0
0.474189 0.0137942 0
0.508141 0.0106355 0
0.542031 0.00764477 0
0.57554 0.00489815 0
0.608301 0.00251774 0
0.639994 0.000579843 0
0.670359 0 0
0.699107 0 0
0.726192 0 0
0.751705 0 0
0.775738 0 0
0.798459 0.000869764 0
0.82002 0.00280766 0
0.840787 0.00512703 0
0.861006 0.00773632 0
0.880598 0.0107118 0
0.00161746 0.0705882 0.00161746
0.0183719 0.0718242 0
0.0307927 0.0767834 0
0.0594186 0.076112 0
0.0944381 0.071809 0
0.12752 0.0672618 0
0.155901 0.0636149 0
0.180377 0.0610361 0
0.204028 0.0590066 0
0.229053 0.0569772 0
0.256474 0.054612 0
0.286137 0.0518654 0
0.317586 0.0488594 0
0.350149 0.0457313 0
0.383276 0.0426032 0
0.416678 0.0395819 0
0.449882 0.0367742 0
0.483452 0.0340124 0
0.517418 0.0313268 0
0.551385 0.028809 0
0.585 0.0265354 0
0.617929 0.0246281 0
0.649821 0.0231632 0
0.6804 0.0222019 0
0.709392 0.0218509 0
0.736751 0.0220951 0
0.762539 0.0229496 0
0.786877 0.0243381 0
0.809903 0.0262608 0
0.831785 0.0286564 0
0.852888 0.0314336 0
0.873442 0.0345159 0
0.89337 0.0379187 0
0.000869764 0.0891585 0.000869764
0.0187076 0.090013 0
0.0297398 0.0948043 0
0.0487221 0.0983291 0
0.0811933 0.0961776 0
0.117418 0.091783 0
0.153017 0.0869917 0
0.185794 0.0825971 0
0.215412 0.0789807 0
0.243244 0.076051 0
0.271046 0.0734569 0
0.30045 0.0708171 0
0.331426 0.0680858 0
0.363439 0.0653391 0
0.396078 0.0626841 0
0.429099 0.0601358 0
0.462013 0.0578164 0
0.495399 0.0555734 0
0.529244 0.0533913 0
0.56318 0.0513771 0
0.596811 0.0496071 0
0.629801 0.048188 0
0.661784 0.0472114 0
0.692515 0.0467536 0
0.721706 0.046891 0
0.749264 0.0476234 0
0.77528 0.0489509 0
0.799863 0.0508125 0
0.823133 0.0532082 0
0.845289 0.0560616 0
0.866651 0.0592813 0
0.88748 0.0628061 0
0.907683 0.0666514 0
0 0.108751 0
0.0179751 0.109468 0
0.0300145 0.113588 0
0.0427863 0.11928 0
0.0684977 0.120668 0
0.103548 0.117845 0
0.14168 0.113359 0
0.180133 0.108339 0
0.217014 0.10341 0
0.251377 0.0990463 0
0.28365 0.0953841 0
0.315312 0.0922103 0
0.34699 0.0894026 0
0.379034 0.0868544 0
0.411505 0.0845045 0
0.444205 0.0823682 0
0.476783 0.0805219 0
0.509865 0.0787671 0
0.543481 0.0770886 0
0.577249 0.0755627 0
0.610788 0.0743114 0
0.643748 0.0733959 0
0.675746 0.0729381 0
0.706538 0.0729686 0
0.735805 0.0735943 0
0.763485 0.074815 0
0.789654 0.0766155 0
0.814404 0.0789502 0
0.837858 0.0817884 0
0.860197 0.0850843 0
0.881727 0.0887312 0
0.902724 0.0926375 0
0.923079 0.096849 0
0 0.129763 0
0.0160525 0.13051 0
0.0294804 0.134142 0
0.0403754 0.140215 0
0.0588083 0.144854 0
0.0894331 0.144839 0
0.127108 0.141649 0
0.167712 0.137026 0
0.20914 0.131823 0
0.249683 0.126589 0
0.288609 0.121782 0
0.325612 0.117556 0
0.360754 0.114046 0
0.394736 0.111147 0
0.42797 0.108797 0
0.460853 0.106859 0
0.493324 0.105333 0
0.526375 0.103944 0
0.559777 0.102708 0
0.593332 0.101671 0
0.626688 0.100893 0
0.65951 0.100481 0
0.691432 0.100496 0
0.722179 0.101015 0
0.751446 0.102113 0
0.779156 0.103807 0
0.805356 0.10605 0
0.830152 0.108812 0
0.853651 0.112047 0
0.87602 0.115694 0
0.897597 0.119677 0
0.918608 0.123903 0
0.938994 0.128374 0
0 0.152483 0
0.0130007 0.153399 0
0.0277256 0.156802 0
0.0390173 0.162646 0
0.0529183 0.169085 0
0.0774548 0.172229 0
0.112169 0.171298 0
0.152636 0.167865 0
0.195926 0.16318 0
0.240299 0.1579 0
0.284566 0.15256 0
0.327459 0.147478 0
0.368215 0.143008 0
0.406409 0.13933 0
0.442527 0.136461 0
0.47718 0.134295 0
0.510597 0.132769 0
0.543862 0.131579 0
0.577295 0.130648 0
0.610925 0.129931 0
0.644175 0.129549 0
0.676844 0.129564 0
0.708614 0.130022 0
0.739223 0.130968 0
0.768353 0.132464 0
0.795941 0.134524 0
0.822034 0.137133 0
0.846738 0.140215 0
0.87013 0.143755 0
0.892393 0.147707 0
0.913878 0.151934 0
0.934783 0.156374 0
0.955047 0.161074 0
0 0.177203 0
0.0090486 0.178378 0
0.0251011 0.181689 0
0.0376593 0.187198 0
0.0500038 0.194186 0
0.068986 0.199924 0
0.0988327 0.201831 0
0.137148 0.200336 0
0.180453 0.196735 0
0.22649 0.192081 0
0.273899 0.186877 0
0.321294 0.181491 0
0.367224 0.176379 0
0.410773 0.171908 0
0.451591 0.168276 0
0.489815 0.165484 0
0.525765 0.163561 0
0.560662 0.162188 0
0.595071 0.161227 0
0.629007 0.160678 0
0.662379 0.16051 0
0.694987 0.160784 0
0.726833 0.161471 0
0.757275 0.162692 0
0.786206 0.164477 0
0.813565 0.166812 0
0.839429 0.169665 0
0.863905 0.172992 0
0.887068 0.176745 0
0.909102 0.18088 0
0.930327 0.185275 0
0.950988 0.189868 0
0.971008 0.194675 0
0 0.203998 0
0.00488289 0.205371 0
0.0222324 0.208682 0
0.0361028 0.213977 0
0.0484932 0.220996 0
0.0639353 0.228244 0
0.0883192 0.232959 0
0.122759 0.233997 0
0.164492 0.232136 0
0.210636 0.228534 0
0.259449 0.223926 0
0.309499 0.218738 0
0.359243 0.213489 0
0.407355 0.208576 0
0.452979 0.204318 0
0.495979 0.200809 0
0.535882 0.198199 0
0.573846 0.196277 0
0.610452 0.194934 0
0.645869 0.194125 0
0.68014 0.193835 0
0.713237 0.19408 0
0.745052 0.194858 0
0.775418 0.196185 0
0.804166 0.198093 0
0.831525 0.200504 0
0.85713 0.203479 0
0.8813 0.206928 0
0.904143 0.210788 0
0.925856 0.215 0
0.946746 0.219486 0
0.967041 0.224125 0
0.986694 0.228962 0
0 0.232654 0
0.000915541 0.234302 0
0.0192569 0.237751 0
0.034287 0.243 0
0.0473182 0.249958 0
0.0611734 0.257923 0
0.0810101 0.264805 0
0.110643 0.268559 0
0.14931 0.268925 0
0.194339 0.266789 0
0.243351 0.263081 0
0.294636 0.258473 0
0.346639 0.253483 0
0.39794 0.248524 0
0.447425 0.243915 0
0.494621 0.239857 0
0.538888 0.236561 0
0.580972 0.23389 0
0.620905 0.231861 0
0.658915 0.230488 0
0.695079 0.22974 0
0.729488 0.229633 0
0.762112 0.230182 0
0.79295 0.231342 0
0.821881 0.233143 0
0.848997 0.235538 0
0.874388 0.238483 0
0.898253 0.241901 0
0.921035 0.245686 0
0.942367 0.249882 0
0.96286 0.254337 0
0.982803 0.258961 0
1 0.263813 0
0 0.263081 0
0 0.265095 0
0.0165408 0.268803 0
0.0324559 0.274159 0
0.0462043 0.281147 0
0.059678 0.289387 0
0.076585 0.297642 0
0.101579 0.303777 0
0.13637 0.306508 0
0.179095 0.306188 0
0.227237 0.303731 0
0.278691 0.299901 0
0.331701 0.295399 0
0.384833 0.290639 0
0.436927 0.285985 0
0.487373 0.281621 0
0.535348 0.277806 0
0.581201 0.274479 0
0.624949 0.271702 0
0.666438 0.269551 0
0.705394 0.268101 0
0.741985 0.267384 0
0.776242 0.267399 0
0.80824 0.268132 0
0.837903 0.269566 0
0.865431 0.271672 0
0.891035 0.274357 0
0.914931 0.277592 0
0.937316 0.2813 0
0.958419 0.285405 0
0.978576 0.289769 0
0.998428 0.29427 0
1 0.299016 0
0 0.295201 0
0 0.297673 0
0.0141909 0.301747 0
0.0307317 0.307362 0
0.0451362 0.314458 0
0.0589914 0.322759 0
0.0745708 0.331624 0
0.0961166 0.339376 0
0.126619 0.344335 0
0.166033 0.346059 0
0.212268 0.345083 0
0.262989 0.342275 0
0.316091 0.338384 0
0.370016 0.334005 0
0.423575 0.329488 0
0.476143 0.325048 0
0.526802 0.320928 0
0.575799 0.317128 0
0.622919 0.313695 0
0.667704 0.310811 0
0.710048 0.308568 0
0.749416 0.307073 0
0.785992 0.306355 0
0.819837 0.306416 0
0.850965 0.307301 0
0.879683 0.308919 0
0.905913 0.311238 0
0.930297 0.314137 0
0.952941 0.317525 0
0.974105 0.321355 0
0.994202 0.325475 0
1 0.329809 0
1 0.334447 0
0 0.328954 0
0 0.331975 0
0.0122225 0.336507 0
0.0293889 0.342321 0
0.0447242 0.349401 0
0.0591592 0.357641 0
0.0745098 0.366613 0
0.0937362 0.375296 0
0.120363 0.38204 0
0.155947 0.385718 0
0.19939 0.386435 0
0.248508 0.384833 0
0.300954 0.381735 0
0.354894 0.377829 0
0.409033 0.373571 0
0.46276 0.369207 0
0.515145 0.364965 0
0.566354 0.360845 0
0.616068 0.356939 0
0.663722 0.353429 0
0.708904 0.350484 0
0.751278 0.348241 0
0.790768 0.346761 0
0.827024 0.346105 0
0.860166 0.346303 0
0.89041 0.347295 0
0.918029 0.349004 0
0.943374 0.35137 0
0.966735 0.354314 0
0.988495 0.357824 0
1 0.361746 0
1 0.365972 0
1 0.37052 0
0 0.36434 0
0 0.367773 0
0.0111849 0.372519 0
0.0290684 0.378424 0
0.0451972 0.385443 0
0.0603494 0.393515 0
0.0758679 0.40238 0
0.0937819 0.411475 0
0.117403 0.419379 0
0.14905 0.424857 0
0.18912 0.427237 0
0.235843 0.426993 0
0.286885 0.424857 0
0.3402 0.421561 0
0.394278 0.417639 0
0.448402 0.413428 0
0.501701 0.409186 0
0.554299 0.404913 0
0.605875 0.400717 0
0.655772 0.396796 0
0.703441 0.393317 0
0.748425 0.390433 0
0.790402 0.388251 0
0.829206 0.386831 0
0.864866 0.386252 0
0.897215 0.386572 0
0.926726 0.387732 0
0.953735 0.389639 0
0.978531 0.392233 0
1 0.395392 0
1 0.399008 0
1 0.402991 0
1 0.407324 0
0 0.400778 0
0 0.40444 0
0.0113069 0.409323 0
0.0297398 0.415259 0
0.0465553 0.422171 0
0.0623636 0.43006 0
0.0781262 0.438743 0
0.0955367 0.447807 0
0.117021 0.456367 0
0.145251 0.463127 0
0.181598 0.467124 0
0.225284 0.46833 0
0.274235 0.467262 0
0.326299 0.464729 0
0.379767 0.461295 0
0.433829 0.457359 0
0.487449 0.453254 0
0.540795 0.448981 0
0.593545 0.444617 0
0.644968 0.440406 0
0.694469 0.436484 0
0.741573 0.433082 0
0.785901 0.430381 0
0.827192 0.428443 0
0.865232 0.42739 0
0.900069 0.427207 0
0.932021 0.427832 0
0.961074 0.429236 0
0.987655 0.431342 0
1 0.434058 0
1 0.437247 0
1 0.440833 0
1 0.444785 0
0 0.438087 0
0 0.441901 0
0.0117494 0.446845 0
0.0306401 0.45275 0
0.0479896 0.459541 0
0.0643473 0.46717 0
0.0805066 0.475547 0
0.0977646 0.484398 0
0.117845 0.493172 0
0.143328 0.500755 0
0.176059 0.506142 0
0.216434 0.508751 0
0.26276 0.508949 0
0.313024 0.507332 0
0.365423 0.50454 0
0.418906 0.500984 0
0.472358 0.497063 0
0.525902 0.492805 0
0.579263 0.488426 0
0.631724 0.484138 0
0.682689 0.480125 0
0.731579 0.476555 0
0.777905 0.473594 0
0.821363 0.471321 0
0.861662 0.469856 0
0.898756 0.4692 0
0.932799 0.469337 0
0.964019 0.470207 0
0.992798 0.471748 0
1 0.47393 0
1 0.4766 0
1 0.479652 0
1 0.483131 0
0 0.475975 0
0 0.479866 0
0.012253 0.48481 0
0.0314641 0.490639 0
0.0492103 0.49723 0
0.0660105 0.50457 0
0.0825666 0.512612 0
0.0999313 0.521111 0
0.119219 0.52987 0
0.142702 0.537926 0
0.172412 0.54432 0
0.209308 0.548257 0
0.252628 0.549691 0
0.300587 0.549081 0
0.351354 0.547005 0
0.403876 0.544015 0
0.456931 0.54052 0
0.510506 0.536614 0
0.564202 0.532479 0
0.61735 0.528328 0
0.669291 0.524346 0
0.719417 0.520699 0
0.767239 0.517571 0
0.81239 0.515038 0
0.854505 0.513222 0
0.893538 0.512169 0
0.929564 0.511833 0
0.962783 0.512215 0
0.993378 0.513222 0
1 0.514824 0
1 0.516899 0
1 0.519387 0
1 0.522286 0
0 0.514061 0
0 0.517937 0
0.0128786 0.52282 0
0.0323186 0.528511 0
0.0503853 0.53492 0
0.0675975 0.542 0
0.0845502 0.549706 0
0.101976 0.557916 0
0.12105 0.566354 0
0.14313 0.574548 0
0.170336 0.581552 0
0.204044 0.586587 0
0.244297 0.589273 0
0.289723 0.589899 0
0.338704 0.588891 0
0.390005 0.58674 0
0.442344 0.583856 0
0.495598 0.580392 0
0.549294 0.576532 0
0.602686 0.572564 0
0.655146 0.568658 0
0.70605 0.564996 0
0.754879 0.561761 0
0.801236 0.559045 0
0.844755 0.55697 0
0.885313 0.555566 0
0.922988 0.554833 0
0.957931 0.554742 0
0.990265 0.555245 0
1 0.556298 0
1 0.557809 0
1 0.55967 0
1 0.561929 0
0 0.551965 0
0 0.555825 0
0.0138399 0.560632 0
0.033463 0.566186 0
0.0517891 0.572396 0
0.0693065 0.579187 0
0.0865492 0.586526 0
0.104173 0.594339 0
0.123201 0.602441 0
0.144488 0.610666 0
0.169986 0.618173 0
0.201205 0.624186 0
0.238483 0.628199 0
0.2813 0.630045 0
0.32813 0.630152 0
0.377829 0.628885 0
0.429053 0.626703 0
0.481636 0.623743 0
0.534997 0.620218 0
0.588327 0.616449 0
0.64094 0.61265 0
0.692226 0.609018 0
0.74165 0.605722 0
0.7888 0.602869 0
0.833295 0.600565 0
0.874998 0.598886 0
0.913939 0.597803 0
0.95024 0.597299 0
0.984039 0.59733 0
1 0.597864 0
1 0.59881 0
1 0.600061 0
1 0.601724 0
0 0.589517 0
0 0.593301 0
0.0153353 0.597986 0
0.03505 0.603342 0
0.0535439 0.609323 0
0.0713664 0.615885 0
0.0890059 0.623011 0
0.107057 0.630625 0
0.126207 0.638605 0
0.147326 0.646738 0
0.171664 0.654536 0
0.200839 0.661219 0
0.235492 0.666239 0
0.275563 0.669261 0
0.319982 0.670466 0
0.367742 0.67013 0
0.417517 0.668696 0
0.469093 0.66627 0
0.521798 0.663142 0
0.574777 0.659617 0
0.627253 0.65594 0
0.678599 0.652354 0
0.728283 0.649012 0
0.77586 0.646036 0
0.820966 0.643565 0
0.863416 0.641642 0
0.903258 0.640238 0
0.940597 0.639353 0
0.975525 0.638972 0
1 0.639017 0
1 0.639414 0
1 0.640101 0
1 0.641123 0
0 0.626368 0
0 0.63006 0
0.0176394 0.634684 0
0.0375677 0.640024 0
0.0563973 0.645975 0
0.0746166 0.652476 0
0.0926986 0.659449 0
0.111162 0.666865 0
0.130541 0.674647 0
0.151614 0.682582 0
0.175174 0.690471 0
0.202747 0.697566 0
0.235142 0.703319 0
0.272511 0.707362 0
0.314473 0.70956 0
0.360037 0.710155 0
0.408072 0.709468 0
0.45832 0.707637 0
0.510094 0.704936 0
0.562448 0.701671 0
0.614542 0.698161 0
0.66569 0.694606 0
0.715328 0.691234 0
0.763058 0.688167 0
0.808438 0.685542 0
0.851331 0.683375 0
0.891722 0.681697 0
0.929747 0.680461 0
0.965484 0.679667 0
0.999115 0.679271 0
1 0.679164 0
1 0.679301 0
1 0.679744 0
0 0.662684 0
0 0.666468 0
0.0215305 0.671138 0
0.0416724 0.676478 0
0.0607767 0.682383 0
0.0793164 0.688777 0
0.0977493 0.695583 0
0.116564 0.70277 0
0.136202 0.710307 0
0.157336 0.717998 0
0.180377 0.72578 0
0.20676 0.733059 0
0.237247 0.7393 0
0.272236 0.744106 0
0.311559 0.747265 0
0.354879 0.748684 0
0.400931 0.74876 0
0.449607 0.747539 0
0.50016 0.745281 0
0.551598 0.742336 0
0.603067 0.738979 0
0.653803 0.7355 0
0.703182 0.732082 0
0.75079 0.728908 0
0.796185 0.726116 0
0.839246 0.723735 0
0.879927 0.721782 0
0.918349 0.720241 0
0.954604 0.719081 0
0.988861 0.718257 0
1 0.717693 0
1 0.717296 0
1 0.717189 0
0 0.698665 0
0.00521859 0.70248 0
0.0271458 0.707149 0
0.0474556 0.712459 0
0.0667582 0.718288 0
0.0855421 0.724529 0
0.10425 0.731151 0
0.123339 0.738094 0
0.143206 0.745327 0
0.164248 0.752804 0
0.187182 0.760281 0
0.21265 0.767559 0
0.241581 0.774075 0
0.274479 0.7794 0
0.311406 0.783276 0
0.352316 0.785504 0
0.396201 0.786313 0
0.443046 0.785702 0
0.492149 0.783902 0
0.542458 0.781262 0
0.593057 0.778103 0
0.643168 0.774685 0
0.692103 0.771252 0
0.739406 0.767971 0
0.784604 0.765011 0
0.827588 0.762417 0
0.868315 0.76022 0
0.906905 0.758358 0
0.943435 0.756848 0
0.978058 0.755627 0
1 0.754604 0
1 0.753735 0
1 0.753109 0
0 0.734112 0
0.0124208 0.737911 0
0.0344244 0.74255 0
0.0548104 0.747768 0
0.0742351 0.753475 0
0.0932021 0.759548 0
0.112123 0.765942 0
0.131426 0.77261 0
0.151476 0.779522 0
0.17258 0.786648 0
0.195361 0.79382 0
0.220157 0.800946 0
0.247822 0.807523 0
0.278904 0.813184 0
0.313634 0.817594 0
0.352056 0.820554 0
0.393774 0.821958 0
0.438636 0.821927 0
0.486076 0.820584 0
0.535027 0.81828 0
0.584573 0.815305 0
0.633844 0.811978 0
0.682155 0.808545 0
0.728969 0.805188 0
0.773816 0.80206 0
0.816541 0.799252 0
0.857114 0.79678 0
0.895659 0.794614 0
0.932235 0.792767 0
0.967041 0.791165 0
1 0.789746 0
1 0.788434 0
1 0.787335 0
0 0.768887 0
0.021088 0.772625 0
0.0431067 0.777173 0
0.0635386 0.782269 0
0.0830396 0.787808 0
0.102098 0.793667 0
0.121141 0.799802 0
0.140612 0.806165 0
0.160784 0.812726 0
0.181949 0.819471 0
0.204639 0.826246 0
0.228901 0.833112 0
0.255543 0.839597 0
0.285069 0.845396 0
0.317815 0.850141 0
0.353979 0.853605 0
0.393408 0.855619 0
0.436164 0.856123 0
0.481758 0.855238 0
0.529183 0.853254 0
0.577478 0.850507 0
0.625742 0.847272 0
0.673228 0.843839 0
0.719402 0.840391 0
0.76376 0.83711 0
0.806073 0.834089 0
0.846342 0.831357 0
0.884688 0.828931 0
0.921202 0.826764 0
0.955993 0.824842 0
0.989441 0.823056 0
1 0.821363 0
1 0.819867 0
0.00656138 0.802869 0.00364691
0.03093 0.806516 0.00650034
0.0529335 0.810895 0.00849927
0.0733349 0.815839 0.0091249
0.0928206 0.821164 0.00798047
0.111925 0.82678 0.00444038
0.131044 0.832624 0
0.150576 0.838636 0
0.17084 0.844816 0
