filters/Orange & Teal.cube
TITLE "Generated by Resolve"
LUT_3D_SIZE 9
0 0 0
0.0802014 0 0
0.171603 0 0
0.293324 0 0
0.427588 0 0
0.560967 0 0
0.681392 0 0
0.776608 0 0
0.854124 0 0
0.00161746 0.0705882 0.00161746
0.0944381 0.071809 0
0.204028 0.0590066 0
0.317586 0.0488594 0
0.449882 0.0367742 0
0.585 0.0265354 0
0.709392 0.0218509 0
0.809903 0.0262608 0
0.89337 0.0379187 0
0 0.152483 0
0.0529183 0.169085 0
0.195926 0.16318 0
0.368215 0.143008 0
0.510597 0.132769 0
0.644175 0.129549 0
0.768353 0.132464 0
0.87013 0.143755 0
0.955047 0.161074 0
0 0.263081 0
0.0462043 0.281147 0
0.13637 0.306508 0
0.331701 0.295399 0
0.535348 0.277806 0
0.705394 0.268101 0
0.837903 0.269566 0
0.937316 0.2813 0
1 0.299016 0
0 0.400778 0
0.0465553 0.422171 0
0.117021 0.456367 0
0.274235 0.467262 0
0.487449 0.453254 0
0.694469 0.436484 0
0.865232 0.42739 0
0.987655 0.431342 0
1 0.444785 0
0 0.551965 0
0.0517891 0.572396 0
0.123201 0.602441 0
0.238483 0.628199 0
0.429053 0.626703 0
0.64094 0.61265 0
0.833295 0.600565 0
0.984039 0.59733 0
1 0.601724 0
0 0.698665 0
0.0667582 0.718288 0
0.143206 0.745327 0
0.241581 0.774075 0
0.396201 0.786313 0
0.593057 0.778103 0
0.784604 0.765011 0
0.943435 0.756848 0
1 0.753109 0
0.0174411 0.83595 0.0144045
0.103365 0.853437 0.018555
0.181384 0.875654 0
0.273762 0.899382 0
0.39733 0.916899 0
0.566598 0.914565 0
0.745357 0.901274 0
0.899702 0.889296 0
1 0.880018 0
0.062623 0.957763 0.0592508
0.145281 0.970352 0.0605325
0.221515 0.985763 0.0297398
0.310567 1 0
0.414084 1 0
0.552972 1 0
0.712291 1 0
0.857176 0.996155 0
0.985397 0.985061 0
0 0 0.0699626
0.0803388 0 0.0679026
0.171664 0 0.0625467
0.293431 0 0.0489815
0.427848 0 0.0324712
0.561532 0 0.0171054
0.682368 0 0.00660716
0.778134 0 0.00477607
0.856306 0 0.0100252
0.00177005 0.0707256 0.0722057
0.082826 0.0689097 0.0703899
0.175631 0.0650339 0.0665141
0.30013 0.0542 0.0556802
0.438514 0.0416571 0.0431373
0.577356 0.0314488 0.032929
0.70428 0.027039 0.0285191
0.806714 0.0318761 0.0333562
0.891752 0.044007 0.0454871
0 0.153857 0.064744
0.0791943 0.156085 0.0728313
0.191058 0.158892 0.0233005
0.339132 0.14786 0.0326238
0.474113 0.143404 0.0440986
0.614206 0.141115 0.0469062
0.74461 0.143938 0.0517128
0.850889 0.154986 0.0637369
0.939147 0.171969 0.0812848
0 0.265324 0.0543374
0.0687419 0.273396 0.0897688
0.144442 0.298604 0.0192569
0.329702 0.293873 0
0.525521 0.279591 0
0.676783 0.276081 0
0.801968 0.281209 0.0174258
0.902296 0.294072 0.0442206
0.985077 0.311864 0.0699474
0 0.404242 0.0574502
0.0648508 0.419074 0.0860304
0.147601 0.442878 0.0563363
0.274968 0.464057 0
0.485924 0.452171 0
0.690349 0.436637 0
0.850553 0.430823 0
0.960922 0.438666 0
1 0.455024 0
0 0.55552 0.0627604
0.0666819 0.570916 0.0877241
0.154986 0.590829 0.0737011
0.254917 0.618341 0
0.428107 0.624445 0
0.639445 0.611582 0
0.831113 0.600137 0
0.976837 0.598169 0
1 0.604608 0
0 0.702159 0.0774548
0.0796979 0.717876 0.100465
0.171969 0.736324 0.0941329
0.270497 0.760189 0.00895705
0.402045 0.779889 0
0.590616 0.775265 0
0.78175 0.762585 0
0.940154 0.754452 0
1 0.751003 0
0.023209 0.839002 0.114778
0.114214 0.852934 0.134646
0.206073 0.867552 0.12961
0.305058 0.884382 0.0629435
0.413031 0.904356 0
0.565759 0.90808 0
0.740429 0.896345 0
0.894484 0.884504 0
1 0.875196 0
0.0667582 0.959396 0.158923
0.153613 0.968612 0.173465
0.241962 0.977264 0.166033
0.339635 0.986007 0.108232
0.437049 0.999863 0
0.557549 1 0
0.707576 1 0
0.850629 0.990311 0
0.980331 0.98027 0
0 0 0.159991
0.0789197 0 0.157763
0.170214 0 0.152377
0.292073 0 0.138888
0.426459 0 0.123735
0.560678 0 0.107713
0.682017 0 0.0975357
0.778378 0 0.0962844
0.857221 0 0.10222
0.00047303 0.0694285 0.162188
0.0817884 0.0678721 0.160632
0.174838 0.0643473 0.157931
0.299474 0.0538643 0.150088
0.438987 0.0421302 0.13489
0.578515 0.0326238 0.125368
0.706142 0.0289006 0.12166
0.809277 0.0344549 0.127199
0.894987 0.0472419 0.139986
0 0.154055 0.155703
0.0656138 0.161578 0.159731
0.179538 0.159533 0.1617
0.311086 0.155734 0.1579
0.456947 0.150683 0.152834
0.603296 0.147982 0.150134
0.737285 0.150637 0.152789
0.845823 0.161578 0.163745
0.935592 0.178424 0.180591
0 0.277974 0.0976883
0.0637675 0.282292 0.150027
0.172503 0.285603 0.207462
0.325795 0.290623 0.136095
0.498207 0.285283 0.124392
0.637629 0.287312 0.143389
0.767437 0.292988 0.155215
0.873213 0.305364 0.170092
0.960388 0.322393 0.188418
0 0.414206 0.110353
0.0708476 0.423819 0.173724
0.174166 0.433921 0.219837
0.281132 0.45568 0.139376
0.482475 0.449195 0.0581826
0.680186 0.436683 0.0432898
0.82182 0.436576 0.0757763
0.921889 0.448463 0.114397
1 0.466423 0.149081
0 0.561791 0.137087
0.0737469 0.573648 0.190127
0.175189 0.585046 0.223407
0.284398 0.60235 0.180301
0.426917 0.61941 0.0425269
0.636057 0.608637 0
0.826062 0.598398 0
0.962539 0.59881 0
1 0.608545 0.0364996
0 0.706477 0.165835
0.0866255 0.72015 0.210346
0.188266 0.73225 0.237354
0.302983 0.745052 0.210803
0.414908 0.767803 0.0821851
0.586542 0.770001 0
0.776867 0.758129 0
0.934691 0.750332 0
1 0.747707 0
0.0306859 0.841764 0.211612
0.119799 0.854124 0.247776
0.218784 0.863432 0.268147
0.333745 0.870329 0.245914
0.437949 0.886229 0.143664
0.566567 0.897826 0
0.733562 0.889128 0
0.887251 0.877714 0
1 0.868589 0
0.0727092 0.960067 0.260197
0.157015 0.967941 0.287556
0.251133 0.972061 0.300542
0.363424 0.972198 0.277531
0.46569 0.979446 0.193393
0.568002 0.991882 0.0387121
0.702617 0.990967 0
0.843397 0.983444 0
0.974075 0.97409 0
0 0 0.289143
0.0744488 0 0.286809
0.165743 0 0.281407
0.287724 0 0.268055
0.420493 0 0.263905
0.554147 0 0.251759
0.677745 0 0.232731
0.775555 0 0.228183
0.855329 0 0.233845
0 0.065156 0.291432
0.0778058 0.0639048 0.290166
0.166583 0.0612192 0.297536
0.286442 0.0480201 0.338231
0.433158 0.0385443 0.288808
0.576013 0.0307317 0.26215
0.705165 0.0279545 0.254444
0.809033 0.0341955 0.260471
0.895384 0.0476387 0.273915
0 0.15462 0.282109
0.0241093 0.170748 0.295552
0.115267 0.16994 0.362066
0.296956 0.152071 0.359792
0.456291 0.150362 0.291295
0.603891 0.148577 0.28426
0.738308 0.151659 0.287343
0.84712 0.162875 0.298558
0.936996 0.179828 0.315511
0 0.297337 0.200153
0.00909438 0.301335 0.259113
0.12372 0.303258 0.320272
0.314946 0.292866 0.295277
0.46598 0.292973 0.295399
0.615869 0.293812 0.296223
0.751766 0.298375 0.300801
0.860929 0.309941 0.312367
0.950347 0.326436 0.328862
0 0.432944 0.187686
0.0403754 0.440742 0.248692
0.15671 0.445747 0.307012
0.30193 0.443076 0.355657
0.475273 0.442618 0.294896
0.650141 0.439185 0.258701
0.776135 0.444938 0.280583
0.879271 0.457816 0.300221
0.96527 0.475425 0.320745
0 0.575998 0.205447
0.0636454 0.58381 0.269474
0.175219 0.589487 0.33164
0.312154 0.58938 0.380224
0.43006 0.607233 0.306523
0.629084 0.602121 0.217578
0.81384 0.59472 0.185183
0.931517 0.59997 0.213245
1 0.613764 0.254429
0 0.715984 0.246006
0.0862287 0.725505 0.310506
0.192233 0.73315 0.366674
0.324071 0.734493 0.39971
0.441657 0.746609 0.354894
0.580545 0.760128 0.216648
0.768292 0.749996 0.149203
0.924849 0.74313 0.118898
1 0.742473 0.132052
0.0293431 0.847074 0.307561
0.122148 0.855741 0.364065
0.222065 0.861799 0.407706
0.348943 0.860151 0.427588
0.467948 0.863996 0.39324
0.573114 0.879881 0.257633
0.723445 0.877745 0.1458
0.876326 0.867231 0.0889601
1 0.85864 0.059266
0.0730755 0.961395 0.368627
0.158923 0.966247 0.413642
0.252262 0.968002 0.444633
0.3738 0.96144 0.453834
0.491997 0.958007 0.422019
0.588052 0.967239 0.311391
0.698787 0.97615 0.144381
0.833997 0.973724 0.00540169
0.964202 0.964202 0
0 0 0.435538
0.0686046 0 0.433127
0.159945 0 0.427771
0.282094 0 0.414588
0.410285 0 0.437354
0.542763 0 0.438499
0.668803 0 0.4056
0.769024 0 0.390738
0.850904 0 0.389456
0 0.059617 0.438056
0.0726177 0.0587015 0.43714
0.143099 0.0599222 0.466148
0.259312 0.046128 0.531823
0.417533 0.0318914 0.504997
0.567086 0.0257267 0.451896
0.69987 0.0249332 0.423667
0.806455 0.0325322 0.417807
0.894362 0.0468147 0.426581
0 0.160403 0.42446
0 0.182589 0.455024
0.0716259 0.178424 0.524147
0.253803 0.156939 0.565835
0.439658 0.145098 0.528954
0.599084 0.146151 0.466331
0.737087 0.15108 0.445853
0.847074 0.162875 0.451011
0.937057 0.179904 0.467735
0 0.31342 0.34844
0 0.316609 0.413413
0.0730907 0.316869 0.48069
0.239796 0.305196 0.544869
0.446265 0.289616 0.539437
0.615106 0.293431 0.455055
0.751797 0.298405 0.452979
0.860792 0.309819 0.464393
0.950317 0.326406 0.480995
0 0.452064 0.319493
0 0.459724 0.383398
0.0992752 0.464225 0.445869
0.24744 0.459785 0.502495
0.465888 0.445167 0.447456
0.615518 0.445747 0.448035
0.751461 0.45037 0.452659
0.860838 0.462135 0.464424
0.950484 0.478874 0.481163
0 0.594919 0.312261
0.0174868 0.60235 0.3729
0.13373 0.607233 0.431037
0.280522 0.604044 0.481193
0.438254 0.597925 0.526772
0.616464 0.595499 0.470253
0.785321 0.595056 0.412207
0.883497 0.605768 0.43888
0.963485 0.6206 0.461509
0 0.732662 0.333867
0.0582589 0.74049 0.396063
0.172839 0.744961 0.455512
0.316045 0.740642 0.507103
0.466972 0.732998 0.55462
0.581231 0.745022 0.497292
0.758068 0.740215 0.402029
0.91078 0.735882 0.349981
1 0.739498 0.367605
0.00808728 0.859449 0.390524
0.107393 0.865034 0.452674
0.214603 0.866773 0.510887
0.347967 0.859724 0.557641
0.487602 0.849928 0.589807
0.59585 0.854719 0.547463
0.713558 0.863828 0.413275
0.863813 0.855146 0.339376
0.993942 0.847776 0.293309
0.0598154 0.968399 0.458396
0.150805 0.969772 0.5149
0.248844 0.967498 0.564736
0.373175 0.956954 0.598138
0.505562 0.943801 0.614237
0.615045 0.940856 0.578714
0.704204 0.957046 0.398749
0.824628 0.962615 0.220554
0.952499 0.952499 0.167712
0 0 0.582055
0.0627451 0 0.579583
0.154177 0 0.574334
0.273503 0 0.569116
0.392004 0 0.629084
0.527184 0 0.643214
0.657435 0 0.598795
0.759899 0 0.572427
0.843976 0 0.561135
0 0.0541848 0.584924
0.0608225 0.0553445 0.58732
0.10103 0.0634623 0.644419
0.216434 0.049485 0.722957
0.388968 0.0294957 0.720439
0.551949 0.0201724 0.668849
0.690608 0.0204013 0.622934
0.800183 0.0297398 0.600153
0.890608 0.0453498 0.595926
0 0.173144 0.56965
0 0.196185 0.618357
0.0288243 0.187015 0.685908
0.211414 0.165759 0.733761
0.404288 0.147234 0.751415
0.583124 0.141894 0.701503
0.729747 0.147997 0.648524
0.843442 0.161578 0.627344
0.935744 0.179507 0.628305
0 0.327626 0.504677
0 0.330068 0.573526
0.0277409 0.328771 0.64419
0.199222 0.315999 0.708858
0.399847 0.297108 0.755077
0.59472 0.288594 0.71577
0.746731 0.29601 0.643687
0.859495 0.309178 0.624796
0.950271 0.32639 0.633677
0 0.469505 0.469474
0 0.476555 0.53669
0.0449378 0.479942 0.602991
0.198764 0.473152 0.664561
0.379263 0.458076 0.725872
0.5888 0.442222 0.714473
0.75053 0.449882 0.613352
0.860822 0.462135 0.616739
0.950317 0.478706 0.63331
0 0.613825 0.44715
0 0.621149 0.510582
0.0754253 0.625727 0.572534
0.222751 0.621866 0.627756
0.384283 0.613581 0.682383
0.614954 0.597894 0.599802
0.749462 0.601083 0.602975
0.856382 0.610407 0.612299
0.942596 0.623697 0.625589
0 0.752087 0.449424
0.00593576 0.759716 0.510475
0.121324 0.763806 0.568139
0.266239 0.758816 0.616938
0.422248 0.74934 0.661799
0.574609 0.739116 0.706157
0.736934 0.733974 0.649027
0.883421 0.73373 0.567224
0.955749 0.74255 0.591226
0 0.876905 0.486595
0.0666056 0.881498 0.544671
0.177966 0.881743 0.598596
0.317983 0.872145 0.642939
0.468254 0.857633 0.682887
0.613993 0.842283 0.722454
0.713787 0.846342 0.683864
0.851148 0.842908 0.589593
0.978454 0.838453 0.516991
0.0265965 0.98175 0.541314
0.121843 0.981353 0.595117
0.225895 0.97644 0.64625
0.357763 0.962081 0.688457
0.498543 0.943618 0.726253
0.632975 0.926848 0.748623
0.729015 0.933639 0.637308
0.817655 0.950118 0.44155
0.940749 0.940749 0.393149
0 0 0.713497
0.0580758 0 0.71104
0.149645 0 0.705913
0.254093 0 0.728038
0.362066 0 0.818662
0.505074 0 0.836683
0.643336 0 0.790387
0.750072 0 0.754864
0.836347 0 0.7337
0 0.0500191 0.716884
0.0276951 0.0591592 0.731487
0.0429541 0.0729686 0.813275
0.171038 0.0568551 0.884932
0.354925 0.0334325 0.892592
0.527962 0.0190738 0.870939
0.677272 0.0170901 0.825147
0.792218 0.0270237 0.789639
0.88513 0.0439765 0.771664
0 0.192569 0.704875
0 0.208896 0.766766
0 0.197009 0.832883
0.16994 0.17641 0.884062
0.368063 0.155978 0.913314
0.55462 0.143938 0.912886
0.715572 0.145678 0.864729
0.836118 0.159457 0.822812
0.931304 0.178637 0.802899
0 0.341939 0.649271
0 0.343633 0.720882
0 0.341299 0.793225
0.159884 0.328038 0.857862
0.360021 0.308888 0.90866
0.556558 0.293462 0.932738
0.728634 0.292821 0.879866
0.852155 0.306615 0.822705
0.947372 0.325902 0.799832
0 0.486824 0.61033
0 0.492988 0.680156
0 0.495003 0.749462
0.155367 0.486198 0.813382
0.339879 0.470069 0.87483
0.538979 0.451453 0.922866
0.725887 0.445686 0.880507
0.85594 0.460365 0.800351
0.94995 0.479026 0.780255
0 0.632425 0.581155
0 0.639429 0.647425
0.0206455 0.643366 0.712337
0.170718 0.63827 0.771206
0.338033 0.627634 0.830121
0.517739 0.612253 0.891524
0.715801 0.598047 0.875471
0.855253 0.609873 0.758556
0.942214 0.623316 0.761334
0 0.772213 0.571237
0 0.779461 0.634485
0.0634318 0.782971 0.695018
0.208347 0.777111 0.747433
0.365072 0.766354 0.796841
0.521813 0.753384 0.848524
0.746273 0.734585 0.735897
0.847608 0.738338 0.739635
0.927916 0.745724 0.747021
0 0.896574 0.59205
0.011368 0.90074 0.649561
0.122286 0.900404 0.70309
0.261936 0.890166 0.747005
0.412192 0.874952 0.78645
0.559396 0.858442 0.825711
0.691249 0.844038 0.868971
0.823331 0.838209 0.807721
0.95259 0.835599 0.705409
0 0.998978 0.629175
0.0733349 0.998077 0.679606
0.178927 0.99234 0.727092
0.313527 0.976944 0.764981
0.459037 0.956909 0.798276
0.609018 0.93579 0.813046
0.747494 0.92253 0.771572
0.821485 0.933639 0.669337
0.930419 0.930419 0.599893
0 0 0.81387
0.0558633 0 0.81146
0.146578 0 0.807507
0.219196 0 0.873549
0.322026 0 0.979431
0.478019 0 0.99025
0.625254 0 0.953841
0.739071 0 0.916213
0.829572 0 0.887388
0 0.0486305 0.818021
0 0.072221 0.85359
0 0.0881819 0.951263
0.130419 0.0673381 1
0.320058 0.0423285 1
0.499123 0.0247501 1
0.658244 0.0188602 0.996994
0.781903 0.0270848 0.961044
0.879652 0.0442054 0.933059
0 0.216846 0.814618
0 0.221149 0.88249
0 0.209659 0.949035
0.131197 0.189776 1
0.33138 0.16875 1
0.523781 0.153597 1
0.693156 0.149508 1
0.824628 0.159945 1
0.925628 0.178836 0.97055
0 0.357977 0.764675
0 0.359045 0.838148
0 0.356023 0.91136
0.122988 0.342519 0.975845
0.322347 0.323369 1
0.522484 0.305821 1
0.698787 0.297856 1
0.837537 0.306416 1
0.941192 0.325643 0.973709
0 0.50547 0.723354
0 0.510643 0.795331
0 0.511345 0.866575
0.116106 0.501137 0.931456
0.302968 0.48452 0.992782
0.501427 0.465782 1
0.685405 0.453513 1
0.83624 0.45919 1
0.94342 0.478019 0.957198
0 0.652415 0.689555
0 0.6589 0.758068
0 0.661936 0.825559
0.125338 0.655421 0.887144
0.297536 0.642908 0.947982
0.480385 0.626261 1
0.66334 0.609293 1
0.825864 0.606424 1
0.936919 0.62182 0.920211
0 0.793362 0.673808
0 0.800076 0.73904
0.00967422 0.802792 0.801663
0.155764 0.795804 0.856428
0.315114 0.783322 0.908934
0.477195 0.767666 0.963882
0.637812 0.749737 1
0.806287 0.735439 1
0.92639 0.745007 0.861433
0 0.917678 0.683604
0 0.921462 0.742061
0.0649882 0.920287 0.797665
0.204364 0.909072 0.844266
0.354772 0.892714 0.886946
0.503182 0.874723 0.93022
0.642649 0.857145 0.97586
0.843839 0.837842 0.838514
0.919127 0.840208 0.840879
0 1 0.7066
0.0171969 1 0.756024
0.121996 1 0.803616
0.255955 0.995514 0.842115
0.40267 0.974426 0.876295
0.581323 0.944762 0.886641
0.745129 0.922942 0.851942
0.844251 0.917327 0.838911
0.92285 0.92285 0.770855
0 0 0.891615
0.0554513 0 0.889296
0.126757 0 0.902388
0.166918 0 1
0.278187 0 1
0.449516 0 1
0.60296 0 1
0.724651 0 1
0.821363 0 1
0 0.0561379 0.900435
0 0.0931258 0.960266
0 0.105364 1
0.0913252 0.0801404 1
0.284428 0.0543984 1
0.469917 0.0350347 1
0.634089 0.0260166 1
0.766598 0.0310979 1
0.871641 0.0467231 1
0 0.240772 0.906065
0 0.235279 0.975784
0 0.224308 1
0.0945754 0.205112 1
0.295369 0.1841 1
0.492439 0.167239 1
0.665995 0.159472 1
0.806241 0.165026 1
0.915969 0.181231 1
0 0.375051 0.858625
0 0.375937 0.933242
0 0.372457 1
0.087892 0.35877 1
0.286564 0.339681 1
0.487617 0.321172 1
0.667948 0.309834 1
0.813764 0.312261 1
0.929137 0.327657 1
0 0.524773 0.8159
0 0.529229 0.889296
0 0.528771 0.961685
0.0794842 0.517632 1
0.267857 0.500771 1
0.465568 0.482063 1
0.65211 0.467994 1
0.804242 0.466316 1
0.927123 0.478935 1
0 0.672923 0.778897
0 0.679088 0.848981
0 0.681147 0.918471
0.0843977 0.673335 0.981796
0.260166 0.659419 1
0.444694 0.641932 1
0.626505 0.62446 1
0.781216 0.615091 1
0.912963 0.62031 1
0 0.814771 0.759487
0 0.821347 0.825345
0 0.823056 0.889738
0.108171 0.81471 0.946532
0.270665 0.800412 1
0.436927 0.782635 1
0.599954 0.763256 1
0.749142 0.746365 1
0.890013 0.740536 1
0 0.938766 0.763149
0 0.942397 0.821881
0.0107576 0.940322 0.878843
0.150576 0.928038 0.927062
0.302235 0.910338 0.971923
0.453483 0.890532 1
0.617273 0.866606 1
0.803677 0.843275 0.988556
0.91928 0.840406 0.919509
0 1 0.775784
0 1 0.82504
0.0644388 1 0.873854
0.198184 1 0.914626
0.362814 0.987182 0.951141
0.579751 0.946563 0.953155
0.750942 0.921874 0.922072
0.844083 0.917006 0.917006
0.916716 0.916716 0.916716
