filters/Sepia_Brown.cube
# Sepia_Brown LUT
LUT_3D_SIZE 33
0.100000 0.050000 0.030000
0.103266 0.052750 0.032063
0.106531 0.055500 0.034125
0.109797 0.058250 0.036187
0.113063 0.061000 0.038250
0.116328 0.063750 0.040313
0.119594 0.066500 0.042375
0.122859 0.069250 0.044437
0.126125 0.072000 0.046500
0.129391 0.074750 0.048562
0.132656 0.077500 0.050625
0.135922 0.080250 0.052687
0.139188 0.083000 0.054750
0.142453 0.085750 0.056813
0.145719 0.088500 0.058875
0.148984 0.091250 0.060937
0.152250 0.094000 0.063000
0.155516 0.096750 0.065062
0.158781 0.099500 0.067125
0.162047 0.102250 0.069187
0.165313 0.105000 0.071250
0.168578 0.107750 0.073313
0.171844 0.110500 0.075375
0.175109 0.113250 0.077437
0.178375 0.116000 0.079500
0.181641 0.118750 0.081562
0.184906 0.121500 0.083625
0.188172 0.124250 0.085687
0.191437 0.127000 0.087750
0.194703 0.129750 0.089812
0.197969 0.132500 0.091875
0.201234 0.135250 0.093937
0.204500 0.138000 0.096000
0.117516 0.064750 0.041063
0.120781 0.067500 0.043125
0.124047 0.070250 0.045187
0.127312 0.073000 0.047250
0.130578 0.075750 0.049312
0.133844 0.078500 0.051375
0.137109 0.081250 0.053437
0.140375 0.084000 0.055500
0.143641 0.086750 0.057563
0.146906 0.089500 0.059625
0.150172 0.092250 0.061687
0.153438 0.095000 0.063750
0.156703 0.097750 0.065812
0.159969 0.100500 0.067875
0.163234 0.103250 0.069937
0.166500 0.106000 0.072000
0.169766 0.108750 0.074063
0.173031 0.111500 0.076125
0.176297 0.114250 0.078187
0.179563 0.117000 0.080250
0.182828 0.119750 0.082312
0.186094 0.122500 0.084375
0.189359 0.125250 0.086438
0.192625 0.128000 0.088500
0.195891 0.130750 0.090562
0.199156 0.133500 0.092625
0.202422 0.136250 0.094687
0.205687 0.139000 0.096750
0.208953 0.141750 0.098812
0.212219 0.144500 0.100875
0.215484 0.147250 0.102937
0.218750 0.150000 0.105000
0.222016 0.152750 0.107063
0.135031 0.079500 0.052125
0.138297 0.082250 0.054187
0.141563 0.085000 0.056250
0.144828 0.087750 0.058312
0.148094 0.090500 0.060375
0.151359 0.093250 0.062437
0.154625 0.096000 0.064500
0.157891 0.098750 0.066562
0.161156 0.101500 0.068625
0.164422 0.104250 0.070687
0.167687 0.107000 0.072750
0.170953 0.109750 0.074812
0.174219 0.112500 0.076875
0.177484 0.115250 0.078937
0.180750 0.118000 0.081000
0.184016 0.120750 0.083062
0.187281 0.123500 0.085125
0.190547 0.126250 0.087188
0.193812 0.129000 0.089250
0.197078 0.131750 0.091312
0.200344 0.134500 0.093375
0.203609 0.137250 0.095437
0.206875 0.140000 0.097500
0.210141 0.142750 0.099562
0.213406 0.145500 0.101625
0.216672 0.148250 0.103687
0.219938 0.151000 0.105750
0.223203 0.153750 0.107813
0.226469 0.156500 0.109875
0.229734 0.159250 0.111937
0.233000 0.162000 0.114000
0.236266 0.164750 0.116062
0.239531 0.167500 0.118125
0.152547 0.094250 0.063188
0.155813 0.097000 0.065250
0.159078 0.099750 0.067312
0.162344 0.102500 0.069375
0.165609 0.105250 0.071437
0.168875 0.108000 0.073500
0.172141 0.110750 0.075563
0.175406 0.113500 0.077625
0.178672 0.116250 0.079687
0.181938 0.119000 0.081750
0.185203 0.121750 0.083812
0.188469 0.124500 0.085875
0.191734 0.127250 0.087938
0.195000 0.130000 0.090000
0.198266 0.132750 0.092062
0.201531 0.135500 0.094125
0.204797 0.138250 0.096187
0.208062 0.141000 0.098250
0.211328 0.143750 0.100312
0.214594 0.146500 0.102375
0.217859 0.149250 0.104438
0.221125 0.152000 0.106500
0.224391 0.154750 0.108562
0.227656 0.157500 0.110625
0.230922 0.160250 0.112687
0.234187 0.163000 0.114750
0.237453 0.165750 0.116812
0.240719 0.168500 0.118875
0.243984 0.171250 0.120937
0.247250 0.174000 0.123000
0.250516 0.176750 0.125063
0.253781 0.179500 0.127125
0.257047 0.182250 0.129188
0.170063 0.109000 0.074250
0.173328 0.111750 0.076312
0.176594 0.114500 0.078375
0.179859 0.117250 0.080437
0.183125 0.120000 0.082500
0.186391 0.122750 0.084562
0.189656 0.125500 0.086625
0.192922 0.128250 0.088688
0.196188 0.131000 0.090750
0.199453 0.133750 0.092812
0.202719 0.136500 0.094875
0.205984 0.139250 0.096937
0.209250 0.142000 0.099000
0.212516 0.144750 0.101062
0.215781 0.147500 0.103125
0.219047 0.150250 0.105187
0.222312 0.153000 0.107250
0.225578 0.155750 0.109313
0.228844 0.158500 0.111375
0.232109 0.161250 0.113437
0.235375 0.164000 0.115500
0.238641 0.166750 0.117563
0.241906 0.169500 0.119625
0.245172 0.172250 0.121687
0.248438 0.175000 0.123750
0.251703 0.177750 0.125812
0.254969 0.180500 0.127875
0.258234 0.183250 0.129937
0.261500 0.186000 0.132000
0.264766 0.188750 0.134062
0.268031 0.191500 0.136125
0.271297 0.194250 0.138187
0.274562 0.197000 0.140250
0.187578 0.123750 0.085312
0.190844 0.126500 0.087375
0.194109 0.129250 0.089438
0.197375 0.132000 0.091500
0.200641 0.134750 0.093562
0.203906 0.137500 0.095625
0.207172 0.140250 0.097687
0.210437 0.143000 0.099750
0.213703 0.145750 0.101812
0.216969 0.148500 0.103875
0.220234 0.151250 0.105937
0.223500 0.154000 0.108000
0.226766 0.156750 0.110062
0.230031 0.159500 0.112125
0.233297 0.162250 0.114187
0.236562 0.165000 0.116250
0.239828 0.167750 0.118313
0.243094 0.170500 0.120375
0.246359 0.173250 0.122437
0.249625 0.176000 0.124500
0.252891 0.178750 0.126563
0.256156 0.181500 0.128625
0.259422 0.184250 0.130687
0.262687 0.187000 0.132750
0.265953 0.189750 0.134813
0.269219 0.192500 0.136875
0.272484 0.195250 0.138937
0.275750 0.198000 0.141000
0.279016 0.200750 0.143062
0.282281 0.203500 0.145125
0.285547 0.206250 0.147187
0.288812 0.209000 0.149250
0.292078 0.211750 0.151312
0.205094 0.138500 0.096375
0.208359 0.141250 0.098437
0.211625 0.144000 0.100500
0.214891 0.146750 0.102563
0.218156 0.149500 0.104625
0.221422 0.152250 0.106687
0.224687 0.155000 0.108750
0.227953 0.157750 0.110813
0.231219 0.160500 0.112875
0.234484 0.163250 0.114937
0.237750 0.166000 0.117000
0.241016 0.168750 0.119063
0.244281 0.171500 0.121125
0.247547 0.174250 0.123187
0.250812 0.177000 0.125250
0.254078 0.179750 0.127312
0.257344 0.182500 0.129375
0.260609 0.185250 0.131437
0.263875 0.188000 0.133500
0.267141 0.190750 0.135562
0.270406 0.193500 0.137625
0.273672 0.196250 0.139687
0.276938 0.199000 0.141750
0.280203 0.201750 0.143813
0.283469 0.204500 0.145875
0.286734 0.207250 0.147937
0.290000 0.210000 0.150000
0.293266 0.212750 0.152062
0.296531 0.215500 0.154125
0.299797 0.218250 0.156188
0.303063 0.221000 0.158250
0.306328 0.223750 0.160312
0.309594 0.226500 0.162375
0.222609 0.153250 0.107437
0.225875 0.156000 0.109500
0.229141 0.158750 0.111562
0.232406 0.161500 0.113625
0.235672 0.164250 0.115687
0.238937 0.167000 0.117750
0.242203 0.169750 0.119813
0.245469 0.172500 0.121875
0.248734 0.175250 0.123937
0.252000 0.178000 0.126000
0.255266 0.180750 0.128063
0.258531 0.183500 0.130125
0.261797 0.186250 0.132188
0.265062 0.189000 0.134250
0.268328 0.191750 0.136313
0.271594 0.194500 0.138375
0.274859 0.197250 0.140437
0.278125 0.200000 0.142500
0.281391 0.202750 0.144562
0.284656 0.205500 0.146625
0.287922 0.208250 0.148688
0.291187 0.211000 0.150750
0.294453 0.213750 0.152812
0.297719 0.216500 0.154875
0.300984 0.219250 0.156937
0.304250 0.222000 0.159000
0.307516 0.224750 0.161062
0.310781 0.227500 0.163125
0.314047 0.230250 0.165187
0.317312 0.233000 0.167250
0.320578 0.235750 0.169312
0.323844 0.238500 0.171375
0.327109 0.241250 0.173437
0.240125 0.168000 0.118500
0.243391 0.170750 0.120563
0.246656 0.173500 0.122625
0.249922 0.176250 0.124687
0.253188 0.179000 0.126750
0.256453 0.181750 0.128812
0.259719 0.184500 0.130875
0.262984 0.187250 0.132937
0.266250 0.190000 0.135000
0.269516 0.192750 0.137062
0.272781 0.195500 0.139125
0.276047 0.198250 0.141187
0.279312 0.201000 0.143250
0.282578 0.203750 0.145312
0.285844 0.206500 0.147375
0.289109 0.209250 0.149437
0.292375 0.212000 0.151500
0.295641 0.214750 0.153562
0.298906 0.217500 0.155625
0.302172 0.220250 0.157687
0.305438 0.223000 0.159750
0.308703 0.225750 0.161812
0.311969 0.228500 0.163875
0.315234 0.231250 0.165937
0.318500 0.234000 0.168000
0.321766 0.236750 0.170062
0.325031 0.239500 0.172125
0.328297 0.242250 0.174187
0.331562 0.245000 0.176250
0.334828 0.247750 0.178312
0.338094 0.250500 0.180375
0.341359 0.253250 0.182437
0.344625 0.256000 0.184500
0.257641 0.182750 0.129562
0.260906 0.185500 0.131625
0.264172 0.188250 0.133687
0.267437 0.191000 0.135750
0.270703 0.193750 0.137813
0.273969 0.196500 0.139875
0.277234 0.199250 0.141937
0.280500 0.202000 0.144000
0.283766 0.204750 0.146062
0.287031 0.207500 0.148125
0.290297 0.210250 0.150188
0.293562 0.213000 0.152250
0.296828 0.215750 0.154312
0.300094 0.218500 0.156375
0.303359 0.221250 0.158437
0.306625 0.224000 0.160500
0.309891 0.226750 0.162562
0.313156 0.229500 0.164625
0.316422 0.232250 0.166687
0.319688 0.235000 0.168750
0.322953 0.237750 0.170812
0.326219 0.240500 0.172875
0.329484 0.243250 0.174937
0.332750 0.246000 0.177000
0.336016 0.248750 0.179062
0.339281 0.251500 0.181125
0.342547 0.254250 0.183188
0.345812 0.257000 0.185250
0.349078 0.259750 0.187312
0.352344 0.262500 0.189375
0.355609 0.265250 0.191437
0.358875 0.268000 0.193500
0.362141 0.270750 0.195563
0.275156 0.197500 0.140625
0.278422 0.200250 0.142687
0.281687 0.203000 0.144750
0.284953 0.205750 0.146812
0.288219 0.208500 0.148875
0.291484 0.211250 0.150937
0.294750 0.214000 0.153000
0.298016 0.216750 0.155062
0.301281 0.219500 0.157125
0.304547 0.222250 0.159187
0.307812 0.225000 0.161250
0.311078 0.227750 0.163312
0.314344 0.230500 0.165375
0.317609 0.233250 0.167437
0.320875 0.236000 0.169500
0.324141 0.238750 0.171562
0.327406 0.241500 0.173625
0.330672 0.244250 0.175687
0.333937 0.247000 0.177750
0.337203 0.249750 0.179812
0.340469 0.252500 0.181875
0.343734 0.255250 0.183937
0.347000 0.258000 0.186000
0.350266 0.260750 0.188062
0.353531 0.263500 0.190125
0.356797 0.266250 0.192187
0.360062 0.269000 0.194250
0.363328 0.271750 0.196312
0.366594 0.274500 0.198375
0.369859 0.277250 0.200437
0.373125 0.280000 0.202500
0.376391 0.282750 0.204562
0.379656 0.285500 0.206625
0.292672 0.212250 0.151687
0.295937 0.215000 0.153750
0.299203 0.217750 0.155812
0.302469 0.220500 0.157875
0.305734 0.223250 0.159937
0.309000 0.226000 0.162000
0.312266 0.228750 0.164062
0.315531 0.231500 0.166125
0.318797 0.234250 0.168187
0.322062 0.237000 0.170250
0.325328 0.239750 0.172312
0.328594 0.242500 0.174375
0.331859 0.245250 0.176437
0.335125 0.248000 0.178500
0.338391 0.250750 0.180562
0.341656 0.253500 0.182625
0.344922 0.256250 0.184688
0.348187 0.259000 0.186750
0.351453 0.261750 0.188812
0.354719 0.264500 0.190875
0.357984 0.267250 0.192937
0.361250 0.270000 0.195000
0.364516 0.272750 0.197063
0.367781 0.275500 0.199125
0.371047 0.278250 0.201187
0.374312 0.281000 0.203250
0.377578 0.283750 0.205312
0.380844 0.286500 0.207375
0.384109 0.289250 0.209437
0.387375 0.292000 0.211500
0.390641 0.294750 0.213562
0.393906 0.297500 0.215625
0.397172 0.300250 0.217687
0.310188 0.227000 0.162750
0.313453 0.229750 0.164813
0.316719 0.232500 0.166875
0.319984 0.235250 0.168937
0.323250 0.238000 0.171000
0.326516 0.240750 0.173062
0.329781 0.243500 0.175125
0.333047 0.246250 0.177187
0.336313 0.249000 0.179250
0.339578 0.251750 0.181312
0.342844 0.254500 0.183375
0.346109 0.257250 0.185437
0.349375 0.260000 0.187500
0.352641 0.262750 0.189562
0.355906 0.265500 0.191625
0.359172 0.268250 0.193688
0.362437 0.271000 0.195750
0.365703 0.273750 0.197812
0.368969 0.276500 0.199875
0.372234 0.279250 0.201937
0.375500 0.282000 0.204000
0.378766 0.284750 0.206063
0.382031 0.287500 0.208125
0.385297 0.290250 0.210187
0.388563 0.293000 0.212250
0.391828 0.295750 0.214312
0.395094 0.298500 0.216375
0.398359 0.301250 0.218438
0.401625 0.304000 0.220500
0.404891 0.306750 0.222562
0.408156 0.309500 0.224625
0.411422 0.312250 0.226687
0.414687 0.315000 0.228750
0.327703 0.241750 0.173812
0.330969 0.244500 0.175875
0.334234 0.247250 0.177937
0.337500 0.250000 0.180000
0.340766 0.252750 0.182062
0.344031 0.255500 0.184125
0.347297 0.258250 0.186188
0.350562 0.261000 0.188250
0.353828 0.263750 0.190312
0.357094 0.266500 0.192375
0.360359 0.269250 0.194437
0.363625 0.272000 0.196500
0.366891 0.274750 0.198563
0.370156 0.277500 0.200625
0.373422 0.280250 0.202688
0.376687 0.283000 0.204750
0.379953 0.285750 0.206812
0.383219 0.288500 0.208875
0.386484 0.291250 0.210938
0.389750 0.294000 0.213000
0.393016 0.296750 0.215063
0.396281 0.299500 0.217125
0.399547 0.302250 0.219187
0.402813 0.305000 0.221250
0.406078 0.307750 0.223312
0.409344 0.310500 0.225375
0.412609 0.313250 0.227437
0.415875 0.316000 0.229500
0.419141 0.318750 0.231563
0.422406 0.321500 0.233625
0.425672 0.324250 0.235687
0.428937 0.327000 0.237750
0.432203 0.329750 0.239812
0.345219 0.256500 0.184875
0.348484 0.259250 0.186937
0.351750 0.262000 0.189000
0.355016 0.264750 0.191062
0.358281 0.267500 0.193125
0.361547 0.270250 0.195188
0.364812 0.273000 0.197250
0.368078 0.275750 0.199312
0.371344 0.278500 0.201375
0.374609 0.281250 0.203437
0.377875 0.284000 0.205500
0.381141 0.286750 0.207562
0.384406 0.289500 0.209625
0.387672 0.292250 0.211687
0.390938 0.295000 0.213750
0.394203 0.297750 0.215812
0.397469 0.300500 0.217875
0.400734 0.303250 0.219937
0.404000 0.306000 0.222000
0.407266 0.308750 0.224062
0.410531 0.311500 0.226125
0.413797 0.314250 0.228187
0.417063 0.317000 0.230250
0.420328 0.319750 0.232312
0.423594 0.322500 0.234375
0.426859 0.325250 0.236437
0.430125 0.328000 0.238500
0.433391 0.330750 0.240563
0.436656 0.333500 0.242625
0.439922 0.336250 0.244687
0.443187 0.339000 0.246750
0.446453 0.341750 0.248812
0.449719 0.344500 0.250875
0.362734 0.271250 0.195937
0.366000 0.274000 0.198000
0.369266 0.276750 0.200063
0.372531 0.279500 0.202125
0.375797 0.282250 0.204187
0.379062 0.285000 0.206250
0.382328 0.287750 0.208312
0.385594 0.290500 0.210375
0.388859 0.293250 0.212438
0.392125 0.296000 0.214500
0.395391 0.298750 0.216562
0.398656 0.301500 0.218625
0.401922 0.304250 0.220687
0.405187 0.307000 0.222750
0.408453 0.309750 0.224812
0.411719 0.312500 0.226875
0.414984 0.315250 0.228937
0.418250 0.318000 0.231000
0.421516 0.320750 0.233063
0.424781 0.323500 0.235125
0.428047 0.326250 0.237187
0.431312 0.329000 0.239250
0.434578 0.331750 0.241312
0.437844 0.334500 0.243375
0.441109 0.337250 0.245438
0.444375 0.340000 0.247500
0.447641 0.342750 0.249562
0.450906 0.345500 0.251625
0.454172 0.348250 0.253687
0.457437 0.351000 0.255750
0.460703 0.353750 0.257812
0.463969 0.356500 0.259875
0.467234 0.359250 0.261937
0.380250 0.286000 0.207000
0.383516 0.288750 0.209062
0.386781 0.291500 0.211125
0.390047 0.294250 0.213187
0.393312 0.297000 0.215250
0.396578 0.299750 0.217312
0.399844 0.302500 0.219375
0.403109 0.305250 0.221437
0.406375 0.308000 0.223500
0.409641 0.310750 0.225562
0.412906 0.313500 0.227625
0.416172 0.316250 0.229687
0.419438 0.319000 0.231750
0.422703 0.321750 0.233812
0.425969 0.324500 0.235875
0.429234 0.327250 0.237937
0.432500 0.330000 0.240000
0.435766 0.332750 0.242062
0.439031 0.335500 0.244125
0.442297 0.338250 0.246187
0.445562 0.341000 0.248250
0.448828 0.343750 0.250312
0.452094 0.346500 0.252375
0.455359 0.349250 0.254437
0.458625 0.352000 0.256500
0.461891 0.354750 0.258562
0.465156 0.357500 0.260625
0.468422 0.360250 0.262687
0.471687 0.363000 0.264750
0.474953 0.365750 0.266813
0.478219 0.368500 0.268875
0.481484 0.371250 0.270937
0.484750 0.374000 0.273000
0.397766 0.300750 0.218062
0.401031 0.303500 0.220125
0.404297 0.306250 0.222187
0.407562 0.309000 0.224250
0.410828 0.311750 0.226312
0.414094 0.314500 0.228375
0.417359 0.317250 0.230437
0.420625 0.320000 0.232500
0.423891 0.322750 0.234563
0.427156 0.325500 0.236625
0.430422 0.328250 0.238687
0.433687 0.331000 0.240750
0.436953 0.333750 0.242812
0.440219 0.336500 0.244875
0.443484 0.339250 0.246938
0.446750 0.342000 0.249000
0.450016 0.344750 0.251062
0.453281 0.347500 0.253125
0.456547 0.350250 0.255188
0.459812 0.353000 0.257250
0.463078 0.355750 0.259313
0.466344 0.358500 0.261375
0.469609 0.361250 0.263437
0.472875 0.364000 0.265500
0.476141 0.366750 0.267562
0.479406 0.369500 0.269625
0.482672 0.372250 0.271687
0.485938 0.375000 0.273750
0.489203 0.377750 0.275813
0.492469 0.380500 0.277875
0.495734 0.383250 0.279937
0.499000 0.386000 0.282000
0.502266 0.388750 0.284062
0.415281 0.315500 0.229125
0.418547 0.318250 0.231187
0.421813 0.321000 0.233250
0.425078 0.323750 0.235312
0.428344 0.326500 0.237375
0.431609 0.329250 0.239437
0.434875 0.332000 0.241500
0.438141 0.334750 0.243562
0.441406 0.337500 0.245625
0.444672 0.340250 0.247687
0.447937 0.343000 0.249750
0.451203 0.345750 0.251812
0.454469 0.348500 0.253875
0.457734 0.351250 0.255937
0.461000 0.354000 0.258000
0.464266 0.356750 0.260062
0.467531 0.359500 0.262125
0.470797 0.362250 0.264187
0.474062 0.365000 0.266250
0.477328 0.367750 0.268312
0.480594 0.370500 0.270375
0.483859 0.373250 0.272437
0.487125 0.376000 0.274500
0.490391 0.378750 0.276562
0.493656 0.381500 0.278625
0.496922 0.384250 0.280687
0.500187 0.387000 0.282750
0.503453 0.389750 0.284813
0.506719 0.392500 0.286875
0.509984 0.395250 0.288937
0.513250 0.398000 0.291000
0.516516 0.400750 0.293063
0.519781 0.403500 0.295125
0.432797 0.330250 0.240187
0.436062 0.333000 0.242250
0.439328 0.335750 0.244312
0.442594 0.338500 0.246375
0.445859 0.341250 0.248437
0.449125 0.344000 0.250500
0.452391 0.346750 0.252562
0.455656 0.349500 0.254625
0.458922 0.352250 0.256687
0.462187 0.355000 0.258750
0.465453 0.357750 0.260813
0.468719 0.360500 0.262875
0.471984 0.363250 0.264937
0.475250 0.366000 0.267000
0.478516 0.368750 0.269062
0.481781 0.371500 0.271125
0.485047 0.374250 0.273187
0.488312 0.377000 0.275250
0.491578 0.379750 0.277312
0.494844 0.382500 0.279375
0.498109 0.385250 0.281438
0.501375 0.388000 0.283500
0.504641 0.390750 0.285562
0.507906 0.393500 0.287625
0.511172 0.396250 0.289687
0.514437 0.399000 0.291750
0.517703 0.401750 0.293812
0.520969 0.404500 0.295875
0.524234 0.407250 0.297937
0.527500 0.410000 0.300000
0.530766 0.412750 0.302062
0.534031 0.415500 0.304125
0.537297 0.418250 0.306187
0.450313 0.345000 0.251250
0.453578 0.347750 0.253312
0.456844 0.350500 0.255375
0.460109 0.353250 0.257437
0.463375 0.356000 0.259500
0.466641 0.358750 0.261562
0.469906 0.361500 0.263625
0.473172 0.364250 0.265687
0.476437 0.367000 0.267750
0.479703 0.369750 0.269813
0.482969 0.372500 0.271875
0.486234 0.375250 0.273937
0.489500 0.378000 0.276000
0.492766 0.380750 0.278062
0.496031 0.383500 0.280125
0.499297 0.386250 0.282187
0.502562 0.389000 0.284250
0.505828 0.391750 0.286312
0.509094 0.394500 0.288375
0.512359 0.397250 0.290438
0.515625 0.400000 0.292500
0.518891 0.402750 0.294562
0.522156 0.405500 0.296625
0.525422 0.408250 0.298687
0.528687 0.411000 0.300750
0.531953 0.413750 0.302812
0.535219 0.416500 0.304875
0.538484 0.419250 0.306937
0.541750 0.422000 0.309000
0.545016 0.424750 0.311062
0.548281 0.427500 0.313125
0.551547 0.430250 0.315187
0.554812 0.433000 0.317250
0.467828 0.359750 0.262312
0.471094 0.362500 0.264375
0.474359 0.365250 0.266437
0.477625 0.368000 0.268500
0.480891 0.370750 0.270562
0.484156 0.373500 0.272625
0.487422 0.376250 0.274687
0.490687 0.379000 0.276750
0.493953 0.381750 0.278813
0.497219 0.384500 0.280875
0.500484 0.387250 0.282937
0.503750 0.390000 0.285000
0.507016 0.392750 0.287062
0.510281 0.395500 0.289125
0.513547 0.398250 0.291187
0.516813 0.401000 0.293250
0.520078 0.403750 0.295312
0.523344 0.406500 0.297375
0.526609 0.409250 0.299438
0.529875 0.412000 0.301500
0.533141 0.414750 0.303562
0.536406 0.417500 0.305625
0.539672 0.420250 0.307688
0.542937 0.423000 0.309750
0.546203 0.425750 0.311812
0.549469 0.428500 0.313875
0.552734 0.431250 0.315937
0.556000 0.434000 0.318000
0.559266 0.436750 0.320062
0.562531 0.439500 0.322125
0.565797 0.442250 0.324187
0.569062 0.445000 0.326250
0.572328 0.447750 0.328313
0.485344 0.374500 0.273375
0.488609 0.377250 0.275437
0.491875 0.380000 0.277500
0.495141 0.382750 0.279562
0.498406 0.385500 0.281625
0.501672 0.388250 0.283687
0.504937 0.391000 0.285750
0.508203 0.393750 0.287812
0.511469 0.396500 0.289875
0.514734 0.399250 0.291937
0.518000 0.402000 0.294000
0.521266 0.404750 0.296062
0.524531 0.407500 0.298125
0.527797 0.410250 0.300187
0.531062 0.413000 0.302250
0.534328 0.415750 0.304312
0.537594 0.418500 0.306375
0.540859 0.421250 0.308437
0.544125 0.424000 0.310500
0.547391 0.426750 0.312562
0.550656 0.429500 0.314625
0.553922 0.432250 0.316688
0.557187 0.435000 0.318750
0.560453 0.437750 0.320812
0.563719 0.440500 0.322875
0.566984 0.443250 0.324937
0.570250 0.446000 0.327000
0.573516 0.448750 0.329062
0.576781 0.451500 0.331125
0.580047 0.454250 0.333187
0.583312 0.457000 0.335250
0.586578 0.459750 0.337313
0.589844 0.462500 0.339375
0.502859 0.389250 0.284438
0.506125 0.392000 0.286500
0.509391 0.394750 0.288562
0.512656 0.397500 0.290625
0.515922 0.400250 0.292687
0.519187 0.403000 0.294750
0.522453 0.405750 0.296812
0.525719 0.408500 0.298875
0.528984 0.411250 0.300937
0.532250 0.414000 0.303000
0.535516 0.416750 0.305062
0.538781 0.419500 0.307125
0.542047 0.422250 0.309187
0.545312 0.425000 0.311250
0.548578 0.427750 0.313312
0.551844 0.430500 0.315375
0.555109 0.433250 0.317437
0.558375 0.436000 0.319500
0.561641 0.438750 0.321562
0.564906 0.441500 0.323625
0.568172 0.444250 0.325688
0.571437 0.447000 0.327750
0.574703 0.449750 0.329812
0.577969 0.452500 0.331875
0.581234 0.455250 0.333937
0.584500 0.458000 0.336000
0.587766 0.460750 0.338062
0.591031 0.463500 0.340125
0.594297 0.466250 0.342187
0.597562 0.469000 0.344250
0.600828 0.471750 0.346312
0.604094 0.474500 0.348375
0.607359 0.477250 0.350437
0.520375 0.404000 0.295500
0.523641 0.406750 0.297562
0.526906 0.409500 0.299625
0.530172 0.412250 0.301687
0.533438 0.415000 0.303750
0.536703 0.417750 0.305813
0.539969 0.420500 0.307875
0.543234 0.423250 0.309937
0.546500 0.426000 0.312000
0.549766 0.428750 0.314063
0.553031 0.431500 0.316125
0.556297 0.434250 0.318187
0.559562 0.437000 0.320250
0.562828 0.439750 0.322313
0.566094 0.442500 0.324375
0.569359 0.445250 0.326438
0.572625 0.448000 0.328500
0.575891 0.450750 0.330562
0.579156 0.453500 0.332625
0.582422 0.456250 0.334688
0.585687 0.459000 0.336750
0.588953 0.461750 0.338812
0.592219 0.464500 0.340875
0.595484 0.467250 0.342938
0.598750 0.470000 0.345000
0.602016 0.472750 0.347062
0.605281 0.475500 0.349125
0.608547 0.478250 0.351187
0.611812 0.481000 0.353250
0.615078 0.483750 0.355313
0.618344 0.486500 0.357375
0.621609 0.489250 0.359437
0.624875 0.492000 0.361500
0.537891 0.418750 0.306562
0.541156 0.421500 0.308625
0.544422 0.424250 0.310688
0.547687 0.427000 0.312750
0.550953 0.429750 0.314812
0.554219 0.432500 0.316875
0.557484 0.435250 0.318937
0.560750 0.438000 0.321000
0.564016 0.440750 0.323063
0.567281 0.443500 0.325125
0.570547 0.446250 0.327187
0.573813 0.449000 0.329250
0.577078 0.451750 0.331313
0.580344 0.454500 0.333375
0.583609 0.457250 0.335437
0.586875 0.460000 0.337500
0.590141 0.462750 0.339562
0.593406 0.465500 0.341625
0.596672 0.468250 0.343688
0.599938 0.471000 0.345750
0.603203 0.473750 0.347812
0.606469 0.476500 0.349875
0.609734 0.479250 0.351938
0.613000 0.482000 0.354000
0.616266 0.484750 0.356062
0.619531 0.487500 0.358125
0.622797 0.490250 0.360187
0.626062 0.493000 0.362250
0.629328 0.495750 0.364312
0.632594 0.498500 0.366375
0.635859 0.501250 0.368437
0.639125 0.504000 0.370500
0.642391 0.506750 0.372563
0.555406 0.433500 0.317625
0.558672 0.436250 0.319688
0.561937 0.439000 0.321750
0.565203 0.441750 0.323812
0.568469 0.444500 0.325875
0.571734 0.447250 0.327937
0.575000 0.450000 0.330000
0.578266 0.452750 0.332062
0.581531 0.455500 0.334125
0.584797 0.458250 0.336187
0.588063 0.461000 0.338250
0.591328 0.463750 0.340313
0.594594 0.466500 0.342375
0.597859 0.469250 0.344437
0.601125 0.472000 0.346500
0.604391 0.474750 0.348562
0.607656 0.477500 0.350625
0.610922 0.480250 0.352688
0.614187 0.483000 0.354750
0.617453 0.485750 0.356812
0.620719 0.488500 0.358875
0.623984 0.491250 0.360937
0.627250 0.494000 0.363000
0.630516 0.496750 0.365062
0.633781 0.499500 0.367125
0.637047 0.502250 0.369188
0.640312 0.505000 0.371250
0.643578 0.507750 0.373312
0.646844 0.510500 0.375375
