filters/Sepia_Brown.cube
# Sepia_Brown LUT
LUT_3D_SIZE 5
0.100000 0.050000 0.030000
0.126125 0.072000 0.046500
0.152250 0.094000 0.063000
0.178375 0.116000 0.079500
0.204500 0.138000 0.096000
0.240125 0.168000 0.118500
0.266250 0.190000 0.135000
0.292375 0.212000 0.151500
0.318500 0.234000 0.168000
0.344625 0.256000 0.184500
0.380250 0.286000 0.207000
0.406375 0.308000 0.223500
0.432500 0.330000 0.240000
0.458625 0.352000 0.256500
0.484750 0.374000 0.273000
0.520375 0.404000 0.295500
0.546500 0.426000 0.312000
0.572625 0.448000 0.328500
0.598750 0.470000 0.345000
0.624875 0.492000 0.361500
0.660500 0.522000 0.384000
0.686625 0.544000 0.400500
0.712750 0.566000 0.417000
0.738875 0.588000 0.433500
0.765000 0.610000 0.450000
0.171250 0.110000 0.075000
0.197375 0.132000 0.091500
0.223500 0.154000 0.108000
0.249625 0.176000 0.124500
0.275750 0.198000 0.141000
0.311375 0.228000 0.163500
0.337500 0.250000 0.180000
0.363625 0.272000 0.196500
0.389750 0.294000 0.213000
0.415875 0.316000 0.229500
0.451500 0.346000 0.252000
0.477625 0.368000 0.268500
0.503750 0.390000 0.285000
0.529875 0.412000 0.301500
0.556000 0.434000 0.318000
0.591625 0.464000 0.340500
0.617750 0.486000 0.357000
0.643875 0.508000 0.373500
0.670000 0.530000 0.390000
0.696125 0.552000 0.406500
0.731750 0.582000 0.429000
0.757875 0.604000 0.445500
0.784000 0.626000 0.462000
0.810125 0.648000 0.478500
0.836250 0.670000 0.495000
0.242500 0.170000 0.120000
0.268625 0.192000 0.136500
0.294750 0.214000 0.153000
0.320875 0.236000 0.169500
0.347000 0.258000 0.186000
0.382625 0.288000 0.208500
0.408750 0.310000 0.225000
0.434875 0.332000 0.241500
0.461000 0.354000 0.258000
0.487125 0.376000 0.274500
0.522750 0.406000 0.297000
0.548875 0.428000 0.313500
0.575000 0.450000 0.330000
0.601125 0.472000 0.346500
0.627250 0.494000 0.363000
0.662875 0.524000 0.385500
0.689000 0.546000 0.402000
0.715125 0.568000 0.418500
0.741250 0.590000 0.435000
0.767375 0.612000 0.451500
0.803000 0.642000 0.474000
0.829125 0.664000 0.490500
0.855250 0.686000 0.507000
0.881375 0.708000 0.523500
0.907500 0.730000 0.540000
0.313750 0.230000 0.165000
0.339875 0.252000 0.181500
0.366000 0.274000 0.198000
0.392125 0.296000 0.214500
0.418250 0.318000 0.231000
0.453875 0.348000 0.253500
0.480000 0.370000 0.270000
0.506125 0.392000 0.286500
0.532250 0.414000 0.303000
0.558375 0.436000 0.319500
0.594000 0.466000 0.342000
0.620125 0.488000 0.358500
0.646250 0.510000 0.375000
0.672375 0.532000 0.391500
0.698500 0.554000 0.408000
0.734125 0.584000 0.430500
0.760250 0.606000 0.447000
0.786375 0.628000 0.463500
0.812500 0.650000 0.480000
0.838625 0.672000 0.496500
0.874250 0.702000 0.519000
0.900375 0.724000 0.535500
0.926500 0.746000 0.552000
0.952625 0.768000 0.568500
0.978750 0.790000 0.585000
0.385000 0.290000 0.210000
0.411125 0.312000 0.226500
0.437250 0.334000 0.243000
0.463375 0.356000 0.259500
0.489500 0.378000 0.276000
0.525125 0.408000 0.298500
0.551250 0.430000 0.315000
0.577375 0.452000 0.331500
0.603500 0.474000 0.348000
0.629625 0.496000 0.364500
0.665250 0.526000 0.387000
0.691375 0.548000 0.403500
0.717500 0.570000 0.420000
0.743625 0.592000 0.436500
0.769750 0.614000 0.453000
0.805375 0.644000 0.475500
0.831500 0.666000 0.492000
0.857625 0.688000 0.508500
0.883750 0.710000 0.525000
0.909875 0.732000 0.541500
0.945500 0.762000 0.564000
0.971625 0.784000 0.580500
0.997750 0.806000 0.597000
1.023875 0.828000 0.613500
1.050000 0.850000 0.630000
