filters/Sepia_Brown.cube
# Sepia_Brown LUT
LUT_3D_SIZE 9
0.100000 0.050000 0.030000
0.113063 0.061000 0.038250
0.126125 0.072000 0.046500
0.139188 0.083000 0.054750
0.152250 0.094000 0.063000
0.165313 0.105000 0.071250
0.178375 0.116000 0.079500
0.191437 0.127000 0.087750
0.204500 0.138000 0.096000
0.170063 0.109000 0.074250
0.183125 0.120000 0.082500
0.196188 0.131000 0.090750
0.209250 0.142000 0.099000
0.222312 0.153000 0.107250
0.235375 0.164000 0.115500
0.248438 0.175000 0.123750
0.261500 0.186000 0.132000
0.274562 0.197000 0.140250
0.240125 0.168000 0.118500
0.253188 0.179000 0.126750
0.266250 0.190000 0.135000
0.279312 0.201000 0.143250
0.292375 0.212000 0.151500
0.305438 0.223000 0.159750
0.318500 0.234000 0.168000
0.331562 0.245000 0.176250
0.344625 0.256000 0.184500
0.310188 0.227000 0.162750
0.323250 0.238000 0.171000
0.336313 0.249000 0.179250
0.349375 0.260000 0.187500
0.362437 0.271000 0.195750
0.375500 0.282000 0.204000
0.388563 0.293000 0.212250
0.401625 0.304000 0.220500
0.414687 0.315000 0.228750
0.380250 0.286000 0.207000
0.393312 0.297000 0.215250
0.406375 0.308000 0.223500
0.419438 0.319000 0.231750
0.432500 0.330000 0.240000
0.445562 0.341000 0.248250
0.458625 0.352000 0.256500
0.471687 0.363000 0.264750
0.484750 0.374000 0.273000
0.450313 0.345000 0.251250
0.463375 0.356000 0.259500
0.476437 0.367000 0.267750
0.489500 0.378000 0.276000
0.502562 0.389000 0.284250
0.515625 0.400000 0.292500
0.528687 0.411000 0.300750
0.541750 0.422000 0.309000
0.554812 0.433000 0.317250
0.520375 0.404000 0.295500
0.533438 0.415000 0.303750
0.546500 0.426000 0.312000
0.559562 0.437000 0.320250
0.572625 0.448000 0.328500
0.585687 0.459000 0.336750
0.598750 0.470000 0.345000
0.611812 0.481000 0.353250
0.624875 0.492000 0.361500
0.590437 0.463000 0.339750
0.603500 0.474000 0.348000
0.616562 0.485000 0.356250
0.629625 0.496000 0.364500
0.642687 0.507000 0.372750
0.655750 0.518000 0.381000
0.668812 0.529000 0.389250
0.681875 0.540000 0.397500
0.694937 0.551000 0.405750
0.660500 0.522000 0.384000
0.673562 0.533000 0.392250
0.686625 0.544000 0.400500
0.699687 0.555000 0.408750
0.712750 0.566000 0.417000
0.725812 0.577000 0.425250
0.738875 0.588000 0.433500
0.751937 0.599000 0.441750
0.765000 0.610000 0.450000
0.135625 0.080000 0.052500
0.148688 0.091000 0.060750
0.161750 0.102000 0.069000
0.174812 0.113000 0.077250
0.187875 0.124000 0.085500
0.200937 0.135000 0.093750
0.214000 0.146000 0.102000
0.227063 0.157000 0.110250
0.240125 0.168000 0.118500
0.205687 0.139000 0.096750
0.218750 0.150000 0.105000
0.231812 0.161000 0.113250
0.244875 0.172000 0.121500
0.257937 0.183000 0.129750
0.271000 0.194000 0.138000
0.284062 0.205000 0.146250
0.297125 0.216000 0.154500
0.310188 0.227000 0.162750
0.275750 0.198000 0.141000
0.288813 0.209000 0.149250
0.301875 0.220000 0.157500
0.314937 0.231000 0.165750
0.328000 0.242000 0.174000
0.341063 0.253000 0.182250
0.354125 0.264000 0.190500
0.367188 0.275000 0.198750
0.380250 0.286000 0.207000
0.345812 0.257000 0.185250
0.358875 0.268000 0.193500
0.371938 0.279000 0.201750
0.385000 0.290000 0.210000
0.398062 0.301000 0.218250
0.411125 0.312000 0.226500
0.424187 0.323000 0.234750
0.437250 0.334000 0.243000
0.450313 0.345000 0.251250
0.415875 0.316000 0.229500
0.428937 0.327000 0.237750
0.442000 0.338000 0.246000
0.455062 0.349000 0.254250
0.468125 0.360000 0.262500
0.481187 0.371000 0.270750
0.494250 0.382000 0.279000
0.507312 0.393000 0.287250
0.520375 0.404000 0.295500
0.485937 0.375000 0.273750
0.499000 0.386000 0.282000
0.512062 0.397000 0.290250
0.525125 0.408000 0.298500
0.538187 0.419000 0.306750
0.551250 0.430000 0.315000
0.564312 0.441000 0.323250
0.577375 0.452000 0.331500
0.590437 0.463000 0.339750
0.556000 0.434000 0.318000
0.569062 0.445000 0.326250
0.582125 0.456000 0.334500
0.595187 0.467000 0.342750
0.608250 0.478000 0.351000
0.621312 0.489000 0.359250
0.634375 0.500000 0.367500
0.647437 0.511000 0.375750
0.660500 0.522000 0.384000
0.626062 0.493000 0.362250
0.639125 0.504000 0.370500
0.652187 0.515000 0.378750
0.665250 0.526000 0.387000
0.678312 0.537000 0.395250
0.691375 0.548000 0.403500
0.704437 0.559000 0.411750
0.717500 0.570000 0.420000
0.730562 0.581000 0.428250
0.696125 0.552000 0.406500
0.709187 0.563000 0.414750
0.722250 0.574000 0.423000
0.735312 0.585000 0.431250
0.748375 0.596000 0.439500
0.761437 0.607000 0.447750
0.774500 0.618000 0.456000
0.787562 0.629000 0.464250
0.800625 0.640000 0.472500
0.171250 0.110000 0.075000
0.184312 0.121000 0.083250
0.197375 0.132000 0.091500
0.210437 0.143000 0.099750
0.223500 0.154000 0.108000
0.236562 0.165000 0.116250
0.249625 0.176000 0.124500
0.262688 0.187000 0.132750
0.275750 0.198000 0.141000
0.241312 0.169000 0.119250
0.254375 0.180000 0.127500
0.267437 0.191000 0.135750
0.280500 0.202000 0.144000
0.293562 0.213000 0.152250
0.306625 0.224000 0.160500
0.319688 0.235000 0.168750
0.332750 0.246000 0.177000
0.345812 0.257000 0.185250
0.311375 0.228000 0.163500
0.324437 0.239000 0.171750
0.337500 0.250000 0.180000
0.350562 0.261000 0.188250
0.363625 0.272000 0.196500
0.376687 0.283000 0.204750
0.389750 0.294000 0.213000
0.402813 0.305000 0.221250
0.415875 0.316000 0.229500
0.381437 0.287000 0.207750
0.394500 0.298000 0.216000
0.407563 0.309000 0.224250
0.420625 0.320000 0.232500
0.433688 0.331000 0.240750
0.446750 0.342000 0.249000
0.459813 0.353000 0.257250
0.472875 0.364000 0.265500
0.485938 0.375000 0.273750
0.451500 0.346000 0.252000
0.464562 0.357000 0.260250
0.477625 0.368000 0.268500
0.490687 0.379000 0.276750
0.503750 0.390000 0.285000
0.516813 0.401000 0.293250
0.529875 0.412000 0.301500
0.542937 0.423000 0.309750
0.556000 0.434000 0.318000
0.521562 0.405000 0.296250
0.534625 0.416000 0.304500
0.547687 0.427000 0.312750
0.560750 0.438000 0.321000
0.573812 0.449000 0.329250
0.586875 0.460000 0.337500
0.599938 0.471000 0.345750
0.613000 0.482000 0.354000
0.626062 0.493000 0.362250
0.591625 0.464000 0.340500
0.604687 0.475000 0.348750
0.617750 0.486000 0.357000
0.630812 0.497000 0.365250
0.643875 0.508000 0.373500
0.656937 0.519000 0.381750
0.670000 0.530000 0.390000
0.683063 0.541000 0.398250
0.696125 0.552000 0.406500
0.661687 0.523000 0.384750
0.674750 0.534000 0.393000
0.687812 0.545000 0.401250
0.700875 0.556000 0.409500
0.713937 0.567000 0.417750
0.727000 0.578000 0.426000
0.740062 0.589000 0.434250
0.753125 0.600000 0.442500
0.766187 0.611000 0.450750
0.731750 0.582000 0.429000
0.744812 0.593000 0.437250
0.757875 0.604000 0.445500
0.770937 0.615000 0.453750
0.784000 0.626000 0.462000
0.797062 0.637000 0.470250
0.810125 0.648000 0.478500
0.823187 0.659000 0.486750
0.836250 0.670000 0.495000
0.206875 0.140000 0.097500
0.219938 0.151000 0.105750
0.233000 0.162000 0.114000
0.246062 0.173000 0.122250
0.259125 0.184000 0.130500
0.272188 0.195000 0.138750
0.285250 0.206000 0.147000
0.298312 0.217000 0.155250
0.311375 0.228000 0.163500
0.276937 0.199000 0.141750
0.290000 0.210000 0.150000
0.303062 0.221000 0.158250
0.316125 0.232000 0.166500
0.329187 0.243000 0.174750
0.342250 0.254000 0.183000
0.355313 0.265000 0.191250
0.368375 0.276000 0.199500
0.381437 0.287000 0.207750
0.347000 0.258000 0.186000
0.360062 0.269000 0.194250
0.373125 0.280000 0.202500
0.386188 0.291000 0.210750
0.399250 0.302000 0.219000
0.412312 0.313000 0.227250
0.425375 0.324000 0.235500
0.438438 0.335000 0.243750
0.451500 0.346000 0.252000
0.417063 0.317000 0.230250
0.430125 0.328000 0.238500
0.443187 0.339000 0.246750
0.456250 0.350000 0.255000
0.469313 0.361000 0.263250
0.482375 0.372000 0.271500
0.495437 0.383000 0.279750
0.508500 0.394000 0.288000
0.521562 0.405000 0.296250
0.487125 0.376000 0.274500
0.500187 0.387000 0.282750
0.513250 0.398000 0.291000
0.526312 0.409000 0.299250
0.539375 0.420000 0.307500
0.552437 0.431000 0.315750
0.565500 0.442000 0.324000
0.578562 0.453000 0.332250
0.591625 0.464000 0.340500
0.557187 0.435000 0.318750
0.570250 0.446000 0.327000
0.583312 0.457000 0.335250
0.596375 0.468000 0.343500
0.609437 0.479000 0.351750
0.622500 0.490000 0.360000
0.635562 0.501000 0.368250
0.648625 0.512000 0.376500
0.661687 0.523000 0.384750
0.627250 0.494000 0.363000
0.640312 0.505000 0.371250
0.653375 0.516000 0.379500
0.666437 0.527000 0.387750
0.679500 0.538000 0.396000
0.692562 0.549000 0.404250
0.705625 0.560000 0.412500
0.718687 0.571000 0.420750
0.731750 0.582000 0.429000
0.697312 0.553000 0.407250
0.710375 0.564000 0.415500
0.723437 0.575000 0.423750
0.736500 0.586000 0.432000
0.749562 0.597000 0.440250
0.762625 0.608000 0.448500
0.775687 0.619000 0.456750
0.788750 0.630000 0.465000
0.801812 0.641000 0.473250
0.767375 0.612000 0.451500
0.780437 0.623000 0.459750
0.793500 0.634000 0.468000
0.806562 0.645000 0.476250
0.819625 0.656000 0.484500
0.832687 0.667000 0.492750
0.845750 0.678000 0.501000
0.858812 0.689000 0.509250
0.871875 0.700000 0.517500
0.242500 0.170000 0.120000
0.255563 0.181000 0.128250
0.268625 0.192000 0.136500
0.281687 0.203000 0.144750
0.294750 0.214000 0.153000
0.307812 0.225000 0.161250
0.320875 0.236000 0.169500
0.333937 0.247000 0.177750
0.347000 0.258000 0.186000
0.312562 0.229000 0.164250
0.325625 0.240000 0.172500
0.338688 0.251000 0.180750
0.351750 0.262000 0.189000
0.364812 0.273000 0.197250
0.377875 0.284000 0.205500
0.390938 0.295000 0.213750
0.404000 0.306000 0.222000
0.417063 0.317000 0.230250
0.382625 0.288000 0.208500
0.395687 0.299000 0.216750
0.408750 0.310000 0.225000
0.421813 0.321000 0.233250
0.434875 0.332000 0.241500
0.447937 0.343000 0.249750
0.461000 0.354000 0.258000
0.474062 0.365000 0.266250
0.487125 0.376000 0.274500
0.452687 0.347000 0.252750
0.465750 0.358000 0.261000
0.478812 0.369000 0.269250
0.491875 0.380000 0.277500
0.504937 0.391000 0.285750
0.518000 0.402000 0.294000
0.531062 0.413000 0.302250
0.544125 0.424000 0.310500
0.557187 0.435000 0.318750
0.522750 0.406000 0.297000
0.535812 0.417000 0.305250
0.548875 0.428000 0.313500
0.561937 0.439000 0.321750
0.575000 0.450000 0.330000
0.588062 0.461000 0.338250
0.601125 0.472000 0.346500
0.614187 0.483000 0.354750
0.627250 0.494000 0.363000
0.592812 0.465000 0.341250
0.605875 0.476000 0.349500
0.618937 0.487000 0.357750
0.632000 0.498000 0.366000
0.645062 0.509000 0.374250
0.658125 0.520000 0.382500
0.671187 0.531000 0.390750
0.684250 0.542000 0.399000
0.697312 0.553000 0.407250
0.662875 0.524000 0.385500
0.675937 0.535000 0.393750
0.689000 0.546000 0.402000
0.702063 0.557000 0.410250
0.715125 0.568000 0.418500
0.728187 0.579000 0.426750
0.741250 0.590000 0.435000
0.754312 0.601000 0.443250
0.767375 0.612000 0.451500
0.732937 0.583000 0.429750
0.746000 0.594000 0.438000
0.759062 0.605000 0.446250
0.772125 0.616000 0.454500
0.785188 0.627000 0.462750
0.798250 0.638000 0.471000
0.811312 0.649000 0.479250
0.824375 0.660000 0.487500
0.837437 0.671000 0.495750
0.803000 0.642000 0.474000
0.816063 0.653000 0.482250
0.829125 0.664000 0.490500
0.842187 0.675000 0.498750
0.855250 0.686000 0.507000
0.868312 0.697000 0.515250
0.881375 0.708000 0.523500
0.894437 0.719000 0.531750
0.907500 0.730000 0.540000
0.278125 0.200000 0.142500
0.291188 0.211000 0.150750
0.304250 0.222000 0.159000
0.317312 0.233000 0.167250
0.330375 0.244000 0.175500
0.343437 0.255000 0.183750
0.356500 0.266000 0.192000
0.369563 0.277000 0.200250
0.382625 0.288000 0.208500
0.348187 0.259000 0.186750
0.361250 0.270000 0.195000
0.374313 0.281000 0.203250
0.387375 0.292000 0.211500
0.400438 0.303000 0.219750
0.413500 0.314000 0.228000
0.426562 0.325000 0.236250
0.439625 0.336000 0.244500
0.452687 0.347000 0.252750
0.418250 0.318000 0.231000
0.431312 0.329000 0.239250
0.444375 0.340000 0.247500
0.457437 0.351000 0.255750
0.470500 0.362000 0.264000
0.483562 0.373000 0.272250
0.496625 0.384000 0.280500
0.509687 0.395000 0.288750
0.522750 0.406000 0.297000
0.488313 0.377000 0.275250
0.501375 0.388000 0.283500
0.514437 0.399000 0.291750
0.527500 0.410000 0.300000
0.540562 0.421000 0.308250
0.553625 0.432000 0.316500
0.566688 0.443000 0.324750
0.579750 0.454000 0.333000
0.592813 0.465000 0.341250
0.558375 0.436000 0.319500
0.571437 0.447000 0.327750
0.584500 0.458000 0.336000
0.597562 0.469000 0.344250
0.610625 0.480000 0.352500
0.623687 0.491000 0.360750
0.636750 0.502000 0.369000
0.649812 0.513000 0.377250
0.662875 0.524000 0.385500
0.628437 0.495000 0.363750
0.641500 0.506000 0.372000
0.654562 0.517000 0.380250
0.667625 0.528000 0.388500
0.680687 0.539000 0.396750
0.693750 0.550000 0.405000
0.706812 0.561000 0.413250
0.719875 0.572000 0.421500
0.732937 0.583000 0.429750
0.698500 0.554000 0.408000
0.711562 0.565000 0.416250
0.724625 0.576000 0.424500
0.737687 0.587000 0.432750
0.750750 0.598000 0.441000
0.763812 0.609000 0.449250
0.776875 0.620000 0.457500
0.789937 0.631000 0.465750
0.803000 0.642000 0.474000
0.768562 0.613000 0.452250
0.781625 0.624000 0.460500
0.794687 0.635000 0.468750
0.807750 0.646000 0.477000
0.820812 0.657000 0.485250
0.833875 0.668000 0.493500
0.846937 0.679000 0.501750
0.860000 0.690000 0.510000
0.873062 0.701000 0.518250
0.838625 0.672000 0.496500
0.851687 0.683000 0.504750
0.864750 0.694000 0.513000
0.877812 0.705000 0.521250
0.890875 0.716000 0.529500
0.903937 0.727000 0.537750
0.917000 0.738000 0.546000
0.930063 0.749000 0.554250
0.943125 0.760000 0.562500
0.313750 0.230000 0.165000
0.326812 0.241000 0.173250
0.339875 0.252000 0.181500
0.352938 0.263000 0.189750
0.366000 0.274000 0.198000
0.379062 0.285000 0.206250
0.392125 0.296000 0.214500
0.405187 0.307000 0.222750
0.418250 0.318000 0.231000
0.383813 0.289000 0.209250
0.396875 0.300000 0.217500
0.409937 0.311000 0.225750
0.423000 0.322000 0.234000
0.436062 0.333000 0.242250
0.449125 0.344000 0.250500
0.462187 0.355000 0.258750
0.475250 0.366000 0.267000
0.488312 0.377000 0.275250
0.453875 0.348000 0.253500
0.466937 0.359000 0.261750
0.480000 0.370000 0.270000
0.493062 0.381000 0.278250
0.506125 0.392000 0.286500
0.519187 0.403000 0.294750
0.532250 0.414000 0.303000
0.545312 0.425000 0.311250
0.558375 0.436000 0.319500
0.523937 0.407000 0.297750
0.537000 0.418000 0.306000
0.550063 0.429000 0.314250
0.563125 0.440000 0.322500
0.576187 0.451000 0.330750
0.589250 0.462000 0.339000
0.602312 0.473000 0.347250
0.615375 0.484000 0.355500
0.628437 0.495000 0.363750
0.594000 0.466000 0.342000
0.607063 0.477000 0.350250
0.620125 0.488000 0.358500
0.633188 0.499000 0.366750
0.646250 0.510000 0.375000
0.659312 0.521000 0.383250
0.672375 0.532000 0.391500
0.685437 0.543000 0.399750
0.698500 0.554000 0.408000
0.664062 0.525000 0.386250
0.677125 0.536000 0.394500
0.690187 0.547000 0.402750
0.703250 0.558000 0.411000
0.716313 0.569000 0.419250
0.729375 0.580000 0.427500
0.742437 0.591000 0.435750
0.755500 0.602000 0.444000
0.768562 0.613000 0.452250
0.734125 0.584000 0.430500
0.747188 0.595000 0.438750
0.760250 0.606000 0.447000
0.773312 0.617000 0.455250
0.786375 0.628000 0.463500
0.799437 0.639000 0.471750
0.812500 0.650000 0.480000
0.825562 0.661000 0.488250
0.838625 0.672000 0.496500
0.804187 0.643000 0.474750
0.817250 0.654000 0.483000
0.830312 0.665000 0.491250
0.843375 0.676000 0.499500
0.856437 0.687000 0.507750
0.869500 0.698000 0.516000
0.882562 0.709000 0.524250
0.895625 0.720000 0.532500
0.908687 0.731000 0.540750
0.874250 0.702000 0.519000
0.887312 0.713000 0.527250
0.900375 0.724000 0.535500
0.913437 0.735000 0.543750
0.926500 0.746000 0.552000
0.939562 0.757000 0.560250
0.952625 0.768000 0.568500
0.965687 0.779000 0.576750
0.978750 0.790000 0.585000
0.349375 0.260000 0.187500
0.362437 0.271000 0.195750
0.375500 0.282000 0.204000
0.388563 0.293000 0.212250
0.401625 0.304000 0.220500
0.414687 0.315000 0.228750
0.427750 0.326000 0.237000
0.440813 0.337000 0.245250
0.453875 0.348000 0.253500
0.419438 0.319000 0.231750
0.432500 0.330000 0.240000
0.445562 0.341000 0.248250
0.458625 0.352000 0.256500
0.471687 0.363000 0.264750
0.484750 0.374000 0.273000
0.497812 0.385000 0.281250
0.510875 0.396000 0.289500
0.523937 0.407000 0.297750
0.489500 0.378000 0.276000
0.502563 0.389000 0.284250
0.515625 0.400000 0.292500
0.528687 0.411000 0.300750
0.541750 0.422000 0.309000
0.554813 0.433000 0.317250
0.567875 0.444000 0.325500
0.580938 0.455000 0.333750
0.594000 0.466000 0.342000
0.559562 0.437000 0.320250
0.572625 0.448000 0.328500
0.585687 0.459000 0.336750
0.598750 0.470000 0.345000
0.611812 0.481000 0.353250
0.624875 0.492000 0.361500
0.637937 0.503000 0.369750
0.651000 0.514000 0.378000
0.664062 0.525000 0.386250
0.629625 0.496000 0.364500
0.642687 0.507000 0.372750
0.655750 0.518000 0.381000
0.668812 0.529000 0.389250
0.681875 0.540000 0.397500
0.694937 0.551000 0.405750
0.708000 0.562000 0.414000
0.721063 0.573000 0.422250
0.734125 0.584000 0.430500
0.699687 0.555000 0.408750
0.712750 0.566000 0.417000
0.725812 0.577000 0.425250
0.738875 0.588000 0.433500
0.751937 0.599000 0.441750
0.765000 0.610000 0.450000
0.778062 0.621000 0.458250
0.791125 0.632000 0.466500
0.804187 0.643000 0.474750
0.769750 0.614000 0.453000
0.782813 0.625000 0.461250
0.795875 0.636000 0.469500
0.808937 0.647000 0.477750
0.822000 0.658000 0.486000
0.835063 0.669000 0.494250
0.848125 0.680000 0.502500
0.861187 0.691000 0.510750
0.874250 0.702000 0.519000
0.839812 0.673000 0.497250
0.852875 0.684000 0.505500
0.865937 0.695000 0.513750
0.879000 0.706000 0.522000
0.892063 0.717000 0.530250
0.905125 0.728000 0.538500
0.918188 0.739000 0.546750
0.931250 0.750000 0.555000
0.944312 0.761000 0.563250
0.909875 0.732000 0.541500
0.922937 0.743000 0.549750
0.936000 0.754000 0.558000
0.949063 0.765000 0.566250
0.962125 0.776000 0.574500
0.975187 0.787000 0.582750
0.988250 0.798000 0.591000
1.001313 0.809000 0.599250
1.014375 0.820000 0.607500
0.385000 0.290000 0.210000
0.398062 0.301000 0.218250
0.411125 0.312000 0.226500
0.424187 0.323000 0.234750
0.437250 0.334000 0.243000
0.450313 0.345000 0.251250
0.463375 0.356000 0.259500
0.476437 0.367000 0.267750
0.489500 0.378000 0.276000
0.455062 0.349000 0.254250
0.468125 0.360000 0.262500
0.481187 0.371000 0.270750
0.494250 0.382000 0.279000
0.507312 0.393000 0.287250
0.520375 0.404000 0.295500
0.533438 0.415000 0.303750
0.546500 0.426000 0.312000
0.559562 0.437000 0.320250
0.525125 0.408000 0.298500
0.538187 0.419000 0.306750
0.551250 0.430000 0.315000
0.564312 0.441000 0.323250
0.577375 0.452000 0.331500
0.590437 0.463000 0.339750
0.603500 0.474000 0.348000
0.616562 0.485000 0.356250
0.629625 0.496000 0.364500
0.595187 0.467000 0.342750
0.608250 0.478000 0.351000
0.621312 0.489000 0.359250
0.634375 0.500000 0.367500
0.647437 0.511000 0.375750
0.660500 0.522000 0.384000
0.673562 0.533000 0.392250
0.686625 0.544000 0.400500
0.699687 0.555000 0.408750
0.665250 0.526000 0.387000
0.678312 0.537000 0.395250
0.691375 0.548000 0.403500
0.704437 0.559000 0.411750
0.717500 0.570000 0.420000
0.730562 0.581000 0.428250
0.743625 0.592000 0.436500
0.756687 0.603000 0.444750
0.769750 0.614000 0.453000
0.735312 0.585000 0.431250
0.748375 0.596000 0.439500
0.761437 0.607000 0.447750
0.774500 0.618000 0.456000
0.787562 0.629000 0.464250
0.800625 0.640000 0.472500
0.813687 0.651000 0.480750
0.826750 0.662000 0.489000
0.839812 0.673000 0.497250
0.805375 0.644000 0.475500
0.818437 0.655000 0.483750
0.831500 0.666000 0.492000
0.844562 0.677000 0.500250
0.857625 0.688000 0.508500
0.870687 0.699000 0.516750
0.883750 0.710000 0.525000
0.896812 0.721000 0.533250
0.909875 0.732000 0.541500
0.875437 0.703000 0.519750
0.888500 0.714000 0.528000
0.901562 0.725000 0.536250
0.914625 0.736000 0.544500
0.927687 0.747000 0.552750
0.940750 0.758000 0.561000
0.953812 0.769000 0.569250
0.966875 0.780000 0.577500
0.979937 0.791000 0.585750
0.945500 0.762000 0.564000
0.958562 0.773000 0.572250
0.971625 0.784000 0.580500
0.984687 0.795000 0.588750
0.997750 0.806000 0.597000
1.010812 0.817000 0.605250
1.023875 0.828000 0.613500
1.036937 0.839000 0.621750
1.050000 0.850000 0.630000
