filters/Warm Light.cube
LUT_3D_SIZE 16
0.071182 0.056423 0.004328
0.090078 0.056423 0.004328
0.148300 0.056423 0.004328
0.218946 0.056423 0.004328
0.289994 0.056423 0.004328
0.355335 0.056423 0.004328
0.422291 0.056423 0.004328
0.486803 0.056423 0.004328
0.551026 0.056423 0.004328
0.614244 0.056423 0.004328
0.677449 0.056423 0.004328
0.740481 0.056423 0.004328
0.804439 0.056423 0.004328
0.869711 0.056423 0.004328
0.935410 0.056423 0.004328
0.990452 0.056423 0.004328
0.071182 0.073339 0.004328
0.090078 0.073339 0.004328
0.148300 0.074309 0.004328
0.218946 0.074309 0.004328
0.289994 0.074443 0.004328
0.355335 0.074116 0.004328
0.422291 0.073475 0.004328
0.486803 0.073154 0.004328
0.551026 0.072930 0.004328
0.614244 0.072714 0.004328
0.677449 0.071971 0.004328
0.740481 0.072714 0.004328
0.804439 0.072598 0.004328
0.869711 0.072462 0.004328
0.935410 0.072598 0.004328
0.990452 0.072462 0.004328
0.071182 0.128326 0.004328
0.090925 0.128326 0.004328
0.148300 0.128326 0.004328
0.218718 0.129407 0.004328
0.289994 0.128363 0.004328
0.355335 0.127262 0.004328
0.422291 0.126196 0.004328
0.486803 0.125103 0.004328
0.551026 0.124322 0.004328
0.614244 0.123612 0.004328
0.677449 0.123235 0.004328
0.740481 0.122526 0.004328
0.804439 0.123206 0.004328
0.869711 0.122732 0.004328
0.935410 0.123206 0.004328
0.990452 0.122732 0.004328
0.071182 0.197072 0.004328
0.091230 0.197072 0.004328
0.149406 0.197072 0.004328
0.219043 0.197072 0.004328
0.289994 0.196317 0.004328
0.355335 0.194565 0.004328
0.422291 0.192143 0.004328
0.486803 0.190401 0.004328
0.551026 0.189157 0.004328
0.614244 0.188019 0.004328
0.677449 0.187048 0.004328
0.740481 0.186984 0.004328
0.804439 0.186312 0.004328
0.869711 0.186578 0.004328
0.935410 0.187348 0.004328
0.990452 0.186578 0.004328
0.071182 0.265368 0.004328
0.091059 0.265368 0.004328
0.148300 0.265368 0.004328
0.217804 0.265368 0.004328
0.289994 0.266027 0.004328
0.355335 0.261668 0.004328
0.422291 0.259941 0.004328
0.486803 0.257606 0.004328
0.551026 0.255898 0.004328
0.614244 0.254375 0.004328
0.677449 0.252847 0.004328
0.740481 0.252342 0.004328
0.804439 0.252498 0.004328
0.869711 0.252451 0.004328
0.935410 0.253516 0.004328
0.990452 0.252451 0.004328
0.071182 0.331215 0.004328
0.090653 0.331215 0.004328
0.147203 0.331215 0.004328
0.215257 0.331215 0.004328
0.286862 0.331664 0.004328
0.356310 0.331777 0.004328
0.422291 0.327697 0.004328
0.486803 0.324785 0.004328
0.551026 0.322671 0.004328
0.614244 0.320803 0.004328
0.677449 0.319685 0.004328
0.740481 0.318783 0.004328
0.804439 0.318710 0.004328
0.869711 0.318413 0.004328
0.935410 0.319711 0.004328
0.990452 0.318413 0.004328
0.071182 0.395001 0.004328
0.090229 0.395001 0.004328
0.146089 0.395001 0.004328
0.213761 0.395001 0.004328
0.283738 0.395001 0.004328
0.352262 0.394501 0.004328
0.422291 0.395001 0.004328
0.486803 0.391539 0.004328
0.551026 0.388981 0.004328
0.614244 0.386795 0.004328
0.677449 0.385082 0.004328
0.740481 0.383849 0.004328
0.804439 0.383524 0.004328
0.869711 0.383924 0.004328
0.935410 0.385517 0.004328
0.990452 0.383924 0.004328
0.071182 0.457649 0.004328
0.089876 0.457649 0.004328
0.144993 0.457649 0.004328
0.211263 0.457649 0.004328
0.281064 0.457649 0.004328
0.349174 0.457649 0.004328
0.418724 0.457649 0.004328
0.486803 0.457649 0.004328
0.551026 0.454757 0.004328
0.614244 0.452142 0.004328
0.677449 0.449923 0.004328
0.740481 0.448262 0.004328
0.804439 0.448717 0.004328
0.869711 0.448863 0.004328
0.935410 0.450650 0.004328
0.990452 0.448863 0.004328
0.071182 0.520007 0.004328
0.089634 0.520007 0.004328
0.143885 0.520007 0.004328
0.209928 0.520007 0.004328
0.279428 0.520007 0.004328
0.347149 0.520007 0.004328
0.416127 0.520007 0.004328
0.483824 0.520007 0.004328
0.551026 0.520007 0.004328
0.614244 0.517036 0.004328
0.677449 0.515213 0.004328
0.740481 0.513158 0.004328
0.804439 0.513412 0.004328
0.869711 0.514272 0.004328
0.935410 0.515328 0.004328
0.990452 0.513287 0.004328
0.071182 0.581344 0.004328
0.089390 0.581344 0.004328
0.143885 0.581344 0.004328
0.209700 0.581344 0.004328
0.278112 0.581344 0.004328
0.345423 0.581344 0.004328
0.413819 0.581344 0.004328
0.481121 0.581344 0.004328
0.547955 0.581344 0.004328
0.614244 0.581344 0.004328
0.677343 0.579441 0.004328
0.740481 0.577540 0.004328
0.804439 0.576622 0.004328
0.869711 0.577174 0.004328
0.935410 0.579469 0.004328
0.990452 0.577174 0.004328
0.071182 0.642096 0.004328
0.089213 0.642096 0.004328
0.142780 0.642096 0.004328
0.208441 0.642096 0.004328
0.276031 0.642096 0.004328
0.344138 0.642096 0.004328
0.411833 0.642096 0.004328
0.478897 0.642096 0.004328
0.545388 0.642096 0.004328
0.611434 0.642096 0.004328
0.676783 0.642096 0.004328
0.739782 0.640191 0.004328
0.804439 0.640201 0.004328
0.869711 0.640489 0.004328
0.935410 0.643041 0.004328
0.990452 0.640489 0.004328
0.071182 0.703226 0.004328
0.089089 0.703226 0.004328
0.142780 0.703226 0.004328
0.208330 0.703226 0.004328
0.275912 0.703226 0.004328
0.343800 0.703226 0.004328
0.410697 0.703226 0.004328
0.477556 0.703226 0.004328
0.543937 0.703226 0.004328
0.609708 0.703226 0.004328
0.675282 0.703226 0.004328
0.739902 0.703226 0.004328
0.804439 0.703416 0.004328
0.869711 0.703520 0.004328
0.935410 0.706219 0.004328
0.990452 0.703520 0.004328
0.071182 0.765504 0.004328
0.089093 0.765504 0.004328
0.142780 0.765504 0.004328
0.208319 0.765504 0.004328
0.275862 0.765504 0.004328
0.343690 0.765504 0.004328
0.410606 0.765504 0.004328
0.477472 0.765504 0.004328
0.543791 0.765504 0.004328
0.609626 0.765504 0.004328
0.675194 0.765504 0.004328
0.739816 0.765504 0.004328
0.804439 0.766085 0.004328
0.869711 0.766814 0.004328
0.935410 0.768913 0.004328
0.990452 0.765954 0.004328
0.071182 0.829400 0.004328
0.089157 0.829400 0.004328
0.142780 0.829400 0.004328
0.208413 0.829400 0.004328
0.275706 0.829400 0.004328
0.344715 0.829400 0.004328
0.411531 0.829400 0.004328
0.478443 0.829400 0.004328
0.544924 0.829400 0.004328
0.610865 0.829400 0.004328
0.676257 0.829400 0.004328
0.741044 0.829400 0.004328
0.805405 0.829501 0.004328
0.870730 0.830051 0.004328
0.935410 0.831382 0.004328
0.990452 0.828156 0.004328
0.071182 0.893277 0.004328
0.089254 0.893277 0.004328
0.142780 0.893277 0.004328
0.209565 0.893277 0.004328
0.276739 0.893277 0.004328
0.344853 0.893277 0.004328
0.412489 0.893277 0.004328
0.479575 0.893277 0.004328
0.546224 0.893277 0.004328
0.612270 0.893277 0.004328
0.678530 0.893277 0.004328
0.742559 0.893277 0.004328
0.807297 0.893277 0.004328
0.872606 0.893464 0.004328
0.935410 0.893277 0.004328
0.990452 0.889779 0.004328
0.071182 0.951225 0.004328
0.089109 0.951225 0.004328
0.142780 0.951225 0.004328
0.208355 0.951225 0.004328
0.276092 0.951225 0.004328
0.342961 0.951225 0.004328
0.410885 0.951225 0.004328
0.477763 0.951225 0.004328
0.544120 0.951225 0.004328
0.609939 0.951225 0.004328
0.675511 0.951225 0.004328
0.740186 0.951225 0.004328
0.804668 0.951225 0.004328
0.868755 0.951225 0.004328
0.931871 0.951225 0.004328
0.990452 0.951225 0.004328
0.071182 0.056423 0.007576
0.090078 0.056423 0.007576
0.148300 0.056423 0.007790
0.218946 0.056423 0.007790
0.289994 0.056423 0.007820
0.355335 0.056423 0.007748
0.422291 0.056423 0.007605
0.486803 0.056423 0.007535
0.551026 0.056423 0.007485
0.614244 0.056423 0.007438
0.677449 0.056423 0.007275
0.740481 0.056423 0.007438
0.804439 0.056423 0.007412
0.869711 0.056423 0.007383
0.935410 0.056423 0.007412
0.990452 0.056423 0.007383
0.071182 0.073339 0.007576
0.090078 0.073339 0.007576
0.148300 0.073339 0.007576
0.218946 0.073339 0.007576
0.289994 0.073339 0.007576
0.355335 0.073339 0.007576
0.422291 0.073339 0.007576
0.486803 0.073339 0.007576
0.551026 0.073339 0.007576
0.614244 0.073339 0.007576
0.677449 0.073339 0.007576
0.740481 0.073339 0.007576
0.804439 0.073339 0.007576
0.869711 0.073339 0.007576
0.935410 0.073339 0.007576
0.990452 0.073339 0.007576
0.071182 0.128326 0.007745
0.090078 0.128326 0.007576
0.148300 0.128326 0.007532
0.218946 0.128326 0.007576
0.289994 0.128276 0.007576
0.355335 0.127377 0.007576
0.422291 0.126120 0.007576
0.486803 0.125219 0.007576
0.551026 0.124582 0.007576
0.614244 0.124003 0.007576
0.677449 0.123506 0.007576
0.740481 0.122919 0.007576
0.804439 0.122605 0.007576
0.869711 0.123297 0.007576
0.935410 0.123690 0.007576
0.990452 0.123297 0.007576
0.071182 0.197072 0.007808
0.090078 0.197072 0.007576
0.148300 0.197072 0.007594
0.218946 0.197072 0.007576
0.289994 0.196268 0.007576
0.355335 0.193587 0.007576
0.422291 0.192120 0.007576
0.486803 0.190462 0.007576
0.551026 0.189310 0.007576
0.614244 0.188241 0.007576
0.677449 0.188274 0.007576
0.740481 0.187195 0.007576
0.804439 0.186607 0.007576
0.869711 0.186921 0.007576
0.935410 0.187659 0.007576
0.990452 0.186921 0.007576
0.071182 0.265368 0.007773
0.090078 0.265368 0.007576
0.148300 0.265368 0.007559
0.217871 0.265368 0.007576
0.289994 0.266020 0.007576
0.355335 0.261694 0.007576
0.422291 0.259934 0.007576
0.486803 0.257623 0.007576
0.551026 0.255981 0.007576
0.614244 0.254520 0.007576
0.677449 0.253947 0.007576
0.740481 0.252486 0.007576
0.804439 0.252685 0.007576
0.869711 0.252695 0.007576
0.935410 0.253699 0.007576
0.990452 0.252695 0.007576
0.071182 0.331215 0.007689
0.090078 0.331215 0.007576
0.147203 0.331215 0.007477
0.215752 0.331215 0.007576
0.286862 0.331669 0.007576
0.356310 0.331787 0.007576
0.422291 0.327702 0.007576
0.486803 0.324802 0.007576
0.551026 0.322753 0.007576
0.614244 0.320872 0.007576
0.677449 0.319750 0.007576
0.740481 0.317885 0.007576
0.804439 0.318845 0.007576
0.869711 0.318555 0.007576
0.935410 0.319846 0.007576
0.990452 0.318555 0.007576
0.071182 0.395001 0.007605
0.090078 0.395001 0.007576
0.146089 0.395001 0.007605
0.213617 0.395001 0.007576
0.283738 0.395001 0.007576
0.352262 0.394457 0.007576
0.422291 0.395001 0.007576
0.486803 0.391529 0.007576
0.551026 0.389025 0.007576
0.614244 0.386822 0.007576
0.677449 0.385126 0.007576
0.740481 0.383883 0.007576
0.804439 0.383605 0.007576
0.869711 0.384004 0.007576
0.935410 0.385561 0.007576
0.990452 0.384004 0.007576
0.071182 0.457649 0.007535
0.090078 0.457649 0.007576
0.144993 0.457649 0.007535
0.212533 0.457649 0.007576
0.281043 0.457649 0.007576
0.349174 0.457649 0.007576
0.418676 0.457649 0.007576
0.486803 0.457649 0.007576
0.551026 0.454757 0.007576
0.614244 0.452188 0.007576
0.677449 0.449922 0.007576
0.740481 0.449275 0.007576
0.804439 0.448777 0.007576
0.869711 0.448961 0.007576
0.935410 0.450729 0.007576
0.990452 0.448961 0.007576
0.071182 0.520007 0.007485
0.090078 0.520007 0.007576
0.143885 0.520007 0.007485
0.210382 0.520007 0.007576
0.279476 0.520007 0.007576
0.347148 0.520007 0.007576
0.416159 0.520007 0.007576
0.483824 0.520007 0.007576
0.551026 0.520007 0.007576
0.614244 0.517026 0.007576
0.677449 0.515213 0.007576
0.740481 0.513184 0.007576
0.804439 0.513472 0.007576
0.869711 0.514337 0.007576
0.935410 0.515387 0.007576
0.990452 0.513352 0.007576
0.071182 0.581344 0.007438
0.090078 0.581344 0.007576
0.143885 0.581344 0.007650
0.209311 0.581344 0.007576
0.278156 0.581344 0.007576
0.346462 0.581344 0.007576
0.413857 0.581344 0.007576
0.481171 0.581344 0.007576
0.547983 0.581344 0.007576
0.614244 0.581344 0.007576
0.677312 0.579441 0.007576
0.740481 0.577540 0.007576
0.804439 0.576660 0.007576
0.869711 0.578188 0.007576
0.935410 0.579508 0.007576
0.990452 0.577223 0.007576
0.071182 0.642096 0.007402
0.090078 0.642096 0.007576
0.142780 0.642096 0.007613
0.209311 0.642096 0.007576
0.277199 0.642096 0.007576
0.344205 0.642096 0.007576
0.411939 0.642096 0.007576
0.478977 0.642096 0.007576
0.545418 0.642096 0.007576
0.611432 0.642096 0.007576
0.676832 0.642096 0.007576
0.739779 0.640191 0.007576
0.804439 0.640267 0.007576
0.869711 0.640598 0.007576
0.935410 0.643074 0.007576
0.990452 0.640598 0.007576
0.071182 0.703226 0.007380
0.090078 0.703226 0.007576
0.142780 0.703226 0.007590
0.208243 0.703226 0.007576
0.276015 0.703226 0.007576
0.343866 0.703226 0.007576
0.410805 0.703226 0.007576
0.477636 0.703226 0.007576
0.543971 0.703226 0.007576
0.609721 0.703226 0.007576
0.675347 0.703226 0.007576
0.739924 0.703226 0.007576
0.804439 0.703454 0.007576
0.869711 0.703487 0.007576
0.935410 0.706258 0.007576
0.990452 0.703487 0.007576
0.071182 0.765504 0.007378
0.090078 0.765504 0.007576
0.142780 0.765504 0.007589
0.208243 0.765504 0.007576
0.275975 0.765504 0.007576
0.343796 0.765504 0.007576
0.410750 0.765504 0.007576
0.477551 0.765504 0.007576
0.543866 0.765504 0.007576
0.609664 0.765504 0.007576
0.675225 0.765504 0.007576
0.739880 0.765504 0.007576
0.804439 0.766103 0.007576
0.869711 0.766835 0.007576
0.935410 0.768920 0.007576
0.990452 0.765982 0.007576
0.071182 0.829400 0.007394
0.090078 0.829400 0.007576
0.142780 0.829400 0.007605
0.208243 0.829400 0.007576
0.275764 0.829400 0.007576
0.344776 0.829400 0.007576
0.411588 0.829400 0.007576
0.478531 0.829400 0.007576
0.544979 0.829400 0.007576
0.610887 0.829400 0.007576
0.676305 0.829400 0.007576
0.741113 0.829400 0.007576
0.805405 0.829511 0.007576
0.870730 0.830071 0.007576
0.935410 0.831392 0.007576
0.990452 0.828176 0.007576
0.071182 0.893277 0.007412
0.090078 0.893277 0.007576
0.143885 0.893277 0.007624
0.209311 0.893277 0.007576
0.276804 0.893277 0.007576
0.344925 0.893277 0.007576
0.412580 0.893277 0.007576
0.479672 0.893277 0.007576
0.546275 0.893277 0.007576
0.612338 0.893277 0.007576
0.678557 0.893277 0.007576
0.742535 0.893277 0.007576
0.807297 0.893277 0.007576
0.872606 0.893475 0.007576
0.935410 0.893277 0.007576
0.990452 0.889789 0.007576
0.071182 0.951225 0.007383
0.090078 0.951225 0.007576
0.142780 0.951225 0.007594
0.208243 0.951225 0.007576
0.276207 0.951225 0.007576
0.343068 0.951225 0.007576
0.410933 0.951225 0.007576
0.477842 0.951225 0.007576
0.544191 0.951225 0.007576
0.609992 0.951225 0.007576
0.675567 0.951225 0.007576
0.740232 0.951225 0.007576
0.804678 0.951225 0.007576
0.868755 0.951225 0.007576
0.931882 0.951225 0.007576
0.990452 0.951225 0.007576
0.071182 0.056423 0.025128
0.090925 0.056423 0.025128
0.148300 0.056423 0.025128
0.218718 0.056423 0.025597
0.289994 0.056423 0.025139
0.355335 0.056423 0.024668
0.422291 0.056423 0.024212
0.486803 0.056423 0.023755
0.551026 0.056423 0.023429
0.614244 0.056423 0.023136
0.677449 0.056423 0.022985
0.740481 0.056423 0.022695
0.804439 0.056423 0.022971
0.869711 0.056423 0.022773
0.935410 0.056423 0.022971
0.990452 0.056423 0.022773
0.071182 0.074101 0.025128
0.090078 0.073339 0.025128
0.148300 0.073142 0.025128
0.218946 0.073339 0.025128
0.289994 0.073339 0.025105
0.355335 0.073339 0.024716
0.422291 0.073339 0.024180
0.486803 0.073339 0.023801
0.551026 0.073339 0.023534
0.614244 0.073339 0.023295
0.677449 0.073339 0.023088
0.740481 0.073339 0.022854
0.804439 0.073339 0.022728
0.869711 0.073339 0.023010
0.935410 0.073339 0.023170
0.990452 0.073339 0.023010
0.071182 0.128326 0.025128
0.090078 0.128326 0.025128
0.148300 0.128326 0.025128
0.218946 0.128326 0.025128
0.289994 0.128326 0.025128
0.355335 0.128326 0.025128
0.422291 0.128326 0.025128
0.486803 0.128326 0.025128
0.551026 0.128326 0.025128
0.614244 0.128326 0.025128
0.677449 0.128326 0.025128
0.740481 0.128326 0.025128
0.804439 0.128326 0.025128
0.869711 0.128326 0.025128
0.935410 0.128326 0.025128
0.990452 0.128326 0.025128
0.071182 0.197072 0.025544
0.090078 0.197072 0.025346
0.148300 0.197072 0.025073
0.218946 0.197072 0.025346
0.289994 0.196402 0.025128
0.355335 0.194291 0.025128
0.422291 0.193266 0.025128
0.486803 0.192199 0.025128
0.551026 0.191459 0.025128
0.614244 0.190747 0.025128
0.677449 0.190415 0.025128
0.740481 0.189711 0.025128
0.804439 0.189403 0.025128
0.869711 0.189965 0.025128
0.935410 0.190440 0.025128
0.990452 0.189965 0.025128
0.071182 0.265368 0.025307
0.090078 0.265368 0.025103
0.148300 0.265368 0.025307
0.217871 0.265368 0.025103
0.289994 0.265602 0.025128
0.355335 0.262702 0.025128
0.422291 0.260528 0.025128
0.486803 0.258626 0.025128
0.551026 0.257295 0.025128
0.614244 0.256113 0.025128
0.677449 0.255260 0.025128
0.740481 0.255093 0.025128
0.804439 0.254540 0.025128
0.869711 0.254720 0.025128
0.935410 0.255557 0.025128
0.990452 0.254720 0.025128
0.071182 0.331215 0.024775
0.090078 0.331215 0.024650
0.148300 0.331215 0.025241
0.216810 0.331215 0.025114
0.286862 0.330943 0.025128
0.356310 0.331332 0.025128
0.422291 0.327936 0.025128
0.486803 0.325367 0.025128
0.551026 0.323529 0.025128
0.614244 0.321898 0.025128
0.677449 0.320545 0.025128
0.740481 0.318895 0.025128
0.804439 0.319155 0.025128
0.869711 0.320004 0.025128
0.935410 0.321141 0.025128
0.990452 0.320004 0.025128
0.071182 0.395001 0.024212
0.090078 0.395001 0.024180
0.148300 0.395001 0.025139
0.214676 0.395001 0.025105
0.284790 0.395001 0.025128
0.353281 0.394696 0.025128
0.422291 0.395001 0.025128
0.486803 0.391736 0.025128
0.551026 0.389500 0.025128
0.614244 0.387436 0.025128
0.677449 0.385552 0.025128
0.740481 0.384513 0.025128
0.804439 0.384559 0.025128
0.869711 0.385103 0.025128
0.935410 0.386512 0.025128
0.990452 0.385103 0.025128
0.071182 0.457649 0.023755
0.090078 0.457649 0.023801
0.148300 0.457649 0.025132
0.213617 0.457649 0.025183
0.282339 0.457649 0.025128
0.350207 0.457649 0.025128
0.418956 0.457649 0.025128
0.486803 0.457649 0.025128
0.551026 0.454988 0.025128
0.614244 0.452558 0.025128
0.677449 0.450120 0.025128
0.740481 0.449626 0.025128
0.804439 0.449513 0.025128
0.869711 0.450732 0.025128
0.935410 0.451461 0.025128
0.990452 0.449761 0.025128
0.071182 0.520007 0.023429
0.090078 0.520007 0.023534
0.148300 0.520007 0.025261
0.212533 0.520007 0.025373
0.279943 0.520007 0.025128
0.348397 0.520007 0.025128
0.416637 0.520007 0.025128
0.484054 0.520007 0.025128
0.551026 0.520007 0.025128
0.614244 0.517248 0.025128
0.677449 0.515213 0.025128
0.740481 0.514340 0.025128
0.804439 0.513980 0.025128
0.869711 0.513934 0.025128
0.935410 0.515911 0.025128
0.990452 0.513934 0.025128
0.071182 0.581344 0.023136
0.090078 0.581344 0.023295
0.148300 0.581344 0.024952
0.212533 0.581344 0.025124
0.278825 0.581344 0.025128
0.347879 0.581344 0.025128
0.414509 0.581344 0.025128
0.481541 0.581344 0.025128
0.548183 0.581344 0.025128
0.614244 0.581344 0.025128
0.677538 0.579441 0.025128
0.740481 0.577540 0.025128
0.804439 0.577036 0.025128
0.869711 0.577726 0.025128
0.935410 0.579904 0.025128
0.990452 0.577726 0.025128
0.071182 0.642096 0.022897
0.090078 0.642096 0.023103
0.148300 0.642096 0.025168
0.211456 0.642096 0.025389
0.278066 0.642096 0.025128
0.345787 0.642096 0.025128
0.412758 0.642096 0.025128
0.479497 0.642096 0.025128
0.545786 0.642096 0.025128
0.611552 0.642096 0.025128
0.677177 0.642096 0.025128
0.739816 0.640191 0.025128
0.804439 0.640613 0.025128
0.869711 0.641833 0.025128
0.935410 0.643409 0.025128
0.990452 0.640930 0.025128
0.071182 0.703226 0.022754
0.090078 0.703226 0.022989
0.148300 0.703226 0.025017
0.211456 0.703226 0.025269
0.278082 0.703226 0.025128
0.344534 0.703226 0.025128
0.411744 0.703226 0.025128
0.478297 0.703226 0.025128
0.544412 0.703226 0.025128
0.610002 0.703226 0.025128
0.674783 0.703226 0.025128
0.740249 0.703226 0.025128
0.804439 0.703658 0.025128
0.869711 0.704671 0.025128
0.935410 0.706481 0.025128
0.990452 0.703804 0.025128
0.071182 0.765504 0.022745
0.090078 0.765504 0.022984
0.148300 0.765504 0.025005
0.211456 0.765504 0.025261
0.278061 0.765504 0.025128
0.344529 0.765504 0.025128
0.411762 0.765504 0.025128
0.478278 0.765504 0.025128
0.544383 0.765504 0.025128
0.609984 0.765504 0.025128
0.674760 0.765504 0.025128
0.740265 0.765504 0.025128
0.804439 0.766269 0.025128
0.869711 0.767070 0.025128
0.935410 0.769096 0.025128
0.990452 0.766103 0.025128
0.071182 0.829400 0.022848
0.090078 0.829400 0.023069
0.148300 0.829400 0.025118
0.211456 0.829400 0.025351
0.277867 0.829400 0.025128
0.345557 0.829400 0.025128
0.412575 0.829400 0.025128
0.479263 0.829400 0.025128
0.545484 0.829400 0.025128
0.611274 0.829400 0.025128
0.675899 0.829400 0.025128
0.741520 0.829400 0.025128
0.805405 0.829564 0.025128
0.870730 0.830147 0.025128
0.935410 0.831444 0.025128
0.990452 0.828253 0.025128
0.071182 0.893277 0.022971
0.090078 0.893277 0.023170
0.148300 0.893277 0.025249
0.212533 0.893277 0.024988
0.278868 0.893277 0.025128
0.346719 0.893277 0.025128
0.413547 0.893277 0.025128
0.480403 0.893277 0.025128
0.546828 0.893277 0.025128
0.612720 0.893277 0.025128
0.678146 0.893277 0.025128
0.742906 0.893277 0.025128
0.807297 0.893277 0.025128
0.872606 0.893518 0.025128
0.935410 0.893277 0.025128
0.990452 0.889840 0.025128
0.071182 0.951225 0.022773
0.090078 0.951225 0.023010
0.148300 0.951225 0.025039
0.211456 0.951225 0.025287
0.278401 0.951225 0.025128
0.345962 0.951225 0.025128
0.412079 0.951225 0.025128
0.478681 0.951225 0.025128
0.544812 0.951225 0.025128
0.610479 0.951225 0.025128
0.675212 0.951225 0.025128
0.739789 0.951225 0.025128
0.804770 0.951225 0.025128
0.868755 0.951225 0.025128
0.931985 0.951225 0.025128
0.990452 0.951225 0.025128
0.071182 0.056423 0.069194
0.091230 0.056423 0.069194
0.149406 0.056423 0.069194
0.219043 0.056423 0.069194
0.289994 0.056423 0.068546
0.355335 0.056423 0.067029
0.422291 0.056423 0.064984
0.486803 0.056423 0.063520
0.551026 0.056423 0.062497
0.614244 0.056423 0.061584
0.677449 0.056423 0.060807
0.740481 0.056423 0.060746
0.804439 0.056423 0.060212
0.869711 0.056423 0.060415
0.935410 0.056423 0.061047
0.990452 0.056423 0.060415
0.071182 0.074387 0.069194
0.090078 0.073339 0.069194
0.148300 0.073424 0.069194
0.218946 0.073339 0.069194
0.289994 0.073339 0.068513
0.355335 0.073339 0.066195
0.422291 0.073339 0.064952
0.486803 0.073339 0.063576
0.551026 0.073339 0.062622
0.614244 0.073339 0.061751
0.677449 0.073339 0.061772
0.740481 0.073339 0.060908
0.804439 0.073339 0.060456
0.869711 0.073339 0.060702
0.935410 0.073339 0.061294
0.990452 0.073339 0.060702
0.071182 0.129283 0.069194
0.090078 0.128833 0.069194
0.148300 0.128213 0.069194
0.218946 0.128833 0.069194
0.289994 0.128326 0.068616
0.355335 0.128326 0.066793
0.422291 0.128326 0.065927
0.486803 0.128326 0.065025
0.551026 0.128326 0.064395
0.614244 0.128326 0.063824
0.677449 0.128326 0.063528
0.740481 0.128326 0.062961
0.804439 0.128326 0.062704
0.869711 0.128326 0.063175
0.935410 0.128326 0.063563
0.990452 0.128326 0.063175
0.071182 0.197072 0.069194
0.090078 0.197072 0.069194
0.148300 0.197072 0.069194
0.218946 0.197072 0.069194
0.289994 0.197072 0.069194
0.355335 0.197072 0.069194
0.422291 0.197072 0.069194
0.486803 0.197072 0.069194
0.551026 0.197072 0.069194
0.614244 0.197072 0.069194
0.677449 0.197072 0.069194
0.740481 0.197072 0.069194
0.804439 0.197072 0.069194
0.869711 0.197072 0.069194
0.935410 0.197072 0.069194
0.990453 0.197072 0.069194
0.071182 0.265368 0.068442
0.090078 0.265368 0.068291
0.148300 0.265368 0.068442
0.218946 0.265368 0.069199
0.289994 0.265544 0.069194
0.355335 0.263476 0.069194
0.422291 0.262498 0.069194
0.486803 0.261450 0.069194
0.551026 0.260743 0.069194
0.614244 0.260083 0.069194
0.677449 0.259729 0.069194
0.740481 0.259068 0.069194
0.804439 0.258962 0.069194
0.869711 0.259486 0.069194
0.935410 0.259977 0.069194
0.990453 0.259486 0.069194
0.071182 0.331215 0.066749
0.090078 0.331215 0.066637
0.148300 0.331215 0.067644
0.218946 0.331215 0.069340
0.287908 0.331787 0.069194
0.356310 0.330919 0.069194
0.422291 0.328778 0.069194
0.486803 0.326916 0.069194
0.551026 0.325654 0.069194
0.614244 0.324491 0.069194
0.677449 0.323655 0.069194
0.740481 0.323489 0.069194
0.804439 0.323277 0.069194
0.869711 0.323391 0.069194
0.935410 0.324279 0.069194
0.990453 0.323391 0.069194
0.071182 0.395001 0.064984
0.090078 0.395001 0.064952
0.148300 0.395001 0.065862
0.218946 0.395001 0.069421
0.286862 0.395001 0.069194
0.353281 0.394353 0.069194
0.422291 0.395001 0.069194
0.486803 0.392396 0.069194
0.551026 0.390679 0.069194
0.614244 0.389071 0.069194
0.677449 0.387726 0.069194
0.740481 0.387124 0.069194
0.804439 0.386854 0.069194
0.869711 0.387624 0.069194
0.935410 0.388819 0.069194
0.990453 0.387624 0.069194
0.071182 0.457649 0.063520
0.090078 0.457649 0.063576
0.148300 0.457649 0.065261
0.218946 0.457649 0.068890
0.285123 0.457649 0.069194
0.352262 0.457649 0.069194
0.419591 0.457649 0.069194
0.486803 0.457649 0.069194
