filters/Warm Light.cube
LUT_3D_SIZE 6
0.071182 0.056423 0.004328
0.218946 0.056423 0.004328
0.422291 0.056423 0.004328
0.614244 0.056423 0.004328
0.804439 0.056423 0.004328
0.990452 0.056423 0.004328
0.071182 0.197072 0.004328
0.219043 0.197072 0.004328
0.422291 0.192143 0.004328
0.614244 0.188019 0.004328
0.804439 0.186312 0.004328
0.990452 0.186578 0.004328
0.071182 0.395001 0.004328
0.213761 0.395001 0.004328
0.422291 0.395001 0.004328
0.614244 0.386795 0.004328
0.804439 0.383524 0.004328
0.990452 0.383924 0.004328
0.071182 0.581344 0.004328
0.209700 0.581344 0.004328
0.413819 0.581344 0.004328
0.614244 0.581344 0.004328
0.804439 0.576622 0.004328
0.990452 0.577174 0.004328
0.071182 0.765504 0.004328
0.208319 0.765504 0.004328
0.410606 0.765504 0.004328
0.609626 0.765504 0.004328
0.804439 0.766085 0.004328
0.990452 0.765954 0.004328
0.071182 0.951225 0.004328
0.208355 0.951225 0.004328
0.410885 0.951225 0.004328
0.609939 0.951225 0.004328
0.804668 0.951225 0.004328
0.990452 0.951225 0.004328
0.071182 0.056423 0.069194
0.219043 0.056423 0.069194
0.422291 0.056423 0.064984
0.614244 0.056423 0.061584
0.804439 0.056423 0.060212
0.990452 0.056423 0.060415
0.071182 0.197072 0.069194
0.218946 0.197072 0.069194
0.422291 0.197072 0.069194
0.614244 0.197072 0.069194
0.804439 0.197072 0.069194
0.990453 0.197072 0.069194
0.071182 0.395001 0.064984
0.218946 0.395001 0.069421
0.422291 0.395001 0.069194
0.614244 0.389071 0.069194
0.804439 0.386854 0.069194
0.990453 0.387624 0.069194
0.071182 0.581344 0.061584
0.218946 0.581344 0.069676
0.416209 0.581344 0.069194
0.614244 0.581344 0.069194
0.804439 0.578013 0.069194
0.990453 0.578810 0.069194
0.071182 0.765504 0.060337
0.218946 0.765504 0.069347
0.414224 0.765504 0.069194
0.610845 0.765504 0.069194
0.804439 0.765670 0.069194
0.990453 0.766598 0.069194
0.071182 0.951225 0.060415
0.218946 0.951225 0.069454
0.414670 0.951226 0.069194
0.611600 0.951226 0.069194
0.805793 0.951226 0.069194
0.990453 0.951226 0.069194
0.071182 0.056423 0.306353
0.213761 0.056423 0.306353
0.422291 0.056423 0.306353
0.614244 0.056423 0.296291
0.804439 0.056423 0.292314
0.990452 0.056423 0.292771
0.071182 0.192143 0.306353
0.218946 0.197315 0.306353
0.422291 0.197072 0.306353
0.614244 0.197072 0.299102
0.804439 0.197072 0.296380
0.990453 0.197072 0.297326
0.071182 0.395001 0.306353
0.218946 0.395001 0.306353
0.422291 0.395001 0.306353
0.614244 0.395001 0.306353
0.804439 0.395001 0.306353
0.990452 0.395001 0.306353
0.071182 0.581344 0.296291
0.218946 0.581344 0.298764
0.422291 0.581344 0.306353
0.614244 0.581344 0.306353
0.804439 0.580635 0.306353
0.990452 0.582099 0.306353
0.071182 0.765504 0.292509
0.218946 0.765504 0.296254
0.422291 0.765504 0.306353
0.613635 0.765504 0.306353
0.804439 0.765559 0.306353
0.990452 0.767886 0.306353
0.071182 0.951225 0.292771
0.218946 0.951225 0.297726
0.422291 0.951225 0.306353
0.615007 0.951225 0.306353
0.806230 0.951225 0.306353
0.990452 0.951225 0.306353
0.071182 0.056423 0.531811
0.209700 0.056423 0.531811
0.413819 0.056423 0.531811
0.614244 0.056423 0.531811
0.804439 0.056423 0.526114
0.990452 0.056423 0.526764
0.071182 0.188019 0.531811
0.218946 0.197613 0.531811
0.416209 0.197072 0.531811
0.614244 0.197072 0.531811
0.804439 0.197072 0.527774
0.990453 0.197072 0.528765
0.071182 0.386795 0.531811
0.218946 0.388787 0.531811
0.422291 0.395001 0.531811
0.614244 0.395001 0.531811
0.804439 0.395001 0.530981
0.990452 0.395001 0.532706
0.071182 0.581344 0.531811
0.218946 0.581344 0.531811
0.422291 0.581344 0.531811
0.614244 0.581344 0.531811
0.804439 0.581344 0.531811
0.990453 0.581344 0.531811
0.071182 0.765504 0.526383
0.218946 0.765504 0.527582
0.422291 0.765504 0.531111
0.614244 0.765504 0.531811
0.804439 0.765889 0.531811
0.990453 0.767597 0.531811
0.071182 0.951225 0.526764
0.218946 0.951225 0.529117
0.422291 0.951225 0.532706
0.614244 0.951226 0.531811
0.806159 0.951226 0.531811
0.990453 0.951226 0.531811
0.071182 0.056423 0.752625
0.208319 0.056423 0.752625
0.410606 0.056423 0.752625
0.609626 0.056423 0.752625
0.804439 0.056423 0.753344
0.990452 0.056423 0.753053
0.071182 0.186461 0.752625
0.218946 0.197251 0.752625
0.414224 0.197072 0.752625
0.610845 0.197072 0.752625
0.804439 0.197072 0.752831
0.990453 0.197072 0.753896
0.071182 0.383659 0.752625
0.218946 0.386779 0.752625
0.422291 0.395001 0.752625
0.613635 0.395001 0.752625
0.804439 0.395001 0.752691
0.990452 0.395001 0.755435
0.071182 0.576861 0.752625
0.218946 0.577835 0.752625
0.422291 0.580759 0.752625
0.614244 0.581344 0.752625
0.804439 0.581344 0.753090
0.990453 0.581344 0.755083
0.071182 0.765504 0.752625
0.218946 0.765504 0.752625
0.422291 0.765504 0.752625
0.614244 0.765504 0.752625
0.804439 0.765504 0.752625
0.990453 0.765504 0.752625
0.071182 0.951225 0.753053
0.218946 0.951225 0.754305
0.422291 0.951225 0.755435
0.614244 0.951226 0.755083
0.804567 0.951226 0.752625
0.990453 0.951226 0.752625
0.071182 0.056423 0.974283
0.208355 0.056423 0.974283
0.410885 0.056423 0.974283
0.609939 0.056423 0.974283
0.804668 0.056423 0.974283
0.990452 0.056423 0.974283
0.071182 0.186578 0.974283
0.218946 0.197360 0.974283
0.414670 0.197072 0.974283
0.611600 0.197072 0.974283
0.805793 0.197072 0.974283
0.990453 0.197072 0.974283
0.071182 0.383924 0.974283
0.218946 0.387947 0.974283
0.422291 0.395001 0.974283
0.615007 0.395001 0.974283
0.806230 0.395001 0.974283
0.990452 0.395001 0.974283
0.071182 0.577174 0.974283
0.218946 0.579125 0.974283
0.422291 0.582099 0.974283
0.614244 0.581344 0.974283
0.806159 0.581344 0.974283
0.990453 0.581344 0.974283
0.071182 0.765954 0.974283
0.218946 0.766835 0.974283
0.422291 0.767886 0.974283
0.614244 0.767597 0.974283
0.804567 0.765504 0.974283
0.990453 0.765504 0.974283
0.071182 0.951225 0.974283
0.218946 0.951225 0.974283
0.422291 0.951225 0.974283
0.614244 0.951226 0.974283
0.804439 0.951225 0.974283
0.990452 0.951225 0.974283
